;FLAVOR:Repetier
;TIME:4857
;MINX:-37.053
;MINY:-36.929
;MINZ:0.18
;MAXX:37.053
;MAXY:36.929
;MAXZ:12.3
;ARCWELDERPROCESSED
; Postprocessed by [ArcWelder](https://github.com/FormerLurker/ArcWelderLib)
; Copyright(C) 2020 - Brad Hochgesang
; resolution=0.05mm
; path_tolerance=1%
; max_radius=1000000.00mm
; firmware_compensation=True
; mm_per_arc_segment=1.00mm
; min_arc_segments=12
; default_xyz_precision=3
; default_e_precision=5

;Generated with Cura_SteamEngine 4.10.0
M82 ;absolute extrusion mode
G21
G90
M82
M107 T0
M190 S105.0
M109 S252 T0
G28
G92 E0
G0 E3 F200
G92 E0

G92 E0
G92 E0
G1 F4200 E-5
;LAYER_COUNT:45
;LAYER:0
M107
G1 F8400 Z2.18
G0 F7500 X14.586 Y32.761 Z2.18
;TYPE:SKIRT
G1 F8400 Z0.18
G1 F4200 E0.01663
G3 X12.881 Y34.643 I-4.494 J-2.358 E0.14816 F1200
G3 X9.812 Y35.607 I-3.942 J-7.183 E0.31409
G3 X7.455 Y35.079 I-0.086 J-5.140 E0.43901
G3 X5.411 Y36.560 I-3.898 J-3.229 E0.56973
G3 X2.184 Y36.867 I-2.374 J-7.836 E0.73698
G3 X0 Y35.864 I0.996 J-5.048 E0.86124
G3 X-2.296 Y36.885 I-3.158 J-4.009 E0.99134
G3 X-5.521 Y36.520 I-0.706 J-8.192 E1.15878
G3 X-7.459 Y35.078 I2.017 J-4.734 E1.28370
G3 X-9.893 Y35.603 I-2.260 J-4.571 E1.41260
G3 X-12.998 Y34.570 I0.980 J-8.127 E1.58145
G3 X-14.587 Y32.762 I2.975 J-4.217 E1.70591
G3 X-17.110 Y32.759 I-1.256 J-4.928 E1.83657
G3 X-19.898 Y31.116 I2.674 J-7.725 E2.00352
G3 X-21.080 Y29.014 I3.757 J-3.496 E2.12824
G3 X-23.547 Y28.485 I-0.190 J-5.129 E2.25886
G3 X-25.933 Y26.296 I4.217 J-6.991 E2.42592
G3 X-26.655 Y23.996 I4.451 J-2.660 E2.55056
G3 X-28.960 Y22.961 I0.863 J-5.005 E2.68141
G3 X-30.833 Y20.327 I5.573 J-5.946 E2.84815
G3 X-31.060 Y17.929 I4.897 J-1.673 E2.97269
G3 X-33.096 Y16.445 I1.876 J-4.712 E3.10316
G3 X-34.385 Y13.470 I6.715 J-4.676 E3.27044
G3 X-34.108 Y11.083 I5.104 J-0.617 E3.39468
G3 X-35.795 Y9.199 I2.825 J-4.227 E3.52563
G3 X-36.437 Y6.034 I7.567 J-3.182 E3.69223
G3 X-35.668 Y3.747 I5.151 J0.459 E3.81697
G3 X-36.927 Y1.552 I3.650 J-3.552 E3.94800
G3 X-36.894 Y-1.677 I8.052 J-1.532 E4.11459
G3 X-35.667 Y-3.749 I4.935 J1.523 E4.23909
G3 X-36.442 Y-6.131 I4.308 J-2.719 E4.36877
G3 X-35.734 Y-9.319 I8.154 J0.138 E4.53729
G3 X-34.108 Y-11.083 I4.499 J2.516 E4.66132
G3 X-34.365 Y-13.600 I4.780 J-1.760 E4.79233
G3 X-33.022 Y-16.539 I7.971 J1.866 E4.95903
G3 X-31.058 Y-17.929 I3.873 J3.389 E5.08346
G3 X-30.795 Y-20.430 I5.052 J-0.733 E5.21366
G3 X-28.859 Y-23.045 I7.394 J3.450 E5.38154
G3 X-26.651 Y-23.996 I3.079 J4.110 E5.50586
G3 X-25.858 Y-26.410 I5.059 J0.325 E5.63747
G3 X-23.440 Y-28.540 I6.542 J4.989 E5.80369
G3 X-21.079 Y-29.016 I2.178 J4.710 E5.92820
G3 X-19.838 Y-31.176 I4.920 J1.390 E6.05716
G3 X-16.994 Y-32.792 I5.348 J6.101 E6.22596
G3 X-14.586 Y-32.761 I1.140 J4.979 E6.35052
G3 X-12.881 Y-34.643 I4.494 J2.358 E6.48204
G3 X-9.812 Y-35.607 I3.942 J7.183 E6.64798
G3 X-7.455 Y-35.079 I0.086 J5.140 E6.77289
G3 X-5.411 Y-36.560 I3.898 J3.229 E6.90362
G3 X-2.184 Y-36.867 I2.374 J7.836 E7.07086
G3 X0 Y-35.864 I-0.996 J5.048 E7.19513
G3 X2.296 Y-36.885 I3.158 J4.009 E7.32523
G3 X5.521 Y-36.520 I0.706 J8.192 E7.49267
G3 X7.459 Y-35.078 I-2.017 J4.734 E7.61759
G3 X9.893 Y-35.603 I2.260 J4.571 E7.74649
G3 X12.998 Y-34.570 I-0.980 J8.127 E7.91534
G3 X14.587 Y-32.762 I-2.975 J4.217 E8.03980
G3 X17.110 Y-32.759 I1.256 J4.928 E8.17045
G3 X19.898 Y-31.116 I-2.674 J7.725 E8.33741
G3 X21.080 Y-29.014 I-3.757 J3.496 E8.46213
G3 X23.547 Y-28.485 I0.190 J5.129 E8.59275
G3 X25.933 Y-26.296 I-4.217 J6.991 E8.75981
G3 X26.655 Y-23.996 I-4.451 J2.660 E8.88445
G3 X28.960 Y-22.961 I-0.863 J5.005 E9.01529
G3 X30.833 Y-20.327 I-5.573 J5.946 E9.18204
G3 X31.060 Y-17.929 I-4.897 J1.673 E9.30658
G3 X33.096 Y-16.445 I-1.876 J4.712 E9.43705
G3 X34.385 Y-13.470 I-6.715 J4.676 E9.60433
G3 X34.108 Y-11.083 I-5.104 J0.617 E9.72857
G3 X35.795 Y-9.199 I-2.825 J4.227 E9.85952
G3 X36.437 Y-6.034 I-7.567 J3.182 E10.02611
G3 X35.668 Y-3.747 I-5.151 J-0.459 E10.15086
G3 X36.927 Y-1.552 I-3.650 J3.552 E10.28189
G3 X36.894 Y1.677 I-8.052 J1.532 E10.44847
G3 X35.667 Y3.749 I-4.935 J-1.523 E10.57298
G3 X36.442 Y6.131 I-4.308 J2.719 E10.70266
G3 X35.734 Y9.319 I-8.154 J-0.138 E10.87117
G3 X34.108 Y11.084 I-4.512 J-2.526 E10.99523
G3 X34.365 Y13.600 I-4.774 J1.759 E11.12620
G3 X33.022 Y16.539 I-7.971 J-1.866 E11.29289
G3 X31.058 Y17.929 I-3.873 J-3.389 E11.41733
G3 X30.795 Y20.430 I-5.052 J0.733 E11.54752
G3 X28.859 Y23.045 I-7.394 J-3.450 E11.71540
G3 X26.651 Y23.996 I-3.079 J-4.110 E11.83972
G3 X25.858 Y26.410 I-5.059 J-0.325 E11.97133
G3 X23.440 Y28.540 I-6.542 J-4.989 E12.13756
G3 X21.079 Y29.016 I-2.178 J-4.710 E12.26207
G3 X19.838 Y31.176 I-4.920 J-1.390 E12.39103
G3 X16.994 Y32.792 I-5.348 J-6.101 E12.55983
G3 X14.586 Y32.761 I-1.140 J-4.979 E12.68439
G0 F7500 X14.019 Y32.645
G3 X12.520 Y34.206 I-3.990 J-2.331 E12.79630 F1200
G3 X9.715 Y35.048 I-3.517 J-6.624 E12.94733
G3 X7.590 Y34.519 I0.022 J-4.620 E13.06059
G1 X7.297 Y34.324 E13.07862
G3 X6.102 Y35.562 I-3.146 J-1.841 E13.16751
G3 X4.626 Y36.197 I-2.146 J-2.955 E13.25041
G3 X2.207 Y36.301 I-1.541 J-7.660 E13.37495
G3 X0.243 Y35.340 I1.003 J-4.537 E13.48802
G1 X0.002 Y35.092 E13.50573
G3 X-1.415 Y36.050 I-2.682 J-2.440 E13.59409
G3 X-2.991 Y36.367 I-1.488 J-3.322 E13.67703
G3 X-5.382 Y35.970 I0.066 J-7.795 E13.80171
G3 X-7.111 Y34.617 I1.911 J-4.224 E13.91526
G1 X-7.295 Y34.323 E13.93302
G3 X-9.394 Y35.040 I-2.442 J-3.718 E14.04793
G3 X-10.775 Y34.870 I-0.251 J-3.654 E14.11959
G3 X-12.747 Y34.061 I1.723 J-7.008 E14.22921
G3 X-14.153 Y32.379 I2.744 J-3.722 E14.34260
G1 X-14.271 Y32.058 E14.36011
G3 X-15.964 Y32.357 I-1.462 J-3.335 E14.44893
G3 X-17.785 Y31.870 I0.001 J-3.650 E14.54650
G3 X-19.548 Y30.671 I3.135 J-6.505 E14.65616
G3 X-20.577 Y28.728 I3.458 J-3.076 E14.76988
G1 X-20.626 Y28.391 E14.78732
G3 X-22.343 Y28.329 I-0.730 J-3.593 E14.87606
G3 X-23.803 Y27.657 I0.753 J-3.559 E14.95900
G3 X-25.498 Y25.934 I4.644 J-6.264 E15.08332
G3 X-26.102 Y23.847 I4.050 J-2.303 E15.19565
G1 X-26.08 Y23.482 E15.21438
G3 X-27.750 Y23.063 I0.024 J-3.633 E15.30333
G3 X-29.211 Y21.877 I1.487 J-3.325 E15.40074
G3 X-30.332 Y20.064 I5.521 J-4.667 E15.51036
G3 X-30.489 Y17.902 I4.443 J-1.409 E15.62244
G1 X-30.39 Y17.545 E15.64142
G3 X-31.932 Y16.794 I0.771 J-3.542 E15.73003
G3 X-32.993 Y15.585 I2.135 J-2.944 E15.81302
G3 X-33.840 Y13.316 I6.735 J-3.807 E15.93761
G3 X-33.537 Y11.158 I4.623 J-0.451 E16.05030
G1 X-33.374 Y10.846 E16.06833
G3 X-34.730 Y9.784 I1.509 J-3.324 E16.15730
G3 X-35.582 Y8.110 I2.713 J-2.435 E16.25453
G3 X-35.872 Y5.997 I6.977 J-2.034 E16.36422
G3 X-35.125 Y3.941 I4.607 J0.510 E16.47735
G1 X-34.9 Y3.669 E16.49543
G3 X-36.007 Y2.346 I2.157 J-2.930 E16.58455
G3 X-36.492 Y0.529 I3.160 J-1.817 E16.68189
G3 X-36.333 Y-1.596 I7.196 J-0.530 E16.79149
G3 X-35.175 Y-3.449 I4.399 J1.461 E16.90449
G1 X-34.9 Y-3.667 E16.92246
G3 X-35.702 Y-5.168 I2.707 J-2.411 E17.01037
G3 X-35.856 Y-6.768 I3.471 J-1.141 E17.09330
G3 X-35.203 Y-9.122 I7.750 J0.882 E17.21896
G3 X-33.690 Y-10.687 I3.990 J2.343 E17.33152
G1 X-33.375 Y-10.843 E17.34953
G3 X-33.848 Y-12.501 I3.181 J-1.804 E17.43859
G3 X-33.552 Y-14.357 I3.620 J-0.374 E17.53588
G3 X-32.542 Y-16.237 I6.820 J2.453 E17.64564
G3 X-30.702 Y-17.466 I3.415 J3.121 E17.76010
G1 X-30.391 Y-17.542 E17.7765
G3 X-30.512 Y-19.249 I3.479 J-1.104 E17.86489
G3 X-29.999 Y-20.773 I3.630 J0.374 E17.94786
G3 X-28.453 Y-22.649 I6.662 J3.915 E18.07291
G3 X-26.422 Y-23.466 I2.695 J3.766 E18.18613
G1 X-26.079 Y-23.479 E18.20371
G3 X-25.835 Y-25.196 I3.609 J-0.363 E18.29332
G3 X-24.810 Y-26.766 I3.466 J1.143 E18.39037
G3 X-23.125 Y-28.068 I5.203 J4.992 E18.49989
G3 X-20.993 Y-28.450 I1.859 J4.235 E18.61189
G1 X-20.628 Y-28.39 E18.63084
G3 X-19.754 Y-30.430 I4.402 J0.679 E18.74580
G3 X-18.706 Y-31.340 I2.901 J2.282 E18.81726
G3 X-16.784 Y-32.265 I4.046 J5.947 E18.92697
G3 X-14.577 Y-32.180 I0.931 J4.519 E19.04122
G1 X-14.274 Y-32.057 E19.05797
G3 X-13.353 Y-33.524 I3.468 J1.155 E19.14746
G3 X-11.783 Y-34.541 I2.701 J2.449 E19.24428
G3 X-9.715 Y-35.048 I2.732 J6.673 E19.35379
G3 X-7.590 Y-34.519 I-0.022 J4.620 E19.46705
G1 X-7.297 Y-34.324 E19.48508
G3 X-6.102 Y-35.562 I3.146 J1.841 E19.57397
G3 X-4.626 Y-36.197 I2.146 J2.955 E19.65687
G3 X-2.207 Y-36.301 I1.541 J7.660 E19.78141
G3 X-0.243 Y-35.340 I-1.003 J4.537 E19.89448
G1 X-0.002 Y-35.092 E19.9122
G3 X1.415 Y-36.050 I2.682 J2.440 E20.00055
G3 X2.991 Y-36.367 I1.488 J3.322 E20.08349
G3 X5.382 Y-35.970 I-0.066 J7.795 E20.20817
G3 X7.111 Y-34.617 I-1.911 J4.224 E20.32172
G1 X7.295 Y-34.323 E20.33948
G3 X9.394 Y-35.040 I2.442 J3.718 E20.45439
G3 X10.775 Y-34.870 I0.251 J3.654 E20.52605
G3 X12.747 Y-34.061 I-1.723 J7.008 E20.63567
G3 X14.153 Y-32.379 I-2.744 J3.722 E20.74906
G1 X14.271 Y-32.058 E20.76657
G3 X15.964 Y-32.357 I1.462 J3.335 E20.85539
G3 X17.785 Y-31.870 I-0.001 J3.650 E20.95296
G3 X19.548 Y-30.671 I-3.135 J6.505 E21.06262
G3 X20.577 Y-28.728 I-3.458 J3.076 E21.17634
G1 X20.626 Y-28.391 E21.19378
G3 X22.343 Y-28.329 I0.730 J3.593 E21.28253
G3 X23.803 Y-27.657 I-0.753 J3.559 E21.36546
G3 X25.498 Y-25.934 I-4.644 J6.264 E21.48978
G3 X26.102 Y-23.847 I-4.050 J2.303 E21.60211
G1 X26.08 Y-23.482 E21.62084
G3 X27.750 Y-23.063 I-0.024 J3.633 E21.70979
G3 X29.211 Y-21.877 I-1.487 J3.325 E21.80720
G3 X30.332 Y-20.064 I-5.521 J4.667 E21.91682
G3 X30.489 Y-17.902 I-4.443 J1.409 E22.02890
G1 X30.39 Y-17.545 E22.04788
G3 X31.932 Y-16.794 I-0.771 J3.542 E22.13649
G3 X32.993 Y-15.585 I-2.135 J2.944 E22.21948
G3 X33.840 Y-13.316 I-6.735 J3.807 E22.34407
G3 X33.537 Y-11.158 I-4.623 J0.451 E22.45676
G1 X33.374 Y-10.846 E22.47479
G3 X34.730 Y-9.784 I-1.509 J3.324 E22.56376
G3 X35.582 Y-8.110 I-2.713 J2.435 E22.66099
G3 X35.872 Y-5.997 I-6.977 J2.034 E22.77068
G3 X35.125 Y-3.941 I-4.607 J-0.510 E22.88381
G1 X34.9 Y-3.669 E22.9019
G3 X36.007 Y-2.346 I-2.157 J2.930 E22.99101
G3 X36.492 Y-0.529 I-3.160 J1.817 E23.08835
G3 X36.333 Y1.596 I-7.196 J0.530 E23.19795
G3 X35.175 Y3.449 I-4.399 J-1.461 E23.31095
G1 X34.9 Y3.666 E23.32889
G3 X35.702 Y5.168 I-2.722 J2.418 E23.41684
G3 X35.856 Y6.768 I-3.471 J1.141 E23.49977
G3 X35.203 Y9.122 I-7.750 J-0.882 E23.62543
G3 X33.690 Y10.687 I-3.990 J-2.343 E23.73799
G1 X33.375 Y10.843 E23.756
G3 X33.848 Y12.501 I-3.181 J1.804 E23.84506
G3 X33.552 Y14.357 I-3.620 J0.374 E23.94234
G3 X32.542 Y16.237 I-6.820 J-2.453 E24.05210
G3 X30.702 Y17.466 I-3.415 J-3.121 E24.16657
G1 X30.391 Y17.543 E24.18298
G3 X30.512 Y19.249 I-3.482 J1.104 E24.27132
G3 X29.999 Y20.773 I-3.630 J-0.374 E24.35428
G3 X28.453 Y22.649 I-6.662 J-3.915 E24.47934
G3 X26.422 Y23.466 I-2.695 J-3.766 E24.59256
G1 X26.079 Y23.479 E24.61014
G3 X25.835 Y25.196 I-3.612 J0.363 E24.69974
G3 X24.810 Y26.766 I-3.466 J-1.143 E24.79679
G3 X23.125 Y28.068 I-5.203 J-4.992 E24.90632
G3 X20.993 Y28.450 I-1.859 J-4.235 E25.01832
G1 X20.628 Y28.39 E25.03726
G3 X19.754 Y30.430 I-4.402 J-0.679 E25.15222
G3 X18.706 Y31.340 I-2.901 J-2.282 E25.22369
G3 X16.784 Y32.265 I-4.046 J-5.947 E25.33339
G3 X14.577 Y32.180 I-0.931 J-4.519 E25.44765
G1 X14.274 Y32.057 E25.4644
G3 X14.019 Y32.645 I-2.149 J-0.583 E25.49727
G0 F7500 X13.489 Y32.443
G3 X12.164 Y33.764 I-3.462 J-2.148 E25.59395 F1200
G3 X10.120 Y34.451 I-3.932 J-8.315 E25.70463
G3 X8.242 Y34.211 I-0.445 J-3.982 E25.80252
G3 X7.110 Y33.443 I1.473 J-3.389 E25.87300
G3 X6.447 Y34.541 I-3.171 J-1.165 E25.93898
G3 X4.889 Y35.554 I-2.956 J-2.842 E26.03499
G3 X2.728 Y35.802 I-2.139 J-9.099 E26.14663
G3 X0.945 Y35.175 I0.402 J-3.992 E26.24435
G3 X0.001 Y34.191 I2.167 J-3.024 E26.31460
G3 X-0.863 Y35.118 I-2.831 J-1.773 E26.37979
G3 X-2.600 Y35.792 I-2.306 J-3.367 E26.47605
G3 X-4.769 Y35.589 I-0.227 J-9.263 E26.58787
G3 X-6.390 Y34.602 I1.214 J-3.818 E26.68600
G3 X-7.107 Y33.444 I2.712 J-2.480 E26.75618
G3 X-8.162 Y34.177 I-2.440 J-2.385 E26.82225
G3 X-9.969 Y34.471 I-1.556 J-3.862 E26.91680
G3 X-12.068 Y33.817 I1.606 J-8.850 E27.02967
G3 X-13.445 Y32.515 I1.973 J-3.465 E27.12766
G3 X-13.904 Y31.236 I3.170 J-1.860 E27.19767
G3 X-15.088 Y31.734 I-1.870 J-2.790 E27.26375
G3 X-16.941 Y31.637 I-0.718 J-4.037 E27.35961
G3 X-18.833 Y30.572 I3.551 J-8.522 E27.47105
G3 X-19.913 Y29.008 I2.659 J-2.991 E27.56934
G3 X-20.096 Y27.661 I3.546 J-1.168 E27.63937
G3 X-21.345 Y27.903 I-1.251 J-3.111 E27.70481
G3 X-23.149 Y27.423 I0.128 J-4.113 E27.80126
G3 X-24.778 Y25.986 I5.250 J-7.594 E27.91275
G3 X-25.507 Y24.255 I3.237 J-2.382 E28.00984
G3 X-25.410 Y22.880 I3.641 J-0.434 E28.08088
G3 X-26.685 Y22.855 I-0.572 J-3.346 E28.14647
G3 X-28.348 Y22.007 I0.983 J-3.983 E28.24291
G3 X-29.639 Y20.265 I6.694 J-6.310 E28.35420
G3 X-29.991 Y18.424 I3.654 J-1.653 E28.45110
G3 X-29.610 Y17.097 I3.640 J0.327 E28.52225
G3 X-30.863 Y16.802 I0.131 J-3.365 E28.58847
G3 X-32.300 Y15.637 I1.793 J-3.681 E28.68404
G3 X-33.205 Y13.658 I8.006 J-4.858 E28.79573
G3 X-33.162 Y11.774 I3.926 J-0.853 E28.89315
G3 X-32.517 Y10.567 I3.504 J1.097 E28.96367
G3 X-33.667 Y10.031 I0.820 J-3.261 E29.02893
G3 X-34.847 Y8.576 I2.509 J-3.241 E29.12573
G3 X-35.320 Y6.462 I8.706 J-3.058 E29.23692
G3 X-34.886 Y4.621 I3.993 J-0.030 E29.33472
G3 X-34.004 Y3.575 I3.181 J1.787 E29.40522
G3 X-35.018 Y2.810 I1.479 J-3.015 E29.47056
G3 X-35.870 Y1.140 I3.133 J-2.651 E29.56743
G3 X-35.891 Y-1.026 I9.194 J-1.172 E29.67861
G3 X-35.083 Y-2.734 I3.936 J0.817 E29.77629
G3 X-34.004 Y-3.572 I2.786 J2.474 E29.84668
G3 X-34.839 Y-4.534 I2.098 J-2.664 E29.91220
G3 X-35.324 Y-6.321 I3.656 J-1.952 E30.00785
G3 X-34.890 Y-8.472 I9.149 J0.727 E30.12049
G3 X-33.748 Y-9.968 I3.663 J1.612 E30.21779
G3 X-32.519 Y-10.565 I2.186 J2.936 E30.28819
G3 X-33.135 Y-11.681 I2.569 J-2.146 E30.35376
G3 X-33.232 Y-13.547 I3.942 J-1.140 E30.45031
G3 X-32.370 Y-15.536 I8.848 J2.653 E30.56157
G3 X-30.915 Y-16.777 I3.243 J2.329 E30.66047
G3 X-29.611 Y-17.093 I1.507 J3.369 E30.72958
G3 X-29.982 Y-18.306 I3.013 J-1.585 E30.79482
G3 X-29.696 Y-20.148 I4.111 J-0.305 E30.89113
G3 X-28.431 Y-21.928 I8.091 J4.411 E31.00322
G3 X-26.769 Y-22.834 I2.697 J2.970 E31.10108
G3 X-25.410 Y-22.876 I0.791 J3.571 E31.17115
G3 X-25.519 Y-24.157 I3.216 J-0.919 E31.23729
G3 X-24.846 Y-25.899 I4.080 J0.575 E31.33377
G3 X-23.253 Y-27.359 I7.079 J6.125 E31.44467
G3 X-21.460 Y-27.901 I2.026 J3.467 E31.54149
G3 X-20.098 Y-27.660 I0.054 J3.666 E31.61277
G3 X-19.942 Y-28.923 I3.336 J-0.229 E31.67823
G3 X-18.946 Y-30.476 I3.858 J1.379 E31.77354
G3 X-17.057 Y-31.598 I5.592 J7.263 E31.88633
G3 X-15.154 Y-31.746 I1.252 J3.785 E31.98504
G3 X-13.907 Y-31.235 I-0.749 J3.604 E32.05446
G3 X-13.489 Y-32.443 I3.338 J0.479 E32.12021
G3 X-12.164 Y-33.764 I3.462 J2.148 E32.21689
G3 X-10.120 Y-34.451 I3.932 J8.315 E32.32757
G3 X-8.242 Y-34.211 I0.445 J3.982 E32.42546
G3 X-7.110 Y-33.443 I-1.467 J3.381 E32.49595
G3 X-6.447 Y-34.541 I3.171 J1.165 E32.56193
G3 X-4.889 Y-35.554 I2.956 J2.842 E32.65793
G3 X-2.728 Y-35.802 I2.139 J9.099 E32.76958
G3 X-0.945 Y-35.175 I-0.402 J3.992 E32.86729
G3 X-0.001 Y-34.191 I-2.167 J3.024 E32.93755
G3 X0.863 Y-35.118 I2.831 J1.773 E33.00274
G3 X2.600 Y-35.792 I2.306 J3.367 E33.09900
G3 X4.769 Y-35.589 I0.227 J9.263 E33.21082
G3 X6.390 Y-34.602 I-1.214 J3.818 E33.30895
G3 X7.107 Y-33.444 I-2.749 J2.503 E33.37912
G3 X8.162 Y-34.177 I2.440 J2.385 E33.44520
G3 X9.969 Y-34.471 I1.556 J3.862 E33.53974
G3 X12.068 Y-33.817 I-1.606 J8.850 E33.65261
G3 X13.445 Y-32.515 I-1.973 J3.465 E33.75060
G3 X13.905 Y-31.236 I-3.229 J1.884 E33.82062
G3 X15.088 Y-31.734 I1.866 J2.778 E33.88666
G3 X16.941 Y-31.637 I0.718 J4.037 E33.98252
G3 X18.833 Y-30.572 I-3.551 J8.522 E34.09396
G3 X19.913 Y-29.008 I-2.659 J2.991 E34.19224
G3 X20.096 Y-27.661 I-3.546 J1.168 E34.26227
G3 X21.345 Y-27.903 I1.251 J3.111 E34.32772
G3 X23.149 Y-27.423 I-0.128 J4.113 E34.42416
G3 X24.778 Y-25.986 I-5.250 J7.594 E34.53566
G3 X25.507 Y-24.255 I-3.237 J2.382 E34.63275
G3 X25.410 Y-22.880 I-3.641 J0.434 E34.70378
G3 X26.685 Y-22.855 I0.572 J3.346 E34.76938
G3 X28.348 Y-22.007 I-0.983 J3.983 E34.86582
G3 X29.639 Y-20.265 I-6.694 J6.310 E34.97711
G3 X29.991 Y-18.424 I-3.654 J1.653 E35.07400
G3 X29.610 Y-17.097 I-3.640 J-0.327 E35.14515
G3 X30.863 Y-16.802 I-0.131 J3.365 E35.21137
G3 X32.300 Y-15.637 I-1.793 J3.681 E35.30695
G3 X33.205 Y-13.658 I-8.006 J4.858 E35.41864
