;FLAVOR:Repetier
;TIME:1802
;MINX:-21.416
;MINY:-21.416
;MINZ:0.18
;MAXX:21.416
;MAXY:21.416
;MAXZ:10
;ARCWELDERPROCESSED
; Postprocessed by [ArcWelder](https://github.com/FormerLurker/ArcWelderLib)
; Copyright(C) 2020 - Brad Hochgesang
; resolution=0.05mm
; path_tolerance=1%
; max_radius=1000000.00mm
; firmware_compensation=True
; mm_per_arc_segment=1.00mm
; min_arc_segments=12
; default_xyz_precision=3
; default_e_precision=5

;Generated with Cura_SteamEngine 4.10.0
M82 ;absolute extrusion mode
G21
G90
M82
M107 T0
M190 S105.0
M109 S252 T0
G28
G92 E0
G0 E3 F200
G92 E0

G92 E0
G92 E0
G1 F4200 E-5
;LAYER_COUNT:35
;LAYER:0
M107
G1 F8400 Z2.18
G0 F7500 X-9.989 Y18.657 Z2.18
;TYPE:SKIRT
G1 F8400 Z0.18
G1 F4200 E0.01663
G3 X-12.224 Y17.589 I1.087 J-5.146 E0.14474 F1200
G3 X-13.437 Y16.352 I2.319 J-3.488 E0.23404
G3 X-15.426 Y14.861 I2.057 J-4.816 E0.36261
G3 X-16.369 Y13.417 I2.990 J-2.982 E0.45149
G3 X-17.588 Y12.225 I2.124 J-3.392 E0.53946
G3 X-18.534 Y10.518 I5.676 J-4.261 E0.63979
G1 X-18.671 Y9.965 E0.66897
G3 X-19.937 Y7.831 I3.740 J-3.661 E0.79731
G3 X-20.258 Y6.131 I3.874 J-1.612 E0.88649
G3 X-20.924 Y4.574 I3.247 J-2.310 E0.97386
G3 X-21.150 Y2.633 I6.902 J-1.787 E1.07432
G1 X-21.065 Y2.06 E1.10399
G3 X-21.416 Y0.399 I3.655 J-1.640 E1.19158
G3 X-21.257 Y-1.546 I7.089 J-0.400 E1.29190
G1 X-21.062 Y-2.089 E1.32145
G3 X-21.081 Y-3.791 I3.878 J-0.894 E1.40927
G3 X-20.543 Y-5.668 I7.038 J1.002 E1.50965
G1 X-20.25 Y-6.155 E1.53876
G3 X-19.631 Y-8.568 I5.237 J0.057 E1.66761
G3 X-18.657 Y-9.989 I3.832 J1.582 E1.75641
G3 X-17.589 Y-12.224 I5.161 J1.094 E1.88452
G3 X-16.354 Y-13.436 I3.494 J2.325 E1.97371
G3 X-15.424 Y-14.863 I3.718 J1.406 E2.06160
G3 X-13.934 Y-16.125 I5.280 J4.723 E2.16198
G1 X-13.416 Y-16.369 E2.19131
G3 X-12.225 Y-17.588 I3.358 J2.089 E2.27925
G3 X-10.518 Y-18.534 I4.261 J5.676 E2.37958
G1 X-9.966 Y-18.671 E2.40871
G3 X-7.831 Y-19.937 I3.671 J3.758 E2.53709
G3 X-6.130 Y-20.258 I1.612 J3.875 E2.62631
G3 X-4.574 Y-20.924 I2.321 J3.273 E2.71363
G3 X-2.634 Y-21.150 I1.785 J6.885 E2.81404
G1 X-2.061 Y-21.065 E2.84371
G3 X-0.399 Y-21.416 I1.640 J3.655 E2.93135
G3 X1.546 Y-21.257 I0.400 J7.089 E3.03167
G1 X2.088 Y-21.062 E3.06117
G3 X3.791 Y-21.081 I0.895 J3.873 E3.14905
G3 X5.668 Y-20.543 I-1.002 J7.038 E3.24943
G1 X6.154 Y-20.25 E3.2785
G3 X8.568 Y-19.631 I-0.056 J5.233 E3.40739
G3 X9.989 Y-18.657 I-1.582 J3.832 E3.49620
G3 X12.224 Y-17.589 I-1.087 J5.146 E3.62431
G3 X13.437 Y-16.352 I-2.319 J3.488 E3.71361
G3 X15.426 Y-14.861 I-2.057 J4.816 E3.84217
G3 X16.369 Y-13.417 I-2.990 J2.982 E3.93106
G3 X17.588 Y-12.225 I-2.123 J3.390 E4.01903
G3 X18.534 Y-10.518 I-5.676 J4.261 E4.11936
G1 X18.671 Y-9.965 E4.14854
G3 X19.937 Y-7.831 I-3.740 J3.661 E4.27688
G3 X20.258 Y-6.131 I-3.874 J1.612 E4.36606
G3 X20.924 Y-4.574 I-3.247 J2.310 E4.45342
G3 X21.150 Y-2.633 I-6.902 J1.787 E4.55389
G1 X21.065 Y-2.06 E4.58356
G3 X21.416 Y-0.399 I-3.655 J1.640 E4.67114
G3 X21.257 Y1.546 I-7.089 J0.400 E4.77147
G1 X21.062 Y2.089 E4.80102
G3 X21.081 Y3.791 I-3.878 J0.894 E4.88884
G3 X20.543 Y5.668 I-7.038 J-1.002 E4.98922
G1 X20.25 Y6.155 E5.01833
G3 X19.631 Y8.568 I-5.237 J-0.057 E5.14717
G3 X18.659 Y9.988 I-3.852 J-1.594 E5.23587
G3 X17.588 Y12.225 I-5.142 J-1.087 E5.36413
G3 X16.351 Y13.438 I-3.488 J-2.319 E5.45344
G3 X14.861 Y15.426 I-4.814 J-2.056 E5.58194
G3 X13.416 Y16.370 I-2.995 J-3.006 E5.67089
G3 X12.225 Y17.588 I-3.366 J-2.100 E5.75879
G3 X10.518 Y18.534 I-4.261 J-5.676 E5.85912
G1 X9.966 Y18.671 E5.88825
G3 X7.831 Y19.937 I-3.671 J-3.758 E6.01662
G3 X6.130 Y20.258 I-1.612 J-3.875 E6.10585
G3 X4.574 Y20.924 I-2.321 J-3.273 E6.19316
G3 X2.634 Y21.150 I-1.785 J-6.885 E6.29358
G1 X2.061 Y21.065 E6.32325
G3 X0.399 Y21.416 I-1.640 J-3.655 E6.41088
G3 X-1.546 Y21.257 I-0.400 J-7.089 E6.51121
G1 X-2.088 Y21.062 E6.54071
G3 X-3.791 Y21.081 I-0.895 J-3.873 E6.62859
G3 X-5.668 Y20.543 I1.002 J-7.038 E6.72897
G1 X-6.154 Y20.25 E6.75803
G3 X-8.568 Y19.631 I0.056 J-5.233 E6.88693
G3 X-9.989 Y18.657 I1.582 J-3.832 E6.97573
G0 F7500 X-9.665 Y18.183
G1 F1200 X-9.709 Y18.143 E6.97878
G3 X-11.249 Y17.564 I0.481 J-3.617 E7.06369 F1200
G3 X-12.711 Y16.400 I3.169 J-5.481 E7.15982
G3 X-13.052 Y15.905 I2.345 J-1.980 E7.19062
G3 X-14.464 Y15.029 I1.167 J-3.457 E7.27639
G3 X-15.669 Y13.599 I4.180 J-4.745 E7.37258
G3 X-15.900 Y13.056 I1.608 J-1.005 E7.40283
G3 X-17.121 Y11.914 I1.797 J-3.145 E7.48915
G3 X-18.022 Y10.275 I5.042 J-3.839 E7.58535
G3 X-18.148 Y9.697 I6.532 J-1.727 E7.61565
G3 X-19.113 Y8.352 I2.375 J-2.723 E7.70111
G3 X-19.681 Y6.571 I5.703 J-2.800 E7.79727
G3 X-19.686 Y5.975 I2.016 J-0.315 E7.82782
G3 X-20.374 Y4.464 I2.849 J-2.209 E7.91354
G3 X-20.584 Y2.603 I6.141 J-1.635 E8.00988
G3 X-20.475 Y2.019 I2.370 J0.140 E8.04033
G3 X-20.855 Y0.399 I3.260 J-1.619 E8.12623
G3 X-20.696 Y-1.465 I6.322 J-0.400 E8.22246
G3 X-20.475 Y-2.013 I1.875 J0.437 E8.25275
G3 X-20.531 Y-3.681 I3.524 J-0.953 E8.33892
G3 X-20.009 Y-5.478 I6.280 J0.850 E8.43517
G3 X-19.690 Y-5.972 I3.587 J1.966 E8.46529
G3 X-19.419 Y-7.617 I3.643 J-0.245 E8.55136
G3 X-18.557 Y-9.275 I5.967 J2.049 E8.64748
G2 X-18.143 Y-9.709 I-7.936 J-7.984 E8.67820
G3 X-17.564 Y-11.249 I3.617 J0.481 E8.76312
G3 X-16.400 Y-12.711 I5.481 J3.169 E8.85924
G3 X-15.908 Y-13.047 I1.361 J1.465 E8.88978
G3 X-15.028 Y-14.466 I3.475 J1.172 E8.97598
G3 X-13.596 Y-15.671 I4.755 J4.198 E9.07224
G3 X-13.056 Y-15.901 I1.095 J1.822 E9.10232
G3 X-11.914 Y-17.121 I3.168 J1.821 E9.18859
G3 X-10.275 Y-18.022 I3.839 J5.042 E9.28479
G3 X-9.699 Y-18.146 I1.096 J3.692 E9.31498
G3 X-8.352 Y-19.113 I2.729 J2.380 E9.40058
G3 X-6.571 Y-19.681 I2.800 J5.703 E9.49674
G3 X-5.976 Y-19.686 I0.314 J1.982 E9.52724
G3 X-4.464 Y-20.374 I2.219 J2.872 E9.61300
G3 X-2.604 Y-20.584 I1.634 J6.127 E9.70929
G3 X-2.020 Y-20.475 I-0.140 J2.370 E9.73974
G3 X-0.399 Y-20.855 I1.619 J3.260 E9.82568
G3 X1.465 Y-20.696 I0.400 J6.322 E9.92191
G3 X2.014 Y-20.475 I-0.484 J1.995 E9.95225
G3 X3.681 Y-20.531 I0.953 J3.527 E10.03836
G3 X5.478 Y-20.009 I-0.850 J6.280 E10.13461
G3 X5.975 Y-19.690 I-4.076 J6.897 E10.16486
G3 X7.617 Y-19.419 I0.241 J3.652 E10.25077
G3 X9.275 Y-18.557 I-2.049 J5.967 E10.34689
G2 X9.709 Y-18.143 I7.984 J-7.936 E10.37761
G3 X11.249 Y-17.564 I-0.481 J3.617 E10.46253
G3 X12.711 Y-16.400 I-3.169 J5.481 E10.55865
G3 X13.052 Y-15.905 I-2.345 J1.980 E10.58945
G3 X14.464 Y-15.029 I-1.167 J3.457 E10.67523
G3 X15.669 Y-13.599 I-4.180 J4.745 E10.77142
G3 X15.901 Y-13.055 I-1.779 J1.080 E10.80173
G3 X17.121 Y-11.914 I-1.814 J3.162 E10.88797
G3 X18.022 Y-10.275 I-5.042 J3.839 E10.98417
G3 X18.148 Y-9.697 I-6.532 J1.727 E11.01448
G3 X19.113 Y-8.352 I-2.375 J2.723 E11.09993
G3 X19.681 Y-6.571 I-5.703 J2.800 E11.19609
G3 X19.686 Y-5.975 I-2.016 J0.315 E11.22664
G3 X20.374 Y-4.464 I-2.849 J2.209 E11.31236
G3 X20.584 Y-2.603 I-6.141 J1.635 E11.40870
G3 X20.475 Y-2.019 I-2.370 J-0.140 E11.43915
G3 X20.855 Y-0.399 I-3.260 J1.619 E11.52505
G3 X20.696 Y1.465 I-6.322 J0.400 E11.62128
G3 X20.475 Y2.013 I-1.875 J-0.437 E11.65157
G3 X20.531 Y3.681 I-3.524 J0.953 E11.73774
G3 X20.009 Y5.478 I-6.280 J-0.850 E11.83399
G3 X19.690 Y5.972 I-3.587 J-1.966 E11.86412
G3 X19.419 Y7.617 I-3.643 J0.245 E11.95018
G3 X18.557 Y9.275 I-5.967 J-2.049 E12.04630
G3 X18.145 Y9.700 I-3.628 J-3.105 E12.07662
G3 X17.564 Y11.249 I-3.597 J-0.466 E12.16203
G3 X16.399 Y12.712 I-5.496 J-3.181 E12.25823
G3 X15.905 Y13.053 I-2.545 J-3.159 E12.28898
G3 X15.029 Y14.464 I-3.461 J-1.171 E12.37471
G3 X13.599 Y15.669 I-4.745 J-4.180 E12.47090
G3 X13.056 Y15.900 I-1.005 J-1.608 E12.50115
G3 X11.914 Y17.121 I-3.164 J-1.815 E12.58746
G3 X10.275 Y18.022 I-3.839 J-5.042 E12.68366
G3 X9.699 Y18.146 I-1.096 J-3.692 E12.71385
G3 X8.352 Y19.113 I-2.729 J-2.380 E12.79945
G3 X6.571 Y19.681 I-2.800 J-5.703 E12.89561
G3 X5.976 Y19.686 I-0.314 J-1.982 E12.92611
G3 X4.464 Y20.374 I-2.219 J-2.872 E13.01187
G3 X2.604 Y20.584 I-1.634 J-6.127 E13.10816
G3 X2.020 Y20.475 I0.140 J-2.370 E13.13861
G3 X0.399 Y20.855 I-1.619 J-3.260 E13.22456
G3 X-1.465 Y20.696 I-0.400 J-6.322 E13.32078
G3 X-2.014 Y20.475 I0.484 J-1.995 E13.35112
G3 X-3.681 Y20.531 I-0.953 J-3.527 E13.43723
G3 X-5.478 Y20.009 I0.850 J-6.280 E13.53348
G3 X-5.975 Y19.690 I4.076 J-6.897 E13.56373
G3 X-7.617 Y19.419 I-0.241 J-3.652 E13.64964
G3 X-9.275 Y18.557 I2.049 J-5.967 E13.74576
G1 X-9.665 Y18.183 E13.77344
G0 F7500 X-9.793 Y17.562
G3 X-11.602 Y16.655 I1.315 J-4.880 E13.87790 F1200
G3 X-12.327 Y15.981 I1.711 J-2.567 E13.92877
G1 X-12.661 Y15.429 E13.96181
G3 X-13.467 Y15.100 I0.606 J-2.637 E14.00655
G3 X-15.211 Y13.264 I3.220 J-4.805 E14.13732
G1 X-15.428 Y12.662 E14.17009
G3 X-16.150 Y12.186 I1.093 J-2.443 E14.21453
G3 X-17.507 Y10.037 I4.080 J-4.079 E14.34579
G1 X-17.601 Y9.41 E14.37826
G3 X-18.223 Y8.794 I1.574 J-2.211 E14.42325
G3 X-19.129 Y6.437 I4.812 J-3.202 E14.55364
G1 X-19.1 Y5.794 E14.58661
G3 X-19.579 Y5.089 I1.969 J-1.853 E14.63040
G3 X-20.017 Y2.579 I5.341 J-2.225 E14.76199
G1 X-19.863 Y1.956 E14.79486
G3 X-20.200 Y1.156 I2.275 J-1.429 E14.83946
G3 X-20.135 Y-1.377 I5.652 J-1.122 E14.97032
G1 X-19.863 Y-1.957 E15.00313
G3 X-20.037 Y-2.801 I2.532 J-0.962 E15.04741
G3 X-19.476 Y-5.282 I5.753 J-0.003 E15.17879
G1 X-19.1 Y-5.792 E15.21124
G3 X-19.104 Y-6.664 I2.626 J-0.448 E15.25605
G3 X-18.073 Y-8.979 I5.620 J1.116 E15.38694
G1 X-17.602 Y-9.408 E15.41957
G3 X-17.432 Y-10.272 I2.737 J0.090 E15.46482
G3 X-15.981 Y-12.327 I5.315 J2.213 E15.59473
G1 X-15.43 Y-12.661 E15.62773
G3 X-15.105 Y-13.459 I2.642 J0.611 E15.67200
G3 X-13.262 Y-15.212 I4.798 J3.199 E15.80336
G1 X-12.663 Y-15.428 E15.83598
G3 X-12.185 Y-16.152 I2.517 J1.142 E15.88055
G3 X-10.037 Y-17.507 I4.083 J4.093 E16.01171
G1 X-9.41 Y-17.601 E16.04418
G3 X-8.796 Y-18.221 I2.196 J1.560 E16.08902
G3 X-6.437 Y-19.129 I3.202 J4.801 E16.21955
G1 X-5.793 Y-19.1 E16.25257
G3 X-5.081 Y-19.582 I1.858 J1.978 E16.29675
G3 X-2.580 Y-20.017 I2.216 J5.332 E16.42785
G1 X-1.957 Y-19.863 E16.46072
G3 X-1.156 Y-20.200 I1.453 J2.334 E16.50536
G3 X1.377 Y-20.135 I1.122 J5.652 E16.63622
G1 X1.956 Y-19.863 E16.66899
G3 X2.796 Y-20.036 I0.955 J2.511 E16.71305
G3 X5.282 Y-19.476 I0.014 J5.737 E16.84468
G1 X5.792 Y-19.1 E16.87714
G3 X6.667 Y-19.104 I0.450 J2.646 E16.92210
G3 X8.979 Y-18.073 I-1.124 J5.628 E17.05284
G1 X9.408 Y-17.602 E17.08547
G3 X10.272 Y-17.432 I-0.090 J2.737 E17.13072
G3 X12.327 Y-15.981 I-2.213 J5.315 E17.26063
G1 X12.661 Y-15.429 E17.29367
G3 X13.467 Y-15.100 I-0.606 J2.637 E17.33840
G3 X15.211 Y-13.264 I-3.220 J4.805 E17.46918
G1 X15.428 Y-12.663 E17.5019
G3 X16.150 Y-12.186 I-1.142 J2.513 E17.54636
G3 X17.507 Y-10.037 I-4.080 J4.079 E17.67762
G1 X17.601 Y-9.41 E17.71009
G3 X18.223 Y-8.794 I-1.574 J2.211 E17.75508
G3 X19.129 Y-6.437 I-4.812 J3.202 E17.88547
G1 X19.1 Y-5.794 E17.91844
G3 X19.579 Y-5.089 I-1.969 J1.853 E17.96223
G3 X20.017 Y-2.579 I-5.341 J2.225 E18.09382
G1 X19.863 Y-1.956 E18.12669
G3 X20.200 Y-1.156 I-2.275 J1.429 E18.17129
G3 X20.135 Y1.377 I-5.652 J1.122 E18.30215
G1 X19.863 Y1.957 E18.33496
G3 X20.037 Y2.801 I-2.532 J0.962 E18.37924
G3 X19.476 Y5.282 I-5.753 J0.003 E18.51062
G1 X19.1 Y5.792 E18.54307
G3 X19.104 Y6.664 I-2.626 J0.448 E18.58788
G3 X18.073 Y8.979 I-5.620 J-1.116 E18.71877
G1 X17.602 Y9.408 E18.7514
G3 X17.435 Y10.264 I-2.692 J-0.081 E18.79622
G3 X15.981 Y12.328 I-5.338 J-2.216 E18.92660
G1 X15.43 Y12.66 E18.95955
G3 X15.099 Y13.468 I-2.631 J-0.606 E19.00442
G3 X13.264 Y15.211 I-4.802 J-3.218 E19.13512
G1 X12.663 Y15.428 E19.16784
G3 X12.185 Y16.152 I-2.517 J-1.142 E19.21241
G3 X10.037 Y17.507 I-4.083 J-4.093 E19.34357
G1 X9.41 Y17.601 E19.37604
G3 X8.796 Y18.221 I-2.196 J-1.560 E19.42088
G3 X6.437 Y19.129 I-3.202 J-4.801 E19.55142
G1 X5.793 Y19.1 E19.58444
G3 X5.081 Y19.582 I-1.858 J-1.978 E19.62861
G3 X2.580 Y20.017 I-2.216 J-5.332 E19.75971
G1 X1.957 Y19.863 E19.79258
G3 X1.156 Y20.200 I-1.453 J-2.334 E19.83723
G3 X-1.377 Y20.135 I-1.122 J-5.652 E19.96809
G1 X-1.956 Y19.863 E20.00085
G3 X-2.796 Y20.036 I-0.955 J-2.511 E20.04492
G3 X-5.282 Y19.476 I-0.014 J-5.737 E20.17655
G1 X-5.792 Y19.1 E20.209
G3 X-6.667 Y19.104 I-0.450 J-2.646 E20.25397
G3 X-8.979 Y18.073 I1.124 J-5.628 E20.38471
G1 X-9.408 Y17.602 E20.41734
G1 X-9.793 Y17.562 E20.43716
G0 F7500 X-9.858 Y16.973
G3 X-11.641 Y15.907 I1.740 J-4.934 E20.54429 F1200
G3 X-12.166 Y15.183 I1.754 J-1.824 E20.59028
G1 X-12.259 Y14.938 E20.6037
G3 X-13.359 Y14.500 I0.305 J-2.367 E20.66493
G3 X-14.746 Y12.936 I3.083 J-4.131 E20.77277
G3 X-14.937 Y12.260 I1.761 J-0.862 E20.80889
G3 X-15.928 Y11.619 I0.759 J-2.259 E20.86993
G3 X-16.987 Y9.806 I3.816 J-3.445 E20.97826
G3 X-17.041 Y9.111 I1.918 J-0.499 E21.01409
G3 X-17.893 Y8.282 I1.202 J-2.088 E21.07557
G3 X-18.574 Y6.311 I4.401 J-2.624 E21.18316
G3 X-18.492 Y5.610 I1.991 J-0.122 E21.21944
G3 X-19.158 Y4.648 I1.589 J-1.811 E21.27994
G3 X-19.448 Y2.564 I4.824 J-1.733 E21.38851
G3 X-19.231 Y1.894 I1.954 J0.263 E21.42472
G3 X-19.700 Y0.808 I1.896 J-1.463 E21.48590
G3 X-19.575 Y-1.280 I5.085 J-0.743 E21.59381
G3 X-19.231 Y-1.894 I1.868 J0.643 E21.63000
G3 X-19.479 Y-3.045 I2.150 J-1.065 E21.69088
G3 X-18.946 Y-5.077 I5.121 J0.257 E21.79927
G3 X-18.492 Y-5.608 I1.697 J0.991 E21.83519
G3 X-18.509 Y-6.794 I2.297 J-0.626 E21.89654
G3 X-17.592 Y-8.674 I4.933 J1.243 E22.00447
G3 X-17.041 Y-9.108 I1.477 J1.309 E22.04053
G3 X-16.823 Y-10.281 I2.403 J-0.160 E22.10223
G3 X-15.568 Y-11.936 I4.620 J2.200 E22.20939
G3 X-14.939 Y-12.258 I1.210 J1.588 E22.24571
G3 X-14.505 Y-13.353 I2.368 J0.305 E22.30663
G3 X-12.934 Y-14.747 I4.109 J3.049 E22.41500
G3 X-12.260 Y-14.937 I0.869 J1.792 E22.45100
G3 X-11.618 Y-15.929 I2.266 J0.763 E22.51210
G3 X-9.806 Y-16.987 I3.444 J3.818 E22.62036
G3 X-9.111 Y-17.041 I0.499 J1.918 E22.65619
G3 X-8.284 Y-17.892 I2.095 J1.208 E22.71756
G3 X-6.311 Y-18.574 I2.626 J4.403 E22.82526
G3 X-5.610 Y-18.492 I0.122 J1.991 E22.86154
G3 X-4.641 Y-19.160 I1.797 J1.570 E22.92241
G3 X-2.565 Y-19.448 I1.726 J4.814 E23.03055
G3 X-1.894 Y-19.231 I-0.268 J1.974 E23.06681
G3 X-0.809 Y-19.700 I1.465 J1.899 E23.12794
G3 X1.280 Y-19.575 I0.744 J5.088 E23.23590
G3 X1.894 Y-19.231 I-0.643 J1.868 E23.27208
G3 X3.042 Y-19.479 I1.060 J2.127 E23.33282
G3 X5.077 Y-18.946 I-0.253 J5.118 E23.44136
G3 X5.608 Y-18.492 I-0.991 J1.697 E23.47728
G3 X6.796 Y-18.509 I0.628 J2.338 E23.53872
G3 X8.674 Y-17.592 I-1.250 J4.941 E23.64655
G3 X9.108 Y-17.041 I-1.309 J1.477 E23.68261
G3 X10.281 Y-16.823 I0.160 J2.403 E23.74432
G3 X11.936 Y-15.568 I-2.200 J4.620 E23.85147
G3 X12.259 Y-14.938 I-1.613 J1.225 E23.88786
G3 X13.359 Y-14.500 I-0.305 J2.367 E23.94910
G3 X14.746 Y-12.936 I-3.083 J4.131 E24.05694
G3 X14.937 Y-12.260 I-1.761 J0.862 E24.09306
G3 X15.928 Y-11.619 I-0.770 J2.277 E24.15409
G3 X16.987 Y-9.806 I-3.816 J3.445 E24.26242
G3 X17.041 Y-9.111 I-1.918 J0.499 E24.29825
G3 X17.893 Y-8.282 I-1.202 J2.088 E24.35973
G3 X18.574 Y-6.311 I-4.401 J2.624 E24.46732
G3 X18.492 Y-5.610 I-1.991 J0.122 E24.50360
G3 X19.158 Y-4.648 I-1.589 J1.811 E24.56410
G3 X19.448 Y-2.564 I-4.824 J1.733 E24.67267
G3 X19.231 Y-1.894 I-1.954 J-0.263 E24.70888
G3 X19.700 Y-0.808 I-1.896 J1.463 E24.77006
G3 X19.575 Y1.280 I-5.085 J0.743 E24.87798
G3 X19.231 Y1.894 I-1.868 J-0.643 E24.91416
G3 X19.479 Y3.045 I-2.150 J1.065 E24.97505
G3 X18.946 Y5.077 I-5.121 J-0.257 E25.08343
G3 X18.492 Y5.608 I-1.697 J-0.991 E25.11935
G3 X18.509 Y6.794 I-2.297 J0.626 E25.18070
G3 X17.592 Y8.674 I-4.933 J-1.243 E25.28863
G3 X17.043 Y9.107 I-1.479 J-1.311 E25.32457
G3 X16.826 Y10.275 I-2.394 J0.159 E25.38601
G3 X15.568 Y11.937 I-4.649 J-2.212 E25.49354
G3 X14.938 Y12.259 I-1.216 J-1.602 E25.52991
G3 X14.500 Y13.359 I-2.367 J-0.305 E25.59115
G3 X12.936 Y14.746 I-4.131 J-3.083 E25.69899
G3 X12.260 Y14.937 I-0.862 J-1.761 E25.73511
G3 X11.618 Y15.929 I-2.266 J-0.763 E25.79621
G3 X9.806 Y16.987 I-3.444 J-3.818 E25.90447
G3 X9.111 Y17.041 I-0.499 J-1.918 E25.94030
G3 X8.284 Y17.892 I-2.095 J-1.208 E26.00167
G3 X6.311 Y18.574 I-2.626 J-4.403 E26.10937
G3 X5.610 Y18.492 I-0.122 J-1.991 E26.14565
G3 X4.641 Y19.160 I-1.797 J-1.570 E26.20652
G3 X2.565 Y19.448 I-1.726 J-4.814 E26.31466
G3 X1.894 Y19.231 I0.268 J-1.974 E26.35092
G3 X0.809 Y19.700 I-1.465 J-1.899 E26.41205
