;FLAVOR:Repetier
;TIME:2421
;MINX:-28.413
;MINY:-28.327
;MINZ:0.18
;MAXX:28.413
;MAXY:28.327
;MAXZ:4.94
;ARCWELDERPROCESSED
; Postprocessed by [ArcWelder](https://github.com/FormerLurker/ArcWelderLib)
; Copyright(C) 2020 - Brad Hochgesang
; resolution=0.05mm
; path_tolerance=1%
; max_radius=1000000.00mm
; firmware_compensation=True
; mm_per_arc_segment=1.00mm
; min_arc_segments=12
; default_xyz_precision=3
; default_e_precision=5

;Generated with Cura_SteamEngine 4.10.0
M82 ;absolute extrusion mode
G21
G90
M82
M107 T0
M190 S105.0
M109 S252 T0
G28
G92 E0
G0 E3 F200
G92 E0

G92 E0
G92 E0
G1 F4200 E-5
;LAYER_COUNT:13
;LAYER:0
M107
G1 F8400 Z2.18
G0 F7500 X24.066 Y13.891 Z2.18
;TYPE:SKIRT
G1 F8400 Z0.18
G1 F4200 E0.01663
G3 X23.573 Y15.819 I-4.398 J-0.098 E0.11937 F1200
G3 X21.917 Y17.903 I-7.066 J-3.915 E0.25636
G3 X20.653 Y18.592 I-2.980 J-3.963 E0.33035
G3 X19.777 Y20.367 I-4.266 J-1.002 E0.43254
G3 X17.717 Y22.070 I-6.088 J-5.267 E0.57009
G3 X16.334 Y22.481 I-2.095 J-4.518 E0.64426
G3 X15.110 Y24.032 I-3.952 J-1.860 E0.74627
G3 X12.736 Y25.269 I-4.820 J-6.354 E0.88405
G3 X11.305 Y25.384 I-1.117 J-4.938 E0.95784
G3 X9.782 Y26.650 I-3.490 J-2.649 E1.06009
G3 X7.211 Y27.368 I-3.429 J-7.317 E1.19747
G3 X5.779 Y27.181 I-0.093 J-4.863 E1.27171
G3 X4.006 Y28.106 I-2.870 J-3.339 E1.37496
G3 X1.364 Y28.269 I-1.813 J-7.888 E1.51118
G3 X0.001 Y27.788 I0.921 J-4.780 E1.58548
G3 X-1.907 Y28.325 I-2.114 J-3.852 E1.68781
G3 X-4.551 Y27.930 I-0.153 J-8.021 E1.82540
G3 X-5.775 Y27.181 I1.836 J-4.375 E1.89917
G3 X-7.761 Y27.308 I-1.265 J-4.195 E2.00192
G3 X-10.256 Y26.377 I1.520 J-7.882 E2.13897
G3 X-11.302 Y25.386 I2.843 J-4.048 E2.21304
G3 X-13.262 Y25.101 I-0.366 J-4.366 E2.31529
G3 X-15.522 Y23.660 I3.141 J-7.419 E2.45323
G3 X-16.332 Y22.482 I3.649 J-3.377 E2.52671
G3 X-18.193 Y21.794 I0.555 J-4.362 E2.62914
G3 X-20.098 Y19.924 I4.591 J-6.583 E2.76653
G3 X-20.651 Y18.593 I4.157 J-2.507 E2.84062
G3 X-22.327 Y17.532 I1.440 J-4.129 E2.94304
G3 X-23.802 Y15.306 I5.898 J-5.510 E3.08047
G3 X-24.065 Y13.894 I4.639 J-1.595 E3.15430
G3 X-25.492 Y12.495 I2.300 J-3.773 E3.25747
G3 X-26.463 Y10.034 I6.858 J-4.128 E3.39362
G3 X-26.427 Y8.588 I4.785 J-0.604 E3.46798
G3 X-27.521 Y6.957 I2.981 J-3.182 E3.56937
G3 X-27.971 Y4.306 I7.561 J-2.647 E3.70776
G3 X-27.637 Y2.906 I4.929 J0.436 E3.78175
G3 X-28.371 Y1.050 I3.640 J-2.513 E3.88479
G3 X-28.254 Y-1.605 I7.997 J-0.978 E4.02155
G3 X-27.637 Y-2.902 I4.653 J1.418 E4.09538
G3 X-27.971 Y-4.865 I4.043 J-1.698 E4.19819
G3 X-27.299 Y-7.452 I7.991 J0.695 E4.33575
G3 X-26.429 Y-8.586 I4.194 J2.317 E4.40922
G3 X-26.356 Y-10.548 I4.297 J-0.822 E4.51056
G3 X-25.154 Y-12.963 I7.687 J2.320 E4.64942
G3 X-24.066 Y-13.891 I3.594 J3.112 E4.72293
G3 X-23.573 Y-15.819 I4.398 J0.098 E4.82567
G3 X-21.917 Y-17.903 I7.066 J3.915 E4.96266
G3 X-20.653 Y-18.592 I2.980 J3.963 E5.03666
G3 X-19.777 Y-20.367 I4.266 J1.002 E5.13884
G3 X-17.717 Y-22.070 I6.088 J5.267 E5.27639
G3 X-16.334 Y-22.481 I2.095 J4.518 E5.35056
G3 X-15.110 Y-24.032 I3.952 J1.860 E5.45257
G3 X-12.736 Y-25.269 I4.820 J6.354 E5.59035
G3 X-11.305 Y-25.384 I1.117 J4.938 E5.66415
G3 X-9.782 Y-26.650 I3.490 J2.649 E5.76639
G3 X-7.211 Y-27.368 I3.429 J7.317 E5.90377
G3 X-5.779 Y-27.181 I0.093 J4.863 E5.97801
G3 X-4.006 Y-28.106 I2.870 J3.339 E6.08127
G3 X-1.364 Y-28.269 I1.813 J7.888 E6.21748
G3 X-0.001 Y-27.788 I-0.921 J4.780 E6.29179
G3 X1.907 Y-28.325 I2.114 J3.852 E6.39411
G3 X4.551 Y-27.930 I0.153 J8.021 E6.53170
G3 X5.775 Y-27.181 I-1.836 J4.375 E6.60547
G3 X7.761 Y-27.308 I1.265 J4.195 E6.70822
G3 X10.256 Y-26.377 I-1.520 J7.882 E6.84527
G3 X11.302 Y-25.386 I-2.843 J4.048 E6.91934
G3 X13.262 Y-25.101 I0.366 J4.366 E7.02159
G3 X15.522 Y-23.660 I-3.141 J7.419 E7.15953
G3 X16.332 Y-22.482 I-3.649 J3.377 E7.23301
G3 X18.193 Y-21.794 I-0.555 J4.362 E7.33544
G3 X20.098 Y-19.924 I-4.591 J6.583 E7.47283
G3 X20.651 Y-18.593 I-4.157 J2.507 E7.54692
G3 X22.327 Y-17.532 I-1.440 J4.129 E7.64934
G3 X23.802 Y-15.306 I-5.898 J5.510 E7.78677
G3 X24.065 Y-13.894 I-4.639 J1.595 E7.86060
G3 X25.492 Y-12.495 I-2.300 J3.773 E7.96377
G3 X26.463 Y-10.034 I-6.858 J4.128 E8.09992
G3 X26.427 Y-8.588 I-4.785 J0.604 E8.17429
G3 X27.525 Y-6.947 I-2.972 J3.176 E8.27622
G3 X27.971 Y-4.306 I-7.580 J2.638 E8.41407
G3 X27.637 Y-2.906 I-4.929 J-0.436 E8.48806
G3 X28.371 Y-1.050 I-3.640 J2.513 E8.59109
G3 X28.254 Y1.604 I-7.993 J0.977 E8.72781
G3 X27.637 Y2.904 I-4.816 J-1.489 E8.80177
G3 X27.973 Y4.836 I-4.034 J1.697 E8.90300
G3 X27.299 Y7.451 I-7.982 J-0.663 E9.04200
G3 X26.429 Y8.586 I-4.185 J-2.307 E9.11552
G3 X26.356 Y10.548 I-4.297 J0.822 E9.21686
G3 X25.154 Y12.963 I-7.687 J-2.320 E9.35572
G3 X24.066 Y13.891 I-3.594 J-3.112 E9.42923
G0 F7500 X23.669 Y13.481
G1 F1200 X23.511 Y13.567 E9.43844
G3 X23.253 Y15.168 I-4.039 J0.170 E9.52195 F1200
G3 X21.511 Y17.507 I-6.232 J-2.823 E9.67259
G3 X20.177 Y18.159 I-2.449 J-3.320 E9.74900
G3 X19.598 Y19.664 I-4.018 J-0.682 E9.83203
G3 X17.401 Y21.599 I-5.513 J-4.044 E9.98325
G3 X15.959 Y21.959 I-1.705 J-3.762 E10.05974
G3 X15.081 Y23.308 I-3.787 J-1.504 E10.14261
G3 X12.527 Y24.743 I-4.554 J-5.115 E10.29393
G3 X11.047 Y24.795 I-0.883 J-4.053 E10.37014
G3 X9.905 Y25.935 I-3.420 J-2.284 E10.45321
G3 X7.114 Y26.809 I-3.395 J-5.947 E10.60428
G3 X5.649 Y26.552 I-0.034 J-4.111 E10.68082
G3 X4.279 Y27.433 I-2.841 J-2.912 E10.76470
G3 X1.385 Y27.702 I-2.069 J-6.561 E10.91480
G3 X0.005 Y27.145 I0.822 J-4.024 E10.99138
G3 X-1.504 Y27.722 I-2.175 J-3.428 E11.07457
G3 X-4.412 Y27.381 I-0.675 J-6.813 E11.22581
G3 X-5.638 Y26.553 I1.614 J-3.712 E11.30194
G3 X-7.240 Y26.803 I-1.415 J-3.811 E11.38543
G3 X-10.005 Y25.868 I0.758 J-6.796 E11.53619
G3 X-11.037 Y24.801 I2.413 J-3.366 E11.61258
G3 X-12.648 Y24.714 I-0.589 J-4.048 E11.69564
G3 X-15.170 Y23.215 I2.159 J-6.503 E11.84719
G3 X-15.951 Y21.964 I2.989 J-2.735 E11.92309
G3 X-17.512 Y21.543 I0.255 J-4.051 E12.00634
G3 X-19.663 Y19.561 I3.445 J-5.897 E12.15743
G3 X-20.171 Y18.166 I3.601 J-2.101 E12.23382
G3 X-21.609 Y17.429 I1.095 J-3.907 E12.31703
G3 X-23.300 Y15.042 I4.616 J-5.062 E12.46813
G3 X-23.505 Y13.577 I3.844 J-1.285 E12.54425
G3 X-24.768 Y12.546 I1.924 J-3.646 E12.62820
G3 X-25.918 Y9.879 I5.597 J-3.995 E12.77819
G3 X-25.815 Y8.393 I4.039 J-0.467 E12.85485
G3 X-26.822 Y7.152 I2.622 J-3.156 E12.93712
G3 X-27.405 Y4.269 I6.247 J-2.764 E13.08907
G3 X-26.997 Y2.840 I4.126 J0.405 E13.16554
G3 X-27.730 Y1.390 I3.208 J-2.532 E13.24921
G3 X-27.693 Y-1.524 I6.720 J-1.372 E13.39972
G3 X-26.998 Y-2.831 I3.935 J1.254 E13.47589
G3 X-27.414 Y-4.400 I3.644 J-1.806 E13.55948
G3 X-26.768 Y-7.255 I6.870 J0.054 E13.71067
G3 X-25.818 Y-8.383 I3.485 J1.971 E13.78656
G3 X-25.904 Y-9.980 I3.933 J-1.013 E13.86890
G3 X-24.675 Y-12.660 I6.662 J1.433 E14.02124
G3 X-23.511 Y-13.567 I2.992 J2.639 E14.09718
G3 X-23.253 Y-15.168 I4.039 J-0.170 E14.18069
G3 X-21.511 Y-17.507 I6.232 J2.823 E14.33132
G3 X-20.177 Y-18.159 I2.449 J3.320 E14.40773
G3 X-19.598 Y-19.664 I4.018 J0.682 E14.49076
G3 X-17.401 Y-21.599 I5.513 J4.044 E14.64199
G3 X-15.959 Y-21.959 I1.705 J3.762 E14.71847
G3 X-15.081 Y-23.308 I3.787 J1.504 E14.80134
G3 X-12.527 Y-24.743 I4.554 J5.115 E14.95267
G3 X-11.047 Y-24.795 I0.883 J4.053 E15.02887
G3 X-9.905 Y-25.935 I3.420 J2.284 E15.11195
G3 X-7.114 Y-26.809 I3.395 J5.947 E15.26301
G3 X-5.649 Y-26.552 I0.034 J4.111 E15.33956
G3 X-4.279 Y-27.433 I2.841 J2.912 E15.42343
G3 X-1.385 Y-27.702 I2.069 J6.561 E15.57354
G3 X-0.005 Y-27.145 I-0.822 J4.024 E15.65012
G3 X1.504 Y-27.722 I2.175 J3.428 E15.73330
G3 X4.412 Y-27.381 I0.675 J6.813 E15.88454
G3 X5.638 Y-26.553 I-1.614 J3.712 E15.96067
G3 X7.240 Y-26.803 I1.415 J3.811 E16.04416
G3 X10.005 Y-25.868 I-0.758 J6.796 E16.19492
G3 X11.037 Y-24.801 I-2.413 J3.366 E16.27131
G3 X12.648 Y-24.714 I0.589 J4.048 E16.35438
G3 X15.170 Y-23.215 I-2.159 J6.503 E16.50593
G3 X15.951 Y-21.964 I-2.989 J2.735 E16.58182
G3 X17.512 Y-21.543 I-0.255 J4.051 E16.66507
G3 X19.663 Y-19.561 I-3.445 J5.897 E16.81616
G3 X20.171 Y-18.166 I-3.601 J2.101 E16.89256
G3 X21.609 Y-17.429 I-1.095 J3.907 E16.97576
G3 X23.300 Y-15.042 I-4.616 J5.062 E17.12686
G3 X23.505 Y-13.577 I-3.844 J1.285 E17.20299
G3 X24.768 Y-12.546 I-1.924 J3.646 E17.28694
G3 X25.918 Y-9.879 I-5.597 J3.995 E17.43693
G3 X25.815 Y-8.393 I-4.039 J0.467 E17.51358
G3 X26.826 Y-7.143 I-2.591 J3.129 E17.59636
G3 X27.405 Y-4.269 I-6.251 J2.755 E17.74781
G3 X26.997 Y-2.840 I-4.126 J-0.405 E17.82428
G3 X27.730 Y-1.390 I-3.208 J2.532 E17.90794
G3 X27.693 Y1.523 I-6.716 J1.371 E18.05840
G3 X26.998 Y2.833 I-4.056 J-1.312 E18.13471
G3 X27.413 Y4.375 I-3.651 J1.809 E18.21692
G3 X26.768 Y7.254 I-6.851 J-0.023 E18.36934
G3 X25.818 Y8.383 I-3.479 J-1.963 E18.44527
G3 X25.904 Y9.980 I-3.933 J1.013 E18.52762
G3 X24.675 Y12.660 I-6.662 J-1.433 E18.67995
G3 X23.669 Y13.481 I-2.961 J-2.601 E18.74668
G0 F7500 X22.948 Y13.797
G3 X22.700 Y15.040 I-3.341 J-0.020 E18.81188 F1200
G3 X21.108 Y17.107 I-5.574 J-2.646 E18.94654
G3 X19.667 Y17.722 I-2.391 J-3.607 E19.02716
G3 X19.083 Y19.425 I-3.700 J-0.317 E19.12023
G3 X17.091 Y21.123 I-4.903 J-3.735 E19.25534
G3 X15.551 Y21.426 I-1.597 J-4.052 E19.33608
G3 X14.627 Y22.967 I-3.546 J-1.079 E19.42897
G3 X12.323 Y24.213 I-4.012 J-4.666 E19.56417
G3 X10.758 Y24.188 I-0.714 J-4.286 E19.64471
G3 X9.531 Y25.507 I-3.252 J-1.795 E19.73785
G3 X7.024 Y26.249 I-2.960 J-5.394 E19.87279
G3 X5.512 Y25.909 I0.197 J-4.410 E19.95248
G3 X4.005 Y26.936 I-3.176 J-3.041 E20.04660
G3 X1.413 Y27.135 I-1.757 J-5.903 E20.18076
G3 X-0.012 Y26.475 I1.079 J-4.197 E20.26155
G3 X-1.671 Y27.179 I-2.156 J-2.774 E20.35471
G3 X-4.266 Y26.833 I-0.499 J-6.160 E20.48982
G3 X-5.516 Y25.893 I1.964 J-3.913 E20.57026
G3 X-7.290 Y26.237 I-1.575 J-3.377 E20.66369
G3 X-9.749 Y25.362 I0.796 J-6.129 E20.79840
G3 X-10.780 Y24.181 I2.699 J-3.397 E20.87905
G3 X-12.580 Y24.150 I-0.838 J-3.640 E20.97212
G3 X-14.813 Y22.774 I2.051 J-5.828 E21.10750
G3 X-15.571 Y21.411 I3.340 J-2.750 E21.18774
G3 X-17.328 Y21.006 I-0.069 J-3.715 E21.28096
G3 X-19.222 Y19.203 I3.205 J-5.263 E21.41593
G3 X-19.683 Y17.705 I3.844 J-2.003 E21.49657
G3 X-21.317 Y16.942 I0.613 J-3.444 E21.58980
G3 X-22.795 Y14.783 I4.248 J-4.493 E21.72484
G3 X-22.934 Y13.226 I4.237 J-1.163 E21.80524
G3 X-24.380 Y12.131 I1.330 J-3.259 E21.89901
G3 X-25.370 Y9.730 I5.084 J-3.501 E22.03305
G3 X-25.182 Y8.170 I4.341 J-0.268 E22.11388
G3 X-26.359 Y6.823 I1.979 J-2.917 E22.20633
G3 X-26.839 Y4.238 I5.706 J-2.397 E22.34203
G3 X-26.336 Y2.760 I4.360 J0.659 E22.42233
G3 X-27.207 Y1.169 I2.898 J-2.621 E22.51606
G3 X-27.132 Y-1.436 I6.063 J-1.129 E22.65056
G3 X-26.329 Y-2.778 I4.059 J1.518 E22.73101
G3 X-26.857 Y-4.508 I2.994 J-1.859 E22.82451
G3 X-26.238 Y-7.052 I6.209 J0.163 E22.95964
G3 X-25.175 Y-8.193 I3.702 J2.384 E23.03983
G3 X-25.337 Y-9.974 I3.285 J-1.197 E23.13227
G3 X-24.199 Y-12.351 I5.989 J1.406 E23.26832
G3 X-22.921 Y-13.248 I3.112 J3.075 E23.34862
G3 X-22.700 Y-15.040 I3.452 J-0.484 E23.44197
G3 X-21.108 Y-17.107 I5.574 J2.646 E23.57663
G3 X-19.667 Y-17.722 I2.391 J3.607 E23.65725
G3 X-19.083 Y-19.425 I3.700 J0.317 E23.75032
G3 X-17.091 Y-21.123 I4.903 J3.735 E23.88543
G3 X-15.551 Y-21.426 I1.597 J4.052 E23.96617
G3 X-14.627 Y-22.967 I3.546 J1.079 E24.05906
G3 X-12.323 Y-24.213 I4.012 J4.666 E24.19426
G3 X-10.758 Y-24.188 I0.714 J4.286 E24.27480
G3 X-9.531 Y-25.507 I3.252 J1.795 E24.36794
G3 X-7.024 Y-26.249 I2.960 J5.394 E24.50288
G3 X-5.512 Y-25.909 I-0.197 J4.410 E24.58257
G3 X-4.005 Y-26.936 I3.176 J3.041 E24.67669
G3 X-1.413 Y-27.135 I1.757 J5.903 E24.81085
G3 X0.012 Y-26.475 I-1.079 J4.197 E24.89164
G3 X1.671 Y-27.179 I2.156 J2.774 E24.98480
G3 X4.266 Y-26.833 I0.499 J6.160 E25.11991
G3 X5.516 Y-25.893 I-1.964 J3.913 E25.20035
G3 X7.290 Y-26.237 I1.575 J3.377 E25.29378
G3 X9.749 Y-25.362 I-0.796 J6.129 E25.42849
G3 X10.780 Y-24.181 I-2.699 J3.397 E25.50914
G3 X12.580 Y-24.150 I0.838 J3.640 E25.60221
G3 X14.813 Y-22.774 I-2.051 J5.828 E25.73759
G3 X15.571 Y-21.411 I-3.340 J2.750 E25.81783
G3 X17.328 Y-21.006 I0.069 J3.715 E25.91105
G3 X19.222 Y-19.203 I-3.205 J5.263 E26.04602
G3 X19.683 Y-17.705 I-3.844 J2.003 E26.12666
G3 X21.317 Y-16.942 I-0.613 J3.444 E26.21989
G3 X22.795 Y-14.783 I-4.248 J4.493 E26.35493
G3 X22.934 Y-13.226 I-4.237 J1.163 E26.43533
G3 X24.380 Y-12.131 I-1.330 J3.259 E26.52910
G3 X25.370 Y-9.730 I-5.084 J3.501 E26.66314
G3 X25.182 Y-8.170 I-4.341 J0.268 E26.74397
G3 X26.362 Y-6.816 I-2.138 J3.054 E26.83681
G3 X26.839 Y-4.238 I-5.710 J2.390 E26.97213
G3 X26.336 Y-2.760 I-4.360 J-0.659 E27.05243
G3 X27.207 Y-1.169 I-2.898 J2.621 E27.14616
G3 X27.132 Y1.435 I-6.060 J1.129 E27.28061
G3 X26.328 Y2.779 I-4.021 J-1.493 E27.36120
G3 X26.856 Y4.487 I-3.204 J1.926 E27.45361
G3 X26.238 Y7.051 I-6.140 J-0.124 E27.58976
G3 X25.175 Y8.193 I-3.691 J-2.370 E27.67000
G3 X25.337 Y9.974 I-3.285 J1.197 E27.76244
G3 X24.199 Y12.351 I-5.989 J-1.406 E27.89848
G3 X22.929 Y13.245 I-3.125 J-3.090 E27.97835
G1 X22.948 Y13.797 E28.00664
G0 F7500 X22.389 Y13.757
G3 X22.148 Y14.904 I-2.793 J0.012 E28.06698 F1200
G3 X20.711 Y16.699 I-4.836 J-2.399 E28.18567
G3 X19.126 Y17.224 I-1.878 J-3.014 E28.27202
G3 X18.803 Y18.795 I-3.428 J0.114 E28.35495
G3 X17.548 Y20.171 I-4.181 J-2.553 E28.45099
G3 X16.788 Y20.642 I-1.701 J-1.896 E28.49696
G3 X15.127 Y20.824 I-1.205 J-3.325 E28.58339
G3 X14.484 Y22.292 I-3.359 J-0.596 E28.66625
G3 X12.968 Y23.377 I-3.554 J-3.364 E28.76240
G3 X12.126 Y23.679 I-1.268 J-2.211 E28.80839
G3 X10.466 Y23.513 I-0.485 J-3.530 E28.89466
G3 X9.532 Y24.817 I-3.151 J-1.271 E28.97760
G3 X7.828 Y25.563 I-2.788 J-4.049 E29.07353
G3 X6.942 Y25.686 I-0.786 J-2.407 E29.11952
G3 X5.350 Y25.175 I0.249 J-3.512 E29.20601
G3 X4.152 Y26.262 I-2.817 J-1.900 E29.28968
G3 X2.342 Y26.632 I-1.876 J-4.564 E29.38493
G3 X1.449 Y26.568 I-0.265 J-2.570 E29.43096
G3 X-0.002 Y25.737 I0.992 J-3.415 E29.51745
G3 X-1.389 Y26.549 I-2.362 J-2.445 E29.60055
G3 X-3.252 Y26.535 I-0.895 J-4.826 E29.69664
G3 X-4.111 Y26.285 I0.274 J-2.543 E29.74264
G3 X-5.351 Y25.174 I1.667 J-3.108 E29.82875
G3 X-6.882 Y25.681 I-1.811 J-2.904 E29.91214
G3 X-8.695 Y25.281 I0.137 J-4.928 E30.00788
G3 X-9.484 Y24.858 I0.779 J-2.400 E30.05391
G3 X-10.471 Y23.512 I2.281 J-2.708 E30.14024
G3 X-12.067 Y23.689 I-1.166 J-3.226 E30.22326
G3 X-13.766 Y22.916 I1.139 J-4.757 E30.31952
G3 X-14.448 Y22.337 I1.262 J-2.177 E30.36553
G3 X-15.130 Y20.821 I2.807 J-2.174 E30.45150
G3 X-16.730 Y20.663 I-0.474 J-3.376 E30.53464
G3 X-18.227 Y19.558 I2.126 J-4.447 E30.63059
G3 X-18.775 Y18.851 I1.672 J-1.862 E30.67659
G3 X-19.129 Y17.220 I3.194 J-1.547 E30.76291
G3 X-20.661 Y16.731 I0.245 J-3.411 E30.84606
G3 X-21.895 Y15.337 I3.022 J-3.918 E30.94207
G3 X-22.284 Y14.532 I2.010 J-1.468 E30.98805
G3 X-22.290 Y12.866 I3.440 J-0.845 E31.07421
G3 X-23.694 Y12.063 I0.954 J-3.297 E31.15785
G3 X-24.604 Y10.458 I3.773 J-3.200 E31.25298
G3 X-24.819 Y9.589 I2.325 J-1.036 E31.29901
G3 X-24.478 Y7.951 I3.538 J-0.118 E31.38554
G1 X-24.815 Y7.761 E31.40535
G3 X-25.890 Y6.501 I2.024 J-2.815 E31.49099
G3 X-26.270 Y4.215 I5.010 J-2.007 E31.61062
G3 X-25.599 Y2.686 I3.503 J0.626 E31.69697
G3 X-26.552 Y1.386 I2.188 J-2.604 E31.78033
G3 X-26.730 Y-0.459 I4.736 J-1.388 E31.87590
G3 X-26.572 Y-1.339 I2.542 J0.002 E31.92188
G3 X-25.597 Y-2.691 I3.296 J1.349 E32.00808
G3 X-26.261 Y-4.161 I2.697 J-2.103 E32.09148
G3 X-26.049 Y-6.012 I4.914 J-0.375 E32.18756
G3 X-25.710 Y-6.840 I2.498 J0.539 E32.23356
G3 X-24.476 Y-7.954 I2.942 J2.018 E32.31953
G3 X-24.823 Y-9.514 I3.066 J-1.501 E32.40215
G3 X-24.231 Y-11.295 I4.845 J0.622 E32.49896
G3 X-23.727 Y-12.034 I2.304 J1.030 E32.54496
G3 X-22.288 Y-12.868 I2.453 J2.574 E32.63097
G3 X-22.297 Y-14.480 I3.293 J-0.824 E32.71433
G3 X-21.357 Y-16.080 I4.640 J1.650 E32.81002
G3 X-20.711 Y-16.699 I2.011 J1.452 E32.85604
G3 X-19.126 Y-17.224 I1.878 J3.014 E32.94239
G3 X-18.803 Y-18.795 I3.428 J-0.114 E33.02531
G3 X-17.548 Y-20.171 I4.181 J2.553 E33.12135
G3 X-16.788 Y-20.642 I1.701 J1.896 E33.16733
G3 X-15.127 Y-20.824 I1.205 J3.325 E33.25375
G3 X-14.484 Y-22.292 I3.359 J0.596 E33.33661
G3 X-12.968 Y-23.377 I3.554 J3.364 E33.43276
G3 X-12.126 Y-23.679 I1.268 J2.211 E33.47876
G3 X-10.466 Y-23.513 I0.485 J3.530 E33.56503
