;FLAVOR:Repetier
;TIME:7103
;MINX:-35.626
;MINY:-35.626
;MINZ:0.18
;MAXX:35.626
;MAXY:35.626
;MAXZ:12.3
;ARCWELDERPROCESSED
; Postprocessed by [ArcWelder](https://github.com/FormerLurker/ArcWelderLib)
; Copyright(C) 2020 - Brad Hochgesang
; resolution=0.05mm
; path_tolerance=1%
; max_radius=1000000.00mm
; firmware_compensation=True
; mm_per_arc_segment=1.00mm
; min_arc_segments=12
; default_xyz_precision=3
; default_e_precision=5

;Generated with Cura_SteamEngine 4.10.0
M82 ;absolute extrusion mode
G21
G90
M82
M107 T0
M190 S105.0
M109 S252 T0
G28
G92 E0
G0 E3 F200
G92 E0

G92 E0
G92 E0
G1 F4200 E-5
;LAYER_COUNT:45
;LAYER:0
M107
G1 F8400 Z2.18
G0 F7500 X3.405 Y-34.508 Z2.18
;TYPE:SKIRT
G1 F8400 Z0.18
G1 F4200 E0.01663
G3 X5.411 Y-35.107 I2.434 J4.494 E0.12461 F1200
G3 X8.506 Y-34.474 I0.012 J7.823 E0.28765
G3 X10.069 Y-33.184 I-2.569 J4.705 E0.39211
G3 X12.142 Y-33.380 I1.512 J4.934 E0.49954
G3 X15.077 Y-32.143 I-1.473 J7.596 E0.66396
G3 X16.349 Y-30.581 I-3.367 J4.040 E0.76780
G3 X18.441 Y-30.361 I0.522 J5.097 E0.87635
G3 X21.054 Y-28.587 I-2.961 J7.173 E1.03937
G3 X22.000 Y-26.806 I-4.126 J3.333 E1.14332
G3 X24.007 Y-26.184 I-0.498 J5.154 E1.25174
G3 X26.228 Y-23.930 I-4.280 J6.438 E1.41507
G3 X26.808 Y-21.995 I-4.691 J2.460 E1.51921
G3 X28.612 Y-21.034 I-1.469 J4.931 E1.62460
G3 X30.392 Y-18.350 I-5.388 J5.505 E1.79090
G3 X30.582 Y-16.345 I-5.058 J1.491 E1.89472
G3 X32.198 Y-15.005 I-2.415 J4.557 E2.00305
G3 X33.389 Y-12.075 I-6.478 J4.340 E2.16629
G3 X33.184 Y-10.064 I-5.239 J0.482 E2.27050
G3 X34.482 Y-8.488 I-3.258 J4.005 E2.37576
G3 X35.101 Y-5.320 I-7.085 J3.029 E2.54245
G3 X34.510 Y-3.398 I-5.259 J-0.565 E2.64611
G3 X35.489 Y-1.547 I-3.990 J3.295 E2.75414
G3 X35.467 Y1.629 I-7.639 J1.535 E2.91808
G3 X34.510 Y3.403 I-5.082 J-1.596 E3.02198
G3 X35.105 Y5.364 I-4.554 J2.453 E3.12764
G3 X34.473 Y8.508 I-7.760 J0.076 E3.29320
G3 X33.184 Y10.069 I-4.705 J-2.573 E3.39754
G3 X33.380 Y12.142 I-4.934 J1.512 E3.50497
G3 X32.143 Y15.077 I-7.596 J-1.473 E3.66939
G3 X30.581 Y16.349 I-4.040 J-3.367 E3.77324
G3 X30.362 Y18.440 I-5.115 J0.521 E3.88172
G3 X28.587 Y21.054 I-7.182 J-2.967 E4.04481
G3 X26.806 Y22.000 I-3.333 J-4.126 E4.14876
G3 X26.184 Y24.007 I-5.154 J-0.498 E4.25718
G3 X23.930 Y26.228 I-6.438 J-4.280 E4.42051
G3 X21.996 Y26.808 I-2.462 J-4.695 E4.52460
G3 X21.013 Y28.634 I-4.926 J-1.474 E4.63158
G3 X18.351 Y30.392 I-5.505 J-5.442 E4.79628
G3 X16.345 Y30.582 I-1.492 J-5.064 E4.90014
G3 X15.005 Y32.198 I-4.557 J-2.415 E5.00847
G3 X12.075 Y33.389 I-4.340 J-6.478 E5.17171
G3 X10.064 Y33.184 I-0.482 J-5.239 E5.27592
G3 X8.487 Y34.483 I-4.009 J-3.260 E5.38125
G3 X5.313 Y35.101 I-3.029 J-7.096 E5.54824
G3 X3.397 Y34.511 I0.600 J-5.354 E5.65157
G3 X1.583 Y35.480 I-3.305 J-4.004 E5.75760
G3 X-1.629 Y35.467 I-1.575 J-7.600 E5.92343
G3 X-3.403 Y34.511 I1.610 J-5.112 E6.02730
G3 X-5.369 Y35.105 I-2.463 J-4.601 E6.13318
G3 X-8.508 Y34.473 I-0.071 J-7.760 E6.29849
G3 X-10.069 Y33.184 I2.573 J-4.705 E6.40284
G3 X-12.142 Y33.380 I-1.512 J-4.934 E6.51026
G3 X-15.077 Y32.143 I1.473 J-7.596 E6.67468
G3 X-16.349 Y30.581 I3.367 J-4.040 E6.77853
G3 X-18.441 Y30.361 I-0.522 J-5.097 E6.88708
G3 X-21.054 Y28.587 I2.961 J-7.173 E7.05010
G3 X-22.000 Y26.806 I4.126 J-3.333 E7.15405
G3 X-24.007 Y26.184 I0.498 J-5.154 E7.26247
G3 X-26.228 Y23.930 I4.280 J-6.438 E7.42580
G3 X-26.808 Y21.995 I4.691 J-2.460 E7.52994
G3 X-28.612 Y21.034 I1.469 J-4.931 E7.63533
G3 X-30.392 Y18.350 I5.388 J-5.505 E7.80163
G3 X-30.582 Y16.345 I5.058 J-1.491 E7.90545
G3 X-32.198 Y15.005 I2.415 J-4.557 E8.01377
G3 X-33.389 Y12.075 I6.478 J-4.340 E8.17701
G3 X-33.184 Y10.064 I5.239 J-0.482 E8.28122
G3 X-34.482 Y8.488 I3.258 J-4.005 E8.38648
G3 X-35.101 Y5.318 I7.099 J-3.032 E8.55328
G3 X-34.511 Y3.397 I5.325 J0.584 E8.65685
G3 X-35.489 Y1.547 I3.994 J-3.295 E8.76482
G3 X-35.467 Y-1.629 I7.639 J-1.535 E8.92875
G3 X-34.510 Y-3.404 I5.107 J1.608 E9.03269
G3 X-35.105 Y-5.370 I4.575 J-2.458 E9.13860
G3 X-34.472 Y-8.508 I7.717 J-0.076 E9.30388
G3 X-33.184 Y-10.070 I4.720 J2.580 E9.40823
G3 X-33.380 Y-12.142 I4.926 J-1.511 E9.51561
G3 X-32.143 Y-15.077 I7.596 J1.473 E9.68003
G3 X-30.581 Y-16.349 I4.040 J3.367 E9.78388
G3 X-30.361 Y-18.442 I5.147 J-0.517 E9.89248
G3 X-28.587 Y-21.054 I7.178 J2.967 E10.05545
G3 X-26.806 Y-22.000 I3.333 J4.126 E10.15940
G3 X-26.184 Y-24.007 I5.154 J0.498 E10.26782
G3 X-23.930 Y-26.228 I6.438 J4.280 E10.43115
G3 X-21.995 Y-26.808 I2.460 J4.691 E10.53529
G3 X-21.013 Y-28.634 I4.903 J1.460 E10.64226
G3 X-18.351 Y-30.392 I5.505 J5.442 E10.80696
G3 X-16.345 Y-30.582 I1.492 J5.064 E10.91082
G3 X-15.005 Y-32.198 I4.557 J2.415 E11.01915
G3 X-12.075 Y-33.389 I4.340 J6.478 E11.18239
G3 X-10.064 Y-33.184 I0.482 J5.239 E11.28660
G3 X-8.487 Y-34.483 I4.009 J3.260 E11.39193
G3 X-5.313 Y-35.101 I3.029 J7.096 E11.55892
G3 X-3.397 Y-34.511 I-0.600 J5.354 E11.66224
G3 X-1.583 Y-35.480 I3.305 J4.004 E11.76828
G3 X1.629 Y-35.467 I1.575 J7.600 E11.93411
G3 X3.405 Y-34.508 I-1.591 J5.071 E12.03816
G0 F7500 X3.026 Y-34.1
G1 F1200 X3.334 Y-33.807 E12.05993
G3 X4.982 Y-34.490 I2.393 J3.443 E12.15194 F1200
G3 X6.361 Y-34.485 I0.676 J3.612 E12.22294
G3 X8.318 Y-33.939 I-0.849 J6.823 E12.32744
G3 X9.860 Y-32.510 I-2.214 J3.936 E12.43615
G3 X12.141 Y-32.814 I1.718 J4.178 E12.55541
G3 X14.787 Y-31.656 I-1.456 J6.930 E12.70446
G3 X16.016 Y-29.962 I-2.988 J3.461 E12.81263
G3 X17.808 Y-29.957 I0.885 J4.101 E12.90503
G3 X19.081 Y-29.421 I-0.771 J3.611 E12.97615
G3 X20.675 Y-28.166 I-3.407 J5.967 E13.08049
G3 X21.551 Y-26.264 I-3.607 J2.814 E13.18874
G3 X23.787 Y-25.662 I-0.018 J4.521 E13.30875
G3 X25.774 Y-23.591 I-4.023 J5.848 E13.45685
G3 X26.262 Y-21.551 I-4.058 J2.049 E13.56528
G3 X28.300 Y-20.561 I-0.882 J4.408 E13.68267
G3 X29.881 Y-18.106 I-5.027 J4.974 E13.83340
G3 X29.963 Y-16.015 I-4.450 J1.222 E13.94155
G3 X31.795 Y-14.607 I-1.743 J4.164 E14.06131
G3 X32.840 Y-11.935 I-5.987 J3.882 E14.20934
G3 X32.510 Y-9.861 I-4.563 J0.337 E14.31790
G3 X34.013 Y-8.170 I-2.504 J3.739 E14.43512
G3 X34.535 Y-5.291 I-6.512 J2.667 E14.58618
G3 X33.809 Y-3.332 I-4.515 J-0.559 E14.69418
G3 X34.964 Y-1.332 I-3.181 J3.171 E14.81389
G3 X34.906 Y1.548 I-6.997 J1.300 E14.96253
G3 X33.810 Y3.331 I-4.325 J-1.430 E15.07072
G3 X34.550 Y5.477 I-3.762 J2.498 E15.18832
G3 X33.938 Y8.320 I-7.121 J-0.045 E15.33841
G3 X32.510 Y9.860 I-3.936 J-2.218 E15.44700
G3 X32.814 Y12.141 I-4.178 J1.718 E15.56626
G3 X31.656 Y14.787 I-6.930 J-1.456 E15.71531
G3 X29.962 Y16.016 I-3.461 J-2.988 E15.82348
G3 X29.807 Y18.326 I-4.401 J0.865 E15.94351
G3 X28.166 Y20.675 I-6.538 J-2.820 E16.09135
G3 X26.264 Y21.551 I-2.814 J-3.607 E16.19960
G3 X25.662 Y23.787 I-4.521 J-0.018 E16.31962
G3 X23.591 Y25.774 I-5.848 J-4.023 E16.46771
G3 X21.552 Y26.262 I-2.049 J-4.058 E16.57609
G3 X20.542 Y28.320 I-4.432 J-0.898 E16.69488
G3 X18.107 Y29.880 I-4.961 J-5.064 E16.84413
G3 X16.015 Y29.963 I-1.224 J-4.436 E16.95235
G3 X14.607 Y31.795 I-4.164 J-1.743 E17.07211
G3 X11.935 Y32.840 I-3.882 J-5.987 E17.22014
G3 X9.861 Y32.510 I-0.337 J-4.563 E17.32871
G3 X8.169 Y34.014 I-3.742 J-2.506 E17.44600
G3 X5.284 Y34.535 I-2.675 J-6.565 E17.59734
G3 X3.332 Y33.810 I0.573 J-4.534 E17.70497
G3 X1.365 Y34.957 I-3.192 J-3.215 E17.82293
G3 X-1.548 Y34.906 I-1.335 J-6.976 E17.97331
G3 X-3.330 Y33.810 I1.424 J-4.312 E18.08146
G3 X-5.482 Y34.550 I-2.501 J-3.773 E18.19936
G3 X-8.320 Y33.938 I0.051 J-7.121 E18.34920
G3 X-9.860 Y32.510 I2.218 J-3.936 E18.45779
G3 X-12.141 Y32.814 I-1.718 J-4.178 E18.57705
G3 X-14.787 Y31.656 I1.456 J-6.930 E18.72609
G3 X-16.016 Y29.962 I2.988 J-3.461 E18.83427
G3 X-17.808 Y29.957 I-0.885 J-4.101 E18.92667
G3 X-19.081 Y29.421 I0.771 J-3.611 E18.99779
G3 X-20.675 Y28.166 I3.407 J-5.967 E19.10213
G3 X-21.551 Y26.264 I3.607 J-2.814 E19.21038
G3 X-23.787 Y25.662 I0.018 J-4.521 E19.33039
G3 X-25.774 Y23.591 I4.023 J-5.848 E19.47848
G3 X-26.262 Y21.551 I4.058 J-2.049 E19.58692
G3 X-28.300 Y20.561 I0.882 J-4.408 E19.70431
G3 X-29.881 Y18.106 I5.027 J-4.974 E19.85504
G3 X-29.963 Y16.015 I4.450 J-1.222 E19.96319
G3 X-31.795 Y14.607 I1.743 J-4.164 E20.08295
G3 X-32.840 Y11.935 I5.987 J-3.882 E20.23098
G3 X-32.510 Y9.861 I4.563 J-0.337 E20.33954
G3 X-34.013 Y8.170 I2.504 J-3.739 E20.45676
G3 X-34.535 Y5.289 I6.526 J-2.670 E20.60792
G3 X-33.809 Y3.332 I4.487 J0.551 E20.71582
G3 X-34.964 Y1.332 I3.181 J-3.171 E20.83554
G3 X-34.906 Y-1.548 I6.997 J-1.300 E20.98418
G3 X-33.810 Y-3.331 I4.325 J1.430 E21.09237
G3 X-34.550 Y-5.483 I3.773 J-2.501 E21.21027
G3 X-33.938 Y-8.320 I7.121 J0.052 E21.36006
G3 X-32.510 Y-9.860 I3.936 J2.218 E21.46865
G3 X-32.814 Y-12.141 I4.178 J-1.718 E21.58791
G3 X-31.656 Y-14.787 I6.930 J1.456 E21.73696
G3 X-29.962 Y-16.016 I3.461 J2.988 E21.84514
G3 X-29.806 Y-18.328 I4.423 J-0.863 E21.96526
G3 X-28.166 Y-20.675 I6.535 J2.820 E22.11299
G3 X-26.263 Y-21.551 I2.812 J3.603 E22.22128
G3 X-25.662 Y-23.787 I4.507 J0.013 E22.34130
G3 X-23.591 Y-25.774 I5.848 J4.023 E22.48939
G3 X-21.551 Y-26.262 I2.049 J4.058 E22.59783
G3 X-20.542 Y-28.320 I4.419 J0.890 E22.71661
G3 X-18.107 Y-29.880 I4.961 J5.064 E22.86586
G3 X-16.015 Y-29.963 I1.224 J4.436 E22.97408
G3 X-14.607 Y-31.795 I4.164 J1.743 E23.09384
G3 X-11.935 Y-32.840 I3.882 J5.987 E23.24187
G3 X-9.861 Y-32.510 I0.337 J4.563 E23.35044
G3 X-8.169 Y-34.014 I3.742 J2.506 E23.46773
G3 X-5.284 Y-34.535 I2.675 J6.565 E23.61907
G3 X-3.332 Y-33.810 I-0.573 J4.534 E23.72670
G3 X-1.365 Y-34.957 I3.192 J3.215 E23.84466
G3 X1.548 Y-34.906 I1.335 J6.976 E23.99503
G3 X3.026 Y-34.100 I-1.646 J4.776 E24.08167
G0 F7500 X2.7 Y-33.641
G3 X3.249 Y-33.008 I-1.398 J1.767 E24.12477 F1200
G3 X4.395 Y-33.734 I2.088 J2.029 E24.19485
G3 X5.620 Y-33.992 I1.295 J3.113 E24.25923
G3 X8.124 Y-33.405 I-0.181 J6.407 E24.39187
G3 X9.496 Y-32.041 I-2.096 J3.481 E24.49189
G1 X9.625 Y-31.743 E24.50853
G3 X10.878 Y-32.227 I1.646 J2.398 E24.57779
G3 X12.133 Y-32.246 I0.677 J3.289 E24.64235
G3 X14.491 Y-31.171 I-1.413 J6.223 E24.77602
G3 X15.555 Y-29.607 I-2.779 J3.035 E24.87377
G1 X15.632 Y-29.255 E24.89223
G3 X16.972 Y-29.485 I1.149 J2.673 E24.96235
G3 X18.206 Y-29.252 I0.005 J3.359 E25.02694
G3 X20.291 Y-27.748 I-2.624 J5.835 E25.15953
G3 X21.032 Y-25.992 I-3.323 J2.437 E25.25803
G1 X21.038 Y-25.645 E25.27581
G3 X22.394 Y-25.609 I0.603 J2.847 E25.34577
G3 X23.560 Y-25.141 I-0.624 J3.242 E25.41040
G3 X25.316 Y-23.256 I-3.708 J5.214 E25.54327
G3 X25.700 Y-21.401 I-3.744 J1.742 E25.64116
G1 X25.636 Y-21.045 E25.65968
G3 X26.923 Y-20.763 I0.041 J2.889 E25.72761
G3 X27.983 Y-20.090 I-1.212 J3.081 E25.79220
G3 X29.365 Y-17.868 I-4.591 J4.396 E25.92720
G3 X29.384 Y-15.989 I-4.006 J0.980 E26.02430
G1 X29.248 Y-15.64 E26.04348
G3 X30.490 Y-15.089 I-0.523 J2.855 E26.11356
G3 X31.386 Y-14.212 I-1.809 J2.744 E26.17806
G3 X32.288 Y-11.801 I-5.401 J3.395 E26.31083
G3 X31.932 Y-9.933 I-4.108 J0.185 E26.40910
G1 X31.739 Y-9.633 E26.42737
G3 X32.818 Y-8.882 I-1.069 J2.687 E26.49515
G3 X33.540 Y-7.856 I-2.305 J2.389 E26.55968
G3 X33.968 Y-5.268 I-5.941 J2.312 E26.69501
G3 X33.248 Y-3.503 I-4.046 J-0.621 E26.79353
G1 X33.009 Y-3.257 E26.81109
G3 X33.941 Y-2.277 I-1.588 J2.443 E26.88084
G3 X34.436 Y-1.123 I-2.751 J1.863 E26.94543
G3 X34.345 Y1.460 I-6.300 J1.071 E27.07874
G3 X33.292 Y3.053 I-3.858 J-1.406 E27.17743
G1 X33.011 Y3.247 E27.19492
G3 X33.720 Y4.359 I-2.043 J2.085 E27.26291
G3 X33.992 Y5.584 I-3.047 J1.319 E27.32746
G3 X33.405 Y8.125 I-6.390 J-0.138 E27.46198
G3 X32.041 Y9.496 I-3.489 J-2.107 E27.56196
G1 X31.743 Y9.625 E27.57859
G3 X32.227 Y10.878 I-2.366 J1.634 E27.64787
G3 X32.246 Y12.133 I-3.289 J0.677 E27.71243
G3 X31.171 Y14.491 I-6.223 J-1.413 E27.84610
G3 X29.607 Y15.555 I-3.035 J-2.779 E27.94385
G1 X29.255 Y15.631 E27.96229
G3 X29.485 Y16.970 I-2.684 J1.150 E28.03236
G3 X29.252 Y18.205 I-3.359 J0.006 E28.09701
G3 X27.748 Y20.291 I-5.829 J-2.618 E28.22964
G3 X25.992 Y21.032 I-2.437 J-3.323 E28.32814
G1 X25.644 Y21.038 E28.34596
G3 X25.609 Y22.394 I-2.827 J0.605 E28.41593
G3 X25.141 Y23.560 I-3.242 J-0.624 E28.48056
G3 X23.256 Y25.316 I-5.214 J-3.708 E28.61343
G3 X21.401 Y25.700 I-1.742 J-3.744 E28.71132
G1 X21.045 Y25.636 E28.72985
G3 X20.754 Y26.942 I-2.900 J0.039 E28.79884
G3 X20.074 Y27.999 I-3.087 J-1.239 E28.86350
G3 X17.869 Y29.365 I-4.391 J-4.625 E28.99729
G3 X15.989 Y29.384 I-0.981 J-4.013 E29.09443
G1 X15.64 Y29.248 E29.11362
G3 X15.089 Y30.490 I-2.839 J-0.516 E29.18370
G3 X14.212 Y31.386 I-2.744 J-1.809 E29.24820
G3 X11.801 Y32.288 I-3.395 J-5.401 E29.38097
G3 X9.933 Y31.932 I-0.185 J-4.108 E29.47924
G1 X9.633 Y31.739 E29.49751
G3 X8.881 Y32.819 I-2.695 J-1.075 E29.56536
G3 X7.855 Y33.541 I-2.389 J-2.305 E29.62989
G3 X5.262 Y33.968 I-2.311 J-5.944 E29.76546
G3 X3.495 Y33.242 I0.638 J-4.067 E29.86420
G1 X3.257 Y33.01 E29.88122
G3 X2.301 Y33.926 I-2.423 J-1.571 E29.94949
G3 X1.151 Y34.431 I-1.884 J-2.728 E30.01410
G3 X-1.460 Y34.345 I-1.100 J-6.291 E30.14886
G3 X-3.053 Y33.292 I1.406 J-3.858 E30.24756
G1 X-3.246 Y33.011 E30.26502
G3 X-4.361 Y33.721 I-2.077 J-2.032 E30.33317
G3 X-5.588 Y33.992 I-1.325 J-3.087 E30.39780
G3 X-8.125 Y33.405 I0.142 J-6.392 E30.53212
G3 X-9.496 Y32.041 I2.107 J-3.489 E30.63210
G1 X-9.624 Y31.743 E30.64871
G3 X-10.878 Y32.227 I-1.650 J-2.408 E30.71802
G3 X-12.133 Y32.246 I-0.677 J-3.289 E30.78258
G3 X-14.491 Y31.171 I1.413 J-6.223 E30.91625
G3 X-15.555 Y29.607 I2.779 J-3.035 E31.01400
G1 X-15.632 Y29.255 E31.03246
G3 X-16.972 Y29.485 I-1.149 J-2.673 E31.10258
G3 X-18.206 Y29.252 I-0.005 J-3.359 E31.16717
G3 X-20.291 Y27.748 I2.624 J-5.835 E31.29976
G3 X-21.032 Y25.992 I3.323 J-2.437 E31.39826
G1 X-21.038 Y25.645 E31.41604
G3 X-22.394 Y25.609 I-0.603 J-2.847 E31.48600
G3 X-23.560 Y25.141 I0.624 J-3.242 E31.55063
G3 X-25.316 Y23.256 I3.708 J-5.214 E31.68350
G3 X-25.700 Y21.401 I3.744 J-1.742 E31.78139
G1 X-25.636 Y21.045 E31.79991
G3 X-26.923 Y20.763 I-0.041 J-2.889 E31.86784
G3 X-27.983 Y20.090 I1.212 J-3.081 E31.93243
G3 X-29.365 Y17.868 I4.591 J-4.396 E32.06743
G3 X-29.384 Y15.989 I4.006 J-0.980 E32.16453
G1 X-29.248 Y15.64 E32.18371
G3 X-30.490 Y15.089 I0.523 J-2.855 E32.25379
G3 X-31.386 Y14.212 I1.809 J-2.744 E32.31829
G3 X-32.288 Y11.801 I5.401 J-3.395 E32.45106
G3 X-31.932 Y9.933 I4.108 J-0.185 E32.54933
G1 X-31.739 Y9.633 E32.5676
G3 X-32.818 Y8.882 I1.069 J-2.687 E32.63538
G3 X-33.540 Y7.856 I2.305 J-2.389 E32.69991
G3 X-33.968 Y5.266 I5.954 J-2.314 E32.83534
G3 X-33.245 Y3.500 I4.057 J0.630 E32.93397
G1 X-33.01 Y3.257 E32.95128
G3 X-33.941 Y2.277 I1.596 J-2.448 E33.02099
G3 X-34.436 Y1.123 I2.751 J-1.863 E33.08558
G3 X-34.345 Y-1.460 I6.300 J-1.071 E33.21889
G3 X-33.292 Y-3.053 I3.858 J1.406 E33.31758
G1 X-33.011 Y-3.247 E33.33507
G3 X-33.721 Y-4.362 I2.025 J-2.073 E33.40322
G3 X-33.992 Y-5.589 I3.087 J-1.325 E33.46785
G3 X-33.405 Y-8.126 I6.392 J0.142 E33.60217
G3 X-32.041 Y-9.496 I3.497 J2.118 E33.70211
G1 X-31.743 Y-9.625 E33.71874
G3 X-32.227 Y-10.878 I2.378 J-1.639 E33.78802
G3 X-32.246 Y-12.133 I3.289 J-0.677 E33.85258
G3 X-31.171 Y-14.491 I6.223 J1.413 E33.98625
G3 X-29.607 Y-15.555 I3.035 J2.779 E34.08400
G1 X-29.254 Y-15.632 E34.1025
G3 X-29.484 Y-16.974 I2.641 J-1.143 E34.17274
G3 X-29.252 Y-18.206 I3.335 J-0.010 E34.23723
G3 X-27.748 Y-20.291 I5.835 J2.624 E34.36981
G3 X-25.992 Y-21.032 I2.437 J3.323 E34.46831
G1 X-25.645 Y-21.038 E34.48609
G3 X-25.609 Y-22.394 I2.842 J-0.603 E34.55605
G3 X-25.141 Y-23.560 I3.242 J0.624 E34.62068
G3 X-23.256 Y-25.316 I5.214 J3.708 E34.75355
G3 X-21.401 Y-25.700 I1.742 J3.744 E34.85144
G1 X-21.045 Y-25.636 E34.86997
G3 X-20.754 Y-26.942 I2.895 J-0.040 E34.93897
G3 X-20.074 Y-27.999 I3.087 J1.239 E35.00362
G3 X-17.869 Y-29.365 I4.391 J4.625 E35.13741
G3 X-15.989 Y-29.384 I0.981 J4.013 E35.23455
G1 X-15.64 Y-29.249 E35.25372
G3 X-15.089 Y-30.490 I2.841 J0.519 E35.32376
G3 X-14.212 Y-31.386 I2.744 J1.809 E35.38826
G3 X-11.801 Y-32.288 I3.395 J5.401 E35.52102
G3 X-9.933 Y-31.932 I0.185 J4.108 E35.61929
G1 X-9.632 Y-31.739 E35.63761
G3 X-8.881 Y-32.819 I2.682 J1.064 E35.70543
G3 X-7.855 Y-33.541 I2.389 J2.305 E35.76997
G3 X-5.262 Y-33.968 I2.311 J5.944 E35.90554
G3 X-3.495 Y-33.242 I-0.638 J4.067 E36.00427
G1 X-3.257 Y-33.01 E36.0213
G3 X-2.301 Y-33.926 I2.423 J1.571 E36.08957
