;FLAVOR:Repetier
;TIME:8884
;MINX:-68.984
;MINY:-71.381
;MINZ:0.18
;MAXX:68.984
;MAXY:71.381
;MAXZ:5.63
;ARCWELDERPROCESSED
; Postprocessed by [ArcWelder](https://github.com/FormerLurker/ArcWelderLib)
; Copyright(C) 2020 - Brad Hochgesang
; resolution=0.05mm
; path_tolerance=1%
; max_radius=1000000.00mm
; firmware_compensation=True
; mm_per_arc_segment=1.00mm
; min_arc_segments=12
; default_xyz_precision=3
; default_e_precision=5

;Generated with Cura_SteamEngine 4.10.0
M82 ;absolute extrusion mode
G21
G90
M82
M107 T0
M190 S105.0
M109 S252 T0
G28
G92 E0
G0 E3 F200
G92 E0

G92 E0
G92 E0
G1 F4200 E-5
;LAYER_COUNT:16
;LAYER:0
M107
G1 F8400 Z2.18
G0 F7500 X68.983 Y66.519 Z2.18
;TYPE:SKIRT
G1 F8400 Z0.18
G1 F4200 E0.01663
G3 X68.506 Y68.559 I-5.346 J-0.174 E0.12464 F1200
G3 X67.004 Y70.384 I-4.564 J-2.226 E0.24679
G3 X65.245 Y71.266 I-2.843 J-3.475 E0.34833
G3 X64.266 Y71.381 I-0.985 J-4.162 E0.39890
G1 X-64.266 Y71.38 E6.98215
G3 X-65.958 Y71.025 I0.000 J-4.210 E7.07126
G3 X-67.876 Y69.563 I2.495 J-5.262 E7.19565
G3 X-68.907 Y67.465 I3.618 J-3.080 E7.31651
G1 X-68.984 Y66.663 E7.35777
G1 X-68.984 Y-66.567 E14.18165
G3 X-68.371 Y-68.821 I4.702 J0.068 E14.30246
G3 X-66.323 Y-70.844 I4.855 J2.867 E14.45164
G3 X-64.266 Y-71.381 I2.053 J3.658 E14.56164
G1 X64.266 Y-71.38 E21.14489
G3 X65.958 Y-71.025 I-0.000 J4.210 E21.23401
G3 X67.869 Y-69.570 I-2.500 J5.266 E21.35788
G3 X68.907 Y-67.465 I-3.599 J3.083 E21.47924
G1 X68.984 Y-66.663 E21.52051
G1 X68.983 Y66.519 E28.34193
G0 F7500 X68.422 Y66.519
G3 X67.982 Y68.354 I-4.725 J-0.163 E28.43924 F1200
G3 X66.678 Y69.928 I-4.057 J-2.034 E28.54483
G3 X65.005 Y70.744 I-2.503 J-3.008 E28.64101
G1 X64.266 Y70.82 E28.67906
G1 X-64.266 Y70.819 E35.26231
G3 X-65.834 Y70.465 I0.001 J-3.656 E35.34525
G3 X-67.607 Y68.962 I2.105 J-4.280 E35.46557
G3 X-68.321 Y67.521 I2.842 J-2.306 E35.54855
G3 X-68.423 Y66.663 I3.627 J-0.866 E35.59287
G1 X-68.423 Y-66.567 E42.41675
G3 X-67.863 Y-68.580 I4.190 J0.081 E42.52484
G3 X-66.016 Y-70.373 I4.323 J2.606 E42.65823
G3 X-64.266 Y-70.820 I1.753 J3.214 E42.75159
G1 X64.266 Y-70.819 E49.33485
G3 X65.834 Y-70.465 I-0.001 J3.656 E49.41778
G3 X67.462 Y-69.182 I-2.401 J4.720 E49.52461
G3 X68.321 Y-67.521 I-3.375 J2.798 E49.62109
G3 X68.423 Y-66.663 I-3.627 J0.866 E49.66541
G1 X68.422 Y66.519 E56.48683
G0 F7500 X67.861 Y66.519
G3 X67.459 Y68.147 I-4.263 J-0.189 E56.57330 F1200
G3 X66.353 Y69.471 I-3.227 J-1.572 E56.66234
G3 X65.256 Y70.096 I-2.243 J-2.662 E56.72727
G3 X64.266 Y70.259 I-0.989 J-2.920 E56.77883
G1 X-64.266 Y70.258 E63.36208
G3 X-65.700 Y69.905 I0.004 J-3.105 E63.43837
G3 X-67.057 Y68.791 I2.283 J-4.164 E63.52876
G1 X-67.564 Y67.987 E63.57744
G3 X-67.862 Y66.663 I2.807 J-1.327 E63.64746
G1 X-67.862 Y-66.567 E70.47133
G3 X-67.356 Y-68.336 I3.839 J0.141 E70.56648
G3 X-65.711 Y-69.900 I3.786 J2.335 E70.68408
G3 X-64.266 Y-70.259 I1.444 J2.726 E70.76102
G1 X64.266 Y-70.258 E77.34427
G3 X65.700 Y-69.905 I-0.004 J3.105 E77.42057
G3 X67.053 Y-68.796 I-2.314 J4.203 E77.51061
G1 X67.564 Y-67.987 E77.55962
G3 X67.862 Y-66.663 I-2.807 J1.327 E77.62964
G1 X67.861 Y66.519 E84.45106
G0 F7500 X67.3 Y66.519
G3 X66.937 Y67.935 I-3.669 J-0.186 E84.52645 F1200
G3 X66.310 Y68.780 I-3.486 J-1.932 E84.58046
G3 X64.994 Y69.591 I-2.869 J-3.182 E84.66017
G3 X64.266 Y69.698 I-0.722 J-2.381 E84.69796
G1 X-64.266 Y69.697 E91.28121
G3 X-65.146 Y69.539 I0.002 J-2.542 E91.32718
G3 X-66.643 Y68.409 I1.554 J-3.615 E91.42412
G3 X-67.169 Y67.468 I2.553 J-2.044 E91.47952
G3 X-67.301 Y66.663 I2.388 J-0.805 E91.52143
G1 X-67.301 Y-66.567 E98.34531
G3 X-67.050 Y-67.686 I2.688 J0.015 E98.40437
G3 X-66.310 Y-68.780 I3.295 J1.431 E98.47231
G3 X-64.994 Y-69.591 I2.869 J3.182 E98.55202
G3 X-64.266 Y-69.698 I0.722 J2.381 E98.58981
G1 X64.266 Y-69.697 E105.17306
G3 X65.146 Y-69.539 I-0.002 J2.542 E105.21903
G3 X66.640 Y-68.413 I-1.558 J3.621 E105.31570
G3 X67.169 Y-67.468 I-2.554 J2.050 E105.37136
G3 X67.301 Y-66.663 I-2.388 J0.805 E105.41328
G1 X67.3 Y66.519 E112.2347
G0 F7500 X66.739 Y66.519
G3 X66.418 Y67.717 I-2.939 J-0.145 E112.29858 F1200
G3 X65.701 Y68.558 I-2.515 J-1.418 E112.35544
G1 X65.114 Y68.944 E112.39143
G3 X64.266 Y69.137 I-0.851 J-1.778 E112.43625
G1 X-64.266 Y69.136 E119.0195
G3 X-65.038 Y68.978 I0.001 J-1.970 E119.06006
G3 X-66.226 Y68.031 I1.462 J-3.053 E119.13847
G1 X-66.615 Y67.354 E119.17846
G3 X-66.740 Y66.663 I1.835 J-0.689 E119.21457
G1 X-66.74 Y-66.567 E126.03845
G3 X-66.527 Y-67.482 I2.158 J0.020 E126.08685
G3 X-65.887 Y-68.407 I2.696 J1.181 E126.14473
G3 X-64.742 Y-69.078 I2.195 J2.434 E126.21325
G1 X-64.266 Y-69.137 E126.23782
G1 X64.266 Y-69.136 E132.82107
G3 X65.038 Y-68.978 I-0.001 J1.970 E132.86163
G3 X66.223 Y-68.034 I-1.474 J3.066 E132.93982
G1 X66.615 Y-67.354 E132.98002
G3 X66.740 Y-66.663 I-1.835 J0.689 E133.01613
G1 X66.739 Y66.519 E139.83755
G0 F7500 X66.178 Y66.519
G1 F1200 X66.037 Y67.186 E139.87247
G1 X65.833 Y67.593 E139.89579
G3 X64.825 Y68.460 I-2.141 J-1.470 E139.96446 F1200
G3 X64.266 Y68.576 I-0.556 J-1.274 E139.99386
G1 X-64.266 Y68.575 E146.57711
G1 X-64.598 Y68.535 E146.59424
G1 X-65.044 Y68.339 E146.61919
G1 X-65.583 Y67.912 E146.65441
G3 X-66.081 Y67.178 I2.799 J-2.435 E146.69992
G1 X-66.179 Y66.663 E146.72677
G1 X-66.179 Y-66.567 E153.55065
G1 X-66.083 Y-67.076 E153.57718
G1 X-65.833 Y-67.593 E153.60659
G3 X-64.825 Y-68.460 I2.141 J1.470 E153.67526
G3 X-64.266 Y-68.576 I0.556 J1.274 E153.70466
G1 X64.266 Y-68.575 E160.28791
G1 X64.598 Y-68.535 E160.30504
G1 X65.046 Y-68.338 E160.3301
G3 X65.886 Y-67.513 I-1.193 J2.055 E160.39087
G1 X66.081 Y-67.178 E160.41073
G1 X66.179 Y-66.663 E160.43758
G1 X66.178 Y66.519 E167.259
G0 F7500 X65.617 Y66.519
G1 F1200 X65.501 Y67.02 E167.28534
G1 X65.242 Y67.453 E167.31118
G3 X64.547 Y67.967 I-1.600 J-1.437 E167.35564 F1200
G1 X64.266 Y68.015 E167.37025
G1 X-64.266 Y68.014 E173.9535
G1 X-64.522 Y67.974 E173.96677
G3 X-65.205 Y67.498 I0.819 J-1.903 E174.00963
G1 X-65.571 Y66.941 E174.04376
G1 X-65.618 Y66.663 E174.0582
G1 X-65.618 Y-66.567 E180.88208
G1 X-65.482 Y-67.075 E180.90902
G1 X-65.242 Y-67.453 E180.93195
G3 X-64.547 Y-67.967 I1.600 J1.437 E180.97642
G1 X-64.266 Y-68.015 E180.99102
G1 X64.266 Y-68.014 E187.57427
G1 X64.522 Y-67.974 E187.58754
G3 X65.204 Y-67.499 I-0.835 J1.927 E187.63032
G1 X65.571 Y-66.941 E187.66453
G1 X65.618 Y-66.663 E187.67897
G1 X65.617 Y66.519 E194.50039
G0 F7500 X65.056 Y66.519
G1 F1200 X64.925 Y66.935 E194.52273
G1 X64.723 Y67.188 E194.53931
G1 X64.436 Y67.397 E194.55749
G1 X64.266 Y67.454 E194.56668
G1 X-64.266 Y67.453 E201.14993
G1 X-64.422 Y67.406 E201.15827
G1 X-64.827 Y67.083 E201.18481
G1 X-65.023 Y66.798 E201.20252
G1 X-65.057 Y66.663 E201.20965
G1 X-65.057 Y-66.567 E208.03353
G1 X-64.925 Y-66.935 E208.05355
G1 X-64.723 Y-67.188 E208.07014
G1 X-64.436 Y-67.397 E208.08832
G1 X-64.266 Y-67.454 E208.0975
G1 X64.266 Y-67.453 E214.68076
G1 X64.422 Y-67.406 E214.6891
G1 X64.826 Y-67.084 E214.71556
G1 X65.023 Y-66.798 E214.73335
G1 X65.057 Y-66.663 E214.74048
G1 X65.056 Y66.519 E221.5619
G1 F4200 E216.5619
G1 F8400 Z2.18
;MESH:rotation_stage_cover_honeycomb.stl
G0 F7500 X59.014 Y54.075 Z2.18
;TYPE:WALL-OUTER
G1 F8400 Z0.18
G1 F4200 E221.57853
G1 F1200 X54.824 Y51.829 E221.82202
G1 X50.634 Y54.075 E222.06552
G1 X50.634 Y58.629 E222.29877
G1 X53.474 Y60.15 E222.46378
G1 X56.175 Y60.15 E222.60212
G1 X59.014 Y58.629 E222.76708
G1 X59.014 Y54.075 E223.00033
G0 F7500 X58.838 Y53.981
G0 X59.02 Y53.642
G0 X54.824 Y51.466
G0 X53.503 Y51.745
G0 X53.456 Y51.656
G1 F1200 X53.456 Y47.102 E223.23358
G1 X49.266 Y44.856 E223.47708
G1 X45.076 Y47.102 E223.72057
G1 X45.076 Y51.656 E223.95382
G1 X49.266 Y53.902 E224.19732
G1 X53.456 Y51.656 E224.44081
G0 F7500 X53.456 Y51.456
G0 X53.586 Y51.7
G0 X48.64 Y54.802
G0 X48.458 Y55.14
G1 F1200 X44.268 Y52.894 E224.68431
G1 X40.078 Y55.14 E224.9278
G1 X40.078 Y59.694 E225.16105
G1 X40.929 Y60.15 E225.2105
G1 X47.607 Y60.15 E225.55254
G1 X48.458 Y59.694 E225.60199
G1 X48.458 Y55.14 E225.83524
G0 F7500 X48.282 Y55.046
G0 X48.464 Y54.707
G0 X44.268 Y52.531
G0 X40.044 Y54.796
G0 X39.89 Y55.14
G1 F1200 X35.7 Y52.894 E226.07874
G1 X31.51 Y55.14 E226.32223
G1 X31.51 Y59.694 E226.55548
G1 X32.361 Y60.15 E226.60493
G1 X39.039 Y60.15 E226.94697
G1 X39.89 Y59.694 E226.99642
G1 X39.89 Y55.14 E227.22967
G0 F7500 X39.714 Y55.046
G0 X39.99 Y55.046
G0 X35.76 Y51.017
G0 X35.475 Y47.457
G0 X35.475 Y45.929
G0 X35.794 Y46.119
G1 F1200 X35.794 Y50.673 E227.46292
G1 X39.984 Y52.919 E227.70642
G1 X44.174 Y50.673 E227.94991
G1 X44.174 Y46.119 E228.18316
G1 X39.984 Y43.873 E228.42666
G1 X35.794 Y46.119 E228.67015
G0 F7500 X35.794 Y46.319
G0 X35.409 Y46.319
G0 X38.155 Y41.326
G0 X38.337 Y40.988
G1 F1200 X42.527 Y38.742 E228.91365
G1 X42.527 Y34.188 E229.1469
G1 X38.337 Y31.942 E229.39039
G1 X34.147 Y34.188 E229.63389
G1 X34.147 Y38.742 E229.86714
G1 X38.337 Y40.988 E230.11063
G0 F7500 X38.513 Y40.894
G0 X38.694 Y41.233
G0 X42.846 Y38.932
G0 X43.11 Y33.015
G0 X43.429 Y33.205
G1 F1200 X43.429 Y37.759 E230.34388
G1 X47.619 Y40.005 E230.58738
G1 X51.809 Y37.759 E230.83087
G1 X51.809 Y33.205 E231.06412
G1 X47.619 Y30.959 E231.30762
G1 X43.429 Y33.205 E231.55111
G0 F7500 X43.429 Y33.405
G0 X43.044 Y33.405
G0 X46.992 Y30.059
G0 X46.811 Y29.72
G1 F1200 X46.811 Y25.166 E231.78436
G1 X42.621 Y22.92 E232.02785
G1 X38.431 Y25.166 E232.27135
G1 X38.431 Y29.72 E232.5046
G1 X42.621 Y31.966 E232.74809
G1 X46.811 Y29.72 E232.99159
G0 F7500 X46.811 Y29.52
G0 X47.196 Y29.52
G0 X48.668 Y26.042
G0 X48.987 Y26.232
G1 F1200 X48.987 Y30.786 E233.22484
G1 X53.177 Y33.032 E233.46833
G1 X57.367 Y30.786 E233.71183
G1 X57.367 Y26.232 E233.94508
G1 X53.177 Y23.986 E234.18857
G1 X48.987 Y26.232 E234.43207
G0 F7500 X48.987 Y26.432
G0 X48.602 Y26.432
G0 X51.414 Y23.02
G0 X52.392 Y18.085
G0 X53.202 Y17.479
G0 X53.177 Y17.12
G1 F1200 X57.367 Y14.874 E234.67556
G1 X57.367 Y10.32 E234.90881
G1 X53.177 Y8.074 E235.15231
G1 X48.987 Y10.32 E235.3958
G1 X48.987 Y14.874 E235.62905
G1 X53.177 Y17.12 E235.87255
G0 F7500 X53.353 Y17.026
G0 X53.399 Y17.114
G0 X47.13 Y15.809
G0 X47.13 Y11.196
G0 X42.621 Y8.777
G0 X38.397 Y11.042
G0 X38.397 Y15.961
G0 X42.621 Y18.226
G0 X46.8 Y16.03
G0 X46.905 Y16.03
G1 F1200 X42.715 Y18.276 E236.11604
G1 X42.715 Y22.83 E236.34929
G1 X46.905 Y25.076 E236.59279
G1 X51.095 Y22.83 E236.83628
G1 X51.095 Y18.276 E237.06953
G1 X46.905 Y16.03 E237.31303
G0 F7500 X46.729 Y16.124
G0 X46.683 Y16.036
G0 X42.627 Y18.276
G0 X42.527 Y18.276
G1 F1200 X38.337 Y16.03 E237.55652
G1 X34.147 Y18.276 E237.80002
G1 X34.147 Y22.83 E238.03327
G1 X38.337 Y25.076 E238.27676
G1 X42.527 Y22.83 E238.52025
G1 X42.527 Y18.276 E238.75351
G0 F7500 X42.351 Y18.182
G0 X42.399 Y18.093
G0 X38.397 Y15.961
G0 X38.331 Y11.386
G0 X38.431 Y11.386
G1 F1200 X38.431 Y15.94 E238.98676
G1 X42.621 Y18.186 E239.23025
G1 X46.811 Y15.94 E239.47374
G1 X46.811 Y11.386 E239.707
G1 X42.621 Y9.14 E239.95049
G1 X38.431 Y11.386 E240.19398
G0 F7500 X38.431 Y11.586
G0 X38.331 Y11.586
G0 X34.235 Y8.802
G0 X34.053 Y9.14
G1 F1200 X29.863 Y11.386 E240.43748
G1 X29.863 Y15.94 E240.67073
G1 X34.053 Y18.186 E240.91422
G1 X38.243 Y15.94 E241.15772
G1 X38.243 Y11.386 E241.39097
G1 X34.053 Y9.14 E241.63446
G0 F7500 X33.877 Y9.234
G0 X33.696 Y8.895
G0 X29.055 Y10.51
G0 X29.055 Y10.147
G1 F1200 X33.245 Y7.901 E241.87796
G1 X33.245 Y3.347 E242.11121
G1 X29.055 Y1.101 E242.3547
G1 X24.865 Y3.347 E242.5982
G1 X24.865 Y7.901 E242.83145
G1 X29.055 Y10.147 E243.07494
G0 F7500 X29.231 Y10.053
G0 X29.412 Y10.392
G0 X27.735 Y10.232
G0 X27.687 Y10.32
G1 F1200 X23.497 Y8.074 E243.31844
G1 X19.307 Y10.32 E243.56193
G1 X19.307 Y14.874 E243.79518
G1 X23.497 Y17.12 E244.03868
G1 X27.687 Y14.874 E244.28217
G1 X27.687 Y10.32 E244.51542
G0 F7500 X27.511 Y10.226
G0 X27.559 Y10.138
G0 X29.544 Y11.196
G0 X34.053 Y8.777
G0 X38.277 Y11.042
G0 X38.277 Y15.961
G0 X34.059 Y18.276
G0 X33.959 Y18.276
G1 F1200 X29.769 Y16.03 E244.75892
G1 X25.579 Y18.276 E245.00241
G1 X25.579 Y22.83 E245.23566
G1 X29.769 Y25.076 E245.47916
G1 X33.959 Y22.83 E245.72265
G1 X33.959 Y18.276 E245.9559
G0 F7500 X33.783 Y18.182
G0 X33.831 Y18.094
G0 X34.113 Y22.851
G0 X38.277 Y25.145
G0 X38.343 Y29.72
G0 X38.243 Y29.72
G1 F1200 X38.243 Y25.166 E246.18915
G1 X34.053 Y22.92 E246.43265
G1 X29.863 Y25.166 E246.67614
G1 X29.863 Y29.72 E246.90939
G1 X34.053 Y31.966 E247.15289
G1 X38.243 Y29.72 E247.39638
G0 F7500 X38.243 Y29.52
G0 X38.343 Y29.52
G0 X34.053 Y32.329
G0 X29.237 Y30.621
G0 X29.055 Y30.959
G1 F1200 X24.865 Y33.205 E247.63987
G1 X24.865 Y37.759 E247.87312
G1 X29.055 Y40.005 E248.11662
G1 X33.245 Y37.759 E248.36011
G1 X33.245 Y33.205 E248.59336
G1 X29.055 Y30.959 E248.83686
G0 F7500 X28.879 Y31.053
G0 X28.698 Y30.714
G0 X23.497 Y33.395
G0 X22.126 Y32.661
G0 X21.081 Y30.934
G0 X21.392 Y30.708
G1 F1200 X22.231 Y32.077 E248.9191
G1 X22.379 Y32.433 E248.93884
G1 X23.497 Y33.032 E249.00381
G1 X27.687 Y30.786 E249.2473
G1 X27.687 Y26.232 E249.48055
G1 X23.497 Y23.986 E249.72405
G1 X19.307 Y26.232 E249.96754
G1 X19.307 Y28.596 E250.08862
G1 X20.349 Y29.488 E250.15888
G1 X21.392 Y30.708 E250.24109
G0 F7500 X21.496 Y30.878
G0 X21.168 Y31.078
G0 X16.316 Y30.511
G0 X16.115 Y30.838
G2 X13.117 Y30.118 I-3.004 J5.908 E250.40030 F1200
G2 X10.120 Y30.838 I0.006 J6.623 E250.55947
G2 X7.777 Y32.840 I2.984 J5.864 E250.71862
G2 X6.598 Y35.688 I5.312 J3.867 E250.87782
G2 X6.839 Y38.760 I6.545 J1.032 E251.03696
G2 X8.449 Y41.388 I6.301 J-2.053 E251.19612
G2 X11.077 Y42.998 I4.662 J-4.660 E251.35528
G2 X14.150 Y43.240 I2.038 J-6.248 E251.51447
G2 X16.997 Y42.060 I-1.018 J-6.481 E251.67363
G2 X18.999 Y39.717 I-3.895 J-5.355 E251.83279
G2 X19.719 Y36.720 I-5.908 J-3.004 E251.99197
G2 X18.999 Y33.723 I-6.586 J-0.003 E252.15114
G2 X16.997 Y31.380 I-5.843 J2.965 E252.31030
G1 X16.115 Y30.838 E252.36333
G0 F7500 X15.931 Y30.762
G0 X16.078 Y30.407
G0 X18.988 Y26.041
G0 X19.798 Y25.435
G0 X19.773 Y25.076
G1 F1200 X23.963 Y22.83 E252.60682
G1 X23.963 Y18.276 E252.84007
G1 X19.773 Y16.03 E253.08357
G1 X15.583 Y18.276 E253.32706
G1 X15.583 Y22.83 E253.56031
G1 X19.773 Y25.076 E253.80381
G0 F7500 X19.949 Y24.982
G0 X19.995 Y25.07
G0 X15.264 Y23.02
G0 X14.658 Y12.817
G0 X14.84 Y12.479
G1 F1200 X19.03 Y10.233 E254.0473
G1 X19.03 Y5.679 E254.28055
G1 X14.84 Y3.433 E254.52404
G1 X10.65 Y5.679 E254.76754
G1 X10.65 Y10.233 E255.00079
G1 X14.84 Y12.479 E255.24428
G0 F7500 X15.016 Y12.385
G0 X15.197 Y12.724
G0 X13.52 Y12.564
G0 X13.472 Y12.652
G1 F1200 X9.282 Y10.406 E255.48778
G1 X5.092 Y12.652 E255.73127
G1 X5.092 Y17.206 E255.96452
G1 X9.282 Y19.452 E256.20802
G1 X13.472 Y17.206 E256.45151
G1 X13.472 Y12.652 E256.68476
G0 F7500 X13.296 Y12.558
G0 X13.344 Y12.47
G0 X8.655 Y9.506
G0 X8.474 Y9.167
G1 F1200 X8.474 Y4.613 E256.91801
G1 X4.284 Y2.367 E257.16151
G1 X0.094 Y4.613 E257.405
G1 X0.094 Y9.167 E257.63825
G1 X4.284 Y11.413 E257.88175
G1 X8.474 Y9.167 E258.12524
G0 F7500 X8.474 Y8.967
G0 X8.859 Y8.967
G0 X11.056 Y3.546
G0 X11.157 Y2.329
G0 X10.871 Y2.587
G1 F1200 X9.965 Y2.37 E258.17296
G1 X8.472 Y1.751 E258.25574
G1 X7.105 Y0.914 E258.33784
G1 X5.885 Y-.129 E258.42005
G1 X5.006 Y-1.157 E258.48933
G1 X4.378 Y-.925 E258.52362
G1 X4.378 Y2.277 E258.68762
G1 X8.568 Y4.523 E258.93111
G1 X10.955 Y3.243 E259.06984
G1 X10.871 Y2.587 E259.10371
G0 F7500 X10.677 Y2.541
G0 X10.767 Y2.166
G0 X15.613 Y2.366
G0 X15.992 Y2.422
G1 F1200 X15.893 Y3.091 E259.13835
G1 X18.564 Y4.523 E259.29358
G1 X22.754 Y2.277 E259.53707
G1 X22.754 Y-2.231 E259.76797
G1 X22.055 Y-2.431 E259.80521
G1 X21.392 Y-1.349 E259.8702
G1 X20.349 Y-.129 E259.95241
G1 X19.129 Y0.914 E260.03462
G1 X17.762 Y1.751 E260.11672
G1 X16.284 Y2.364 E260.19867
G1 X15.992 Y2.422 E260.21392
G0 F7500 X15.963 Y2.619
G0 X15.584 Y2.563
G0 X9.047 Y-1.758
G0 X8.219 Y-2.463
G0 X7.514 Y-3.291
G0 X6.465 Y-5.232
G0 X6.839 Y-5.321
G2 X8.449 Y-2.693 I6.301 J-2.053 E260.37308 F1200
G2 X11.077 Y-1.083 I4.662 J-4.660 E260.53224
G2 X14.150 Y-0.841 I2.038 J-6.248 E260.69143
G2 X16.997 Y-2.021 I-1.018 J-6.481 E260.85059
G2 X18.999 Y-4.364 I-3.895 J-5.355 E261.00975
G2 X19.719 Y-7.361 I-5.908 J-3.004 E261.16893
G2 X18.999 Y-10.358 I-6.586 J-0.003 E261.32810
