;FLAVOR:Repetier
;TIME:2047
;MINX:-21.756
;MINY:-21.756
;MINZ:0.18
;MAXX:21.756
;MAXY:21.756
;MAXZ:12.3
;ARCWELDERPROCESSED
; Postprocessed by [ArcWelder](https://github.com/FormerLurker/ArcWelderLib)
; Copyright(C) 2020 - Brad Hochgesang
; resolution=0.05mm
; path_tolerance=1%
; max_radius=1000000.00mm
; firmware_compensation=True
; mm_per_arc_segment=1.00mm
; min_arc_segments=12
; default_xyz_precision=3
; default_e_precision=5

;Generated with Cura_SteamEngine 4.10.0
M82 ;absolute extrusion mode
G21
G90
M82
M107 T0
M190 S100.0
M109 S252 T0
G28
G92 E0
G0 E3 F200
G92 E0

G92 E0
G92 E0
G1 F4200 E-5
;LAYER_COUNT:45
;LAYER:0
M107
G1 F8400 Z2.18
G0 F7500 X6.24 Y-20.573 Z2.18
;TYPE:SKIRT
G1 F8400 Z0.18
G1 F4200 E0.01663
G3 X8.703 Y-19.943 I-0.059 J5.360 E0.14807 F1200
G3 X10.129 Y-18.966 I-1.628 J3.906 E0.23716
G3 X12.422 Y-17.866 I-1.142 J5.320 E0.36859
G3 X13.631 Y-16.631 I-2.347 J3.507 E0.45767
G3 X15.672 Y-15.095 I-2.178 J5.017 E0.58965
G3 X16.616 Y-13.647 I-2.997 J2.985 E0.67875
G3 X18.316 Y-11.748 I-3.107 J4.492 E0.81046
G3 X18.960 Y-10.143 I-3.503 J2.337 E0.89960
G3 X20.254 Y-7.954 I-3.980 J3.830 E1.03097
G3 X20.574 Y-6.255 I-3.891 J1.612 E1.12008
G3 X21.415 Y-3.857 I-4.640 J2.974 E1.25135
G3 X21.401 Y-2.129 I-4.140 J0.831 E1.34042
G3 X21.756 Y0.407 I-5.197 J2.020 E1.47267
G3 X21.401 Y2.099 I-4.210 J-0.000 E1.56178
G3 X21.255 Y4.650 I-5.361 J0.973 E1.69382
G3 X20.574 Y6.239 I-4.116 J-0.824 E1.78293
G3 X19.944 Y8.701 I-5.376 J-0.064 E1.91430
G3 X18.967 Y10.127 I-3.906 J-1.628 E2.00340
G3 X17.866 Y12.422 I-5.329 J-1.145 E2.13493
G3 X16.631 Y13.631 I-3.507 J-2.347 E2.22401
G3 X15.095 Y15.672 I-5.030 J-2.187 E2.35599
G3 X13.647 Y16.616 I-2.985 J-2.997 E2.44509
G3 X11.748 Y18.316 I-4.487 J-3.102 E2.57679
G3 X10.143 Y18.960 I-2.337 J-3.503 E2.66593
G3 X7.952 Y20.254 I-3.801 J-3.934 E2.79741
G3 X6.253 Y20.574 I-1.611 J-3.885 E2.88653
G3 X3.855 Y21.415 I-2.966 J-4.618 E3.01780
G3 X2.127 Y21.401 I-0.831 J-4.140 E3.10687
G3 X-0.406 Y21.756 I-2.014 J-5.159 E3.23898
G3 X-2.098 Y21.401 I0.000 J-4.210 E3.32809
G3 X-4.651 Y21.255 I-0.973 J-5.376 E3.46023
G3 X-6.240 Y20.573 I0.833 J-4.132 E3.54936
G3 X-8.703 Y19.943 I0.059 J-5.360 E3.68079
G3 X-10.129 Y18.966 I1.628 J-3.906 E3.76989
G3 X-12.422 Y17.866 I1.142 J-5.320 E3.90132
G3 X-13.631 Y16.631 I2.347 J-3.507 E3.99039
G3 X-15.672 Y15.095 I2.178 J-5.017 E4.12238
G3 X-16.616 Y13.647 I2.997 J-2.985 E4.21147
G3 X-18.316 Y11.748 I3.107 J-4.492 E4.34318
G3 X-18.960 Y10.143 I3.503 J-2.337 E4.43232
G3 X-20.254 Y7.954 I3.980 J-3.830 E4.56370
G3 X-20.574 Y6.255 I3.891 J-1.612 E4.65281
G3 X-21.415 Y3.857 I4.640 J-2.974 E4.78407
G3 X-21.401 Y2.129 I4.140 J-0.831 E4.87314
G3 X-21.756 Y-0.407 I5.197 J-2.020 E5.00540
G3 X-21.401 Y-2.099 I4.210 J0.000 E5.09451
G3 X-21.415 Y-3.854 I4.247 J-0.911 E5.18496
G3 X-20.874 Y-5.742 I7.101 J1.013 E5.28593
G1 X-20.574 Y-6.239 E5.31566
G3 X-19.944 Y-8.701 I5.376 J0.064 E5.44703
G3 X-18.967 Y-10.127 I3.906 J1.628 E5.53613
G3 X-17.866 Y-12.422 I5.329 J1.145 E5.66766
G3 X-16.631 Y-13.631 I3.507 J2.347 E5.75674
G3 X-15.095 Y-15.672 I5.030 J2.187 E5.88872
G3 X-13.647 Y-16.616 I2.985 J2.997 E5.97782
G3 X-11.748 Y-18.316 I4.487 J3.102 E6.10952
G3 X-10.143 Y-18.960 I2.337 J3.503 E6.19866
G3 X-7.952 Y-20.254 I3.801 J3.934 E6.33014
G3 X-6.253 Y-20.574 I1.611 J3.885 E6.41925
G3 X-3.855 Y-21.415 I2.966 J4.618 E6.55053
G3 X-2.127 Y-21.401 I0.831 J4.140 E6.63960
G3 X0.406 Y-21.756 I2.014 J5.159 E6.77171
G3 X2.098 Y-21.401 I-0.000 J4.210 E6.86082
G3 X4.651 Y-21.255 I0.973 J5.376 E6.99296
G3 X6.240 Y-20.573 I-0.833 J4.132 E7.08209
G0 F7500 X6.008 Y-20.049
G1 F1200 X6.093 Y-20.006 E7.08696
G3 X7.741 Y-19.735 I0.249 J3.634 E7.17318 F1200
G3 X9.410 Y-18.869 I-2.063 J6.018 E7.26990
G2 X9.868 Y-18.434 I6.942 J-6.850 E7.30225
G3 X11.436 Y-17.849 I-0.459 J3.625 E7.38865
G3 X12.907 Y-16.676 I-3.197 J5.518 E7.48543
G2 X13.283 Y-16.152 I4.148 J-2.579 E7.51848
G3 X14.703 Y-15.272 I-1.171 J3.475 E7.60472
G3 X15.915 Y-13.833 I-4.217 J4.782 E7.70149
G2 X16.182 Y-13.248 I3.429 J-1.212 E7.73444
G3 X17.399 Y-12.110 I-1.817 J3.163 E7.82045
G3 X18.308 Y-10.462 I-5.061 J3.866 E7.91726
G2 X18.469 Y-9.824 I2.071 J-0.183 E7.95103
G3 X19.425 Y-8.486 I-2.427 J2.745 E8.03590
G3 X19.997 Y-6.695 I-5.742 J2.821 E8.13261
G3 X20.010 Y-6.060 I-27.146 J0.873 E8.16514
G3 X20.705 Y-4.542 I-2.873 J2.234 E8.25133
G3 X20.920 Y-2.671 I-6.187 J1.659 E8.34820
G3 X20.809 Y-2.040 I-46.519 J-7.858 E8.38101
G3 X21.195 Y-0.406 I-3.253 J1.631 E8.46770
G3 X21.036 Y1.472 I-6.369 J0.406 E8.56464
G2 X20.808 Y2.063 I26.591 J10.598 E8.59708
G3 X20.865 Y3.744 I-3.527 J0.961 E8.68392
G3 X20.340 Y5.552 I-6.335 J-0.859 E8.78076
G2 X20.005 Y6.083 I5.835 J4.052 E8.81292
G3 X19.735 Y7.739 I-3.612 J0.261 E8.89956
G3 X18.871 Y9.408 I-6.041 J-2.069 E8.99623
G2 X18.434 Y9.868 I7.048 J7.133 E9.02872
G3 X17.849 Y11.436 I-3.625 J-0.459 E9.11513
G3 X16.676 Y12.907 I-5.518 J-3.197 E9.21190
G2 X16.153 Y13.282 I2.637 J4.229 E9.24488
G3 X15.272 Y14.703 I-3.475 J-1.171 E9.33119
G3 X13.833 Y15.915 I-4.782 J-4.217 E9.42796
G2 X13.247 Y16.183 I1.155 J3.300 E9.46098
G3 X12.110 Y17.399 I-3.157 J-1.812 E9.54692
G3 X10.462 Y18.308 I-3.866 J-5.061 E9.64373
G2 X9.832 Y18.460 I0.379 J2.952 E9.67695
G3 X8.485 Y19.426 I-2.746 J-2.407 E9.76252
G3 X6.693 Y19.997 I-2.812 J-5.728 E9.85926
G3 X6.059 Y20.010 I-0.878 J-27.365 E9.89174
G3 X4.541 Y20.705 I-2.228 J-2.860 E9.97794
G3 X2.669 Y20.920 I-1.661 J-6.201 E10.07486
G2 X2.037 Y20.810 I-8.613 J47.614 E10.10771
G3 X0.406 Y21.195 I-1.631 J-3.261 E10.19423
G3 X-1.471 Y21.036 I-0.406 J-6.366 E10.29113
G2 X-2.073 Y20.810 I-2.001 J4.415 E10.32407
G3 X-3.746 Y20.865 I-0.953 J-3.517 E10.41049
G3 X-5.553 Y20.339 I0.855 J-6.306 E10.50730
G2 X-6.093 Y20.006 I-1.945 J2.549 E10.53981
G3 X-7.741 Y19.735 I-0.249 J-3.634 E10.62603
G3 X-9.410 Y18.869 I2.063 J-6.018 E10.72275
G2 X-9.868 Y18.434 I-6.942 J6.850 E10.75510
G3 X-11.436 Y17.849 I0.459 J-3.625 E10.84150
G3 X-12.907 Y16.676 I3.197 J-5.518 E10.93828
G2 X-13.283 Y16.152 I-4.148 J2.579 E10.97132
G3 X-14.703 Y15.272 I1.171 J-3.475 E11.05757
G3 X-15.915 Y13.833 I4.217 J-4.782 E11.15434
G2 X-16.182 Y13.248 I-3.429 J1.212 E11.18729
G3 X-17.399 Y12.110 I1.817 J-3.163 E11.27330
G3 X-18.308 Y10.462 I5.061 J-3.866 E11.37011
G2 X-18.469 Y9.824 I-2.071 J0.183 E11.40388
G3 X-19.425 Y8.486 I2.427 J-2.745 E11.48875
G3 X-19.997 Y6.695 I5.742 J-2.821 E11.58545
G3 X-20.010 Y6.060 I27.146 J-0.873 E11.61798
G3 X-20.705 Y4.542 I2.873 J-2.234 E11.70418
G3 X-20.920 Y2.671 I6.187 J-1.659 E11.80105
G3 X-20.809 Y2.040 I46.519 J7.858 E11.83386
G3 X-21.195 Y0.406 I3.253 J-1.631 E11.92054
G3 X-21.036 Y-1.472 I6.369 J-0.406 E12.01749
G2 X-20.808 Y-2.062 I-40.345 J-15.930 E12.04989
G3 X-20.865 Y-3.744 I3.532 J-0.962 E12.13677
G3 X-20.340 Y-5.552 I6.335 J0.859 E12.23361
G2 X-20.005 Y-6.083 I-5.835 J-4.052 E12.26578
G3 X-19.735 Y-7.739 I3.612 J-0.261 E12.35241
G3 X-18.871 Y-9.408 I6.041 J2.069 E12.44908
G2 X-18.434 Y-9.872 I-3.697 J-3.920 E12.48173
G3 X-17.849 Y-11.436 I3.604 J0.457 E12.56794
G3 X-16.676 Y-12.907 I5.518 J3.197 E12.66472
G2 X-16.153 Y-13.282 I-2.637 J-4.229 E12.69769
G3 X-15.272 Y-14.703 I3.475 J1.171 E12.78400
G3 X-13.833 Y-15.915 I4.782 J4.217 E12.88077
G2 X-13.247 Y-16.183 I-1.155 J-3.300 E12.91379
G3 X-12.110 Y-17.399 I3.157 J1.812 E12.99973
G3 X-10.462 Y-18.308 I3.866 J5.061 E13.09654
G2 X-9.832 Y-18.460 I-0.379 J-2.952 E13.12977
G3 X-8.485 Y-19.426 I2.746 J2.407 E13.21533
G3 X-6.693 Y-19.997 I2.812 J5.728 E13.31207
G3 X-6.059 Y-20.010 I0.878 J27.365 E13.34455
G3 X-4.541 Y-20.705 I2.228 J2.860 E13.43075
G3 X-2.669 Y-20.920 I1.661 J6.201 E13.52767
G2 X-2.037 Y-20.810 I8.613 J-47.614 E13.56052
G3 X-0.406 Y-21.195 I1.631 J3.261 E13.64704
G3 X1.471 Y-21.036 I0.406 J6.366 E13.74394
G2 X2.073 Y-20.810 I2.001 J-4.415 E13.77688
G3 X3.746 Y-20.865 I0.953 J3.517 E13.86330
G3 X5.553 Y-20.339 I-0.855 J6.306 E13.96011
G1 X6.008 Y-20.049 E13.98775
G0 F7500 X6.291 Y-19.453
G3 X8.272 Y-18.907 I-0.322 J5.036 E14.09384 F1200
G3 X9.113 Y-18.385 I-1.174 J2.831 E14.14471
G1 X9.557 Y-17.893 E14.17865
G3 X10.435 Y-17.727 I-0.072 J2.786 E14.22457
G3 X12.523 Y-16.258 I-2.192 J5.333 E14.35643
G1 X12.865 Y-15.684 E14.39065
G3 X13.700 Y-15.347 I-0.614 J2.724 E14.43692
G3 X15.456 Y-13.499 I-3.230 J4.827 E14.56857
G1 X15.678 Y-12.872 E14.60264
G3 X16.433 Y-12.377 I-1.150 J2.577 E14.64903
G3 X17.793 Y-10.224 I-4.088 J4.088 E14.78054
G1 X17.889 Y-9.565 E14.81465
G3 X18.541 Y-8.920 I-1.668 J2.338 E14.86178
G3 X19.445 Y-6.561 I-4.860 J3.215 E14.99222
G1 X19.411 Y-5.891 E15.02658
G3 X19.912 Y-5.158 I-2.037 J1.930 E15.07219
G3 X20.352 Y-2.647 I-5.356 J2.233 E15.20385
G1 X20.188 Y-1.992 E15.23843
G3 X20.537 Y-1.175 I-2.349 J1.486 E15.28408
G3 X20.475 Y1.384 I-5.685 J1.143 E15.41629
G1 X20.189 Y1.986 E15.45042
G3 X20.371 Y2.858 I-2.561 J0.990 E15.49620
G3 X19.807 Y5.356 I-5.803 J0.003 E15.62847
G1 X19.413 Y5.885 E15.66225
G3 X19.422 Y6.778 I-2.792 J0.475 E15.70813
G3 X18.386 Y9.112 I-5.677 J-1.123 E15.84002
G1 X17.893 Y9.558 E15.87408
G3 X17.727 Y10.435 I-2.788 J-0.073 E15.91994
G3 X16.258 Y12.523 I-5.333 J-2.192 E16.05180
G1 X15.683 Y12.866 E16.08609
G3 X15.348 Y13.699 I-2.731 J-0.615 E16.13223
G3 X13.499 Y15.456 I-4.831 J-3.232 E16.26395
G1 X12.872 Y15.678 E16.29802
G3 X12.376 Y16.434 I-2.561 J-1.139 E16.34448
G3 X10.224 Y17.793 I-4.087 J-4.089 E16.47592
G1 X9.565 Y17.889 E16.51003
G3 X8.929 Y18.535 I-2.300 J-1.628 E16.55661
G3 X6.559 Y19.445 I-3.211 J-4.821 E16.68771
G1 X5.892 Y19.411 E16.72192
G3 X5.158 Y19.912 I-1.947 J-2.064 E16.76758
G3 X2.645 Y20.352 I-2.235 J-5.369 E16.89933
G1 X1.992 Y20.188 E16.93382
G3 X1.173 Y20.537 I-1.476 J-2.327 E16.97956
G3 X-1.383 Y20.475 I-1.141 J-5.675 E17.11162
G1 X-1.985 Y20.189 E17.14575
G3 X-2.867 Y20.372 I-1.011 J-2.657 E17.19203
G3 X-5.356 Y19.807 I0.010 J-5.808 E17.32385
G1 X-5.885 Y19.413 E17.35763
G3 X-6.786 Y19.421 I-0.475 J-2.739 E17.40394
G3 X-9.113 Y18.385 I1.126 J-5.661 E17.53549
G1 X-9.557 Y17.893 E17.56944
G3 X-10.435 Y17.727 I0.072 J-2.786 E17.61535
G3 X-12.523 Y16.258 I2.192 J-5.333 E17.74721
G1 X-12.865 Y15.684 E17.78144
G3 X-13.700 Y15.347 I0.614 J-2.724 E17.82771
G3 X-15.456 Y13.499 I3.230 J-4.827 E17.95935
G1 X-15.678 Y12.872 E17.99342
G3 X-16.433 Y12.377 I1.150 J-2.577 E18.03981
G3 X-17.793 Y10.224 I4.088 J-4.088 E18.17133
G1 X-17.889 Y9.565 E18.20544
G3 X-18.541 Y8.920 I1.668 J-2.338 E18.25256
G3 X-19.445 Y6.561 I4.860 J-3.215 E18.38300
G1 X-19.411 Y5.891 E18.41736
G3 X-19.912 Y5.158 I2.037 J-1.930 E18.46298
G3 X-20.352 Y2.647 I5.356 J-2.233 E18.59463
G1 X-20.188 Y1.992 E18.62922
G3 X-20.537 Y1.175 I2.349 J-1.486 E18.67487
G3 X-20.475 Y-1.384 I5.685 J-1.143 E18.80707
G1 X-20.189 Y-1.986 E18.84121
G3 X-20.371 Y-2.857 I2.546 J-0.987 E18.88693
G3 X-19.807 Y-5.356 I5.803 J-0.004 E19.01925
G1 X-19.413 Y-5.885 E19.05304
G3 X-19.422 Y-6.778 I2.792 J-0.475 E19.09892
G3 X-18.386 Y-9.112 I5.677 J1.123 E19.23081
G1 X-17.893 Y-9.558 E19.26486
G3 X-17.726 Y-10.438 I2.828 J0.081 E19.31088
G3 X-16.258 Y-12.523 I5.335 J2.197 E19.44258
G1 X-15.683 Y-12.866 E19.47688
G3 X-15.348 Y-13.699 I2.731 J0.615 E19.52301
G3 X-13.499 Y-15.456 I4.831 J3.232 E19.65473
G1 X-12.872 Y-15.678 E19.6888
G3 X-12.376 Y-16.434 I2.561 J1.139 E19.73526
G3 X-10.224 Y-17.793 I4.087 J4.089 E19.86671
G1 X-9.565 Y-17.889 E19.90082
G3 X-8.929 Y-18.535 I2.300 J1.628 E19.94740
G3 X-6.559 Y-19.445 I3.211 J4.821 E20.07850
G1 X-5.892 Y-19.411 E20.1127
G3 X-5.158 Y-19.912 I1.947 J2.064 E20.15836
G3 X-2.645 Y-20.352 I2.235 J5.369 E20.29012
G1 X-1.992 Y-20.188 E20.3246
G3 X-1.173 Y-20.537 I1.476 J2.327 E20.37035
G3 X1.383 Y-20.475 I1.141 J5.675 E20.50240
G1 X1.985 Y-20.189 E20.53654
G3 X2.867 Y-20.372 I1.011 J2.657 E20.58282
G3 X5.356 Y-19.807 I-0.010 J5.808 E20.71463
G1 X5.885 Y-19.413 E20.74842
G1 X6.291 Y-19.453 E20.76931
G1 F4200 E15.76931
G1 F8400 Z2.18
G0 F7500 X5.151 Y-19.276 Z2.18
G1 F8400 Z0.18
G1 F4200 E20.78594
G3 X5.701 Y-18.802 I-1.045 J1.768 E20.82327 F1200
G3 X6.916 Y-18.826 I0.654 J2.335 E20.88613
G3 X8.809 Y-17.905 I-1.256 J4.987 E20.99474
G3 X9.259 Y-17.328 I-1.371 J1.534 E21.03237
G3 X10.448 Y-17.118 I0.186 J2.418 E21.09482
G3 X12.131 Y-15.845 I-2.192 J4.647 E21.20370
G3 X12.463 Y-15.189 I-1.652 J1.248 E21.24150
G3 X13.593 Y-14.747 I-0.293 J2.416 E21.30426
G3 X14.991 Y-13.171 I-3.073 J4.134 E21.41295
G3 X15.186 Y-12.465 I-1.870 J0.896 E21.45061
G3 X16.210 Y-11.810 I-0.761 J2.318 E21.51349
G3 X17.273 Y-9.993 I-3.826 J3.458 E21.62209
G3 X17.327 Y-9.261 I-2.009 J0.516 E21.65983
G3 X18.209 Y-8.409 I-1.191 J2.116 E21.72327
G3 X18.890 Y-6.435 I-4.432 J2.634 E21.83100
G3 X18.801 Y-5.704 I-2.078 J0.118 E21.86886
G3 X19.491 Y-4.718 I-1.569 J1.832 E21.93111
G3 X19.784 Y-2.631 I-4.885 J1.750 E22.03983
G3 X19.553 Y-1.928 I-2.087 J-0.296 E22.07787
G3 X20.038 Y-0.825 I-1.922 J1.503 E22.14019
G3 X19.915 Y1.287 I-5.114 J0.762 E22.24934
G3 X19.554 Y1.925 I-1.952 J-0.683 E22.28703
G3 X19.814 Y3.103 I-2.155 J1.093 E22.34943
G3 X19.277 Y5.150 I-5.173 J-0.263 E22.45861
G3 X18.801 Y5.701 I-1.755 J-1.035 E22.49605
G3 X18.827 Y6.909 I-2.319 J0.654 E22.55855
G3 X17.905 Y8.808 I-4.980 J-1.245 E22.66748
G3 X17.328 Y9.259 I-1.534 J-1.368 E22.70513
G3 X17.118 Y10.448 I-2.418 J0.186 E22.76758
G3 X15.845 Y12.131 I-4.647 J-2.192 E22.87646
G3 X15.189 Y12.463 I-1.248 J-1.652 E22.91426
G3 X14.748 Y13.592 I-2.405 J-0.289 E22.97697
G3 X13.171 Y14.991 I-4.137 J-3.075 E23.08573
G3 X12.465 Y15.186 I-0.896 J-1.870 E23.12339
G3 X11.809 Y16.211 I-2.308 J-0.755 E23.18634
G3 X9.993 Y17.273 I-3.457 J-3.829 E23.29487
G3 X9.262 Y17.327 I-0.516 J-2.005 E23.33256
G3 X8.417 Y18.205 I-2.112 J-1.187 E23.39560
G3 X6.434 Y18.890 I-2.633 J-4.408 E23.50384
G3 X5.704 Y18.801 I-0.120 J-2.056 E23.54165
G3 X4.718 Y19.491 I-1.832 J-1.569 E23.60390
G3 X2.629 Y19.784 I-1.751 J-4.893 E23.71272
G3 X1.927 Y19.553 I0.292 J-2.069 E23.75071
G3 X0.823 Y20.038 I-1.489 J-1.890 E23.81309
G3 X-1.286 Y19.915 I-0.760 J-5.105 E23.92209
G3 X-1.925 Y19.553 I0.681 J-1.947 E23.95985
G3 X-3.110 Y19.814 I-1.095 J-2.150 E24.02262
G3 X-5.151 Y19.276 I0.271 J-5.168 E24.13152
G3 X-5.701 Y18.802 I1.045 J-1.768 E24.16885
G3 X-6.916 Y18.826 I-0.654 J-2.335 E24.23171
G3 X-8.809 Y17.905 I1.256 J-4.987 E24.34032
G3 X-9.259 Y17.328 I1.371 J-1.534 E24.37794
G3 X-10.448 Y17.118 I-0.186 J-2.418 E24.44040
G3 X-12.131 Y15.845 I2.192 J-4.647 E24.54928
G3 X-12.463 Y15.189 I1.652 J-1.248 E24.58708
G3 X-13.593 Y14.747 I0.293 J-2.416 E24.64984
G3 X-14.991 Y13.171 I3.073 J-4.134 E24.75853
G3 X-15.186 Y12.465 I1.870 J-0.896 E24.79619
G3 X-16.210 Y11.810 I0.761 J-2.318 E24.85907
G3 X-17.273 Y9.993 I3.826 J-3.458 E24.96767
G3 X-17.327 Y9.261 I2.009 J-0.516 E25.00541
G3 X-18.209 Y8.409 I1.191 J-2.116 E25.06885
G3 X-18.890 Y6.435 I4.432 J-2.634 E25.17658
G3 X-18.801 Y5.704 I2.078 J-0.118 E25.21444
G3 X-19.491 Y4.718 I1.569 J-1.832 E25.27669
G3 X-19.784 Y2.631 I4.885 J-1.750 E25.38541
G3 X-19.553 Y1.928 I2.087 J0.296 E25.42345
G3 X-20.038 Y0.825 I1.922 J-1.503 E25.48577
G3 X-19.915 Y-1.287 I5.114 J-0.762 E25.59492
G3 X-19.554 Y-1.925 I1.952 J0.683 E25.63260
G3 X-19.814 Y-3.102 I2.150 J-1.092 E25.69495
G3 X-19.277 Y-5.150 I5.172 J0.262 E25.80418
G3 X-18.801 Y-5.701 I1.755 J1.035 E25.84162
G3 X-18.827 Y-6.909 I2.319 J-0.654 E25.90412
G3 X-17.905 Y-8.808 I4.980 J1.245 E26.01305
G3 X-17.329 Y-9.259 I1.546 J1.382 E26.05066
G3 X-17.117 Y-10.451 I2.414 J-0.185 E26.11328
G3 X-15.845 Y-12.131 I4.652 J2.201 E26.22200
G3 X-15.189 Y-12.463 I1.248 J1.652 E26.25980
G3 X-14.748 Y-13.592 I2.405 J0.289 E26.32250
G3 X-13.171 Y-14.991 I4.137 J3.075 E26.43127
G3 X-12.465 Y-15.186 I0.896 J1.870 E26.46892
G3 X-11.809 Y-16.211 I2.308 J0.755 E26.53188
G3 X-9.993 Y-17.273 I3.457 J3.829 E26.64041
G3 X-9.262 Y-17.327 I0.516 J2.005 E26.67810
G3 X-8.417 Y-18.205 I2.112 J1.187 E26.74114
G3 X-6.434 Y-18.890 I2.633 J4.408 E26.84938
G3 X-5.704 Y-18.801 I0.120 J2.056 E26.88719
G3 X-4.718 Y-19.491 I1.832 J1.569 E26.94943
G3 X-2.629 Y-19.784 I1.751 J4.893 E27.05825
G3 X-1.927 Y-19.553 I-0.292 J2.069 E27.09625
G3 X-0.823 Y-20.038 I1.489 J1.890 E27.15863
G3 X1.286 Y-19.915 I0.760 J5.105 E27.26763
G3 X1.925 Y-19.553 I-0.681 J1.947 E27.30539
G3 X3.110 Y-19.814 I1.095 J2.150 E27.36816
