;FLAVOR:Repetier
;TIME:3545
;MINX:-25.836
;MINY:-25.836
;MINZ:0.18
;MAXX:25.836
;MAXY:25.836
;MAXZ:12.3
;ARCWELDERPROCESSED
; Postprocessed by [ArcWelder](https://github.com/FormerLurker/ArcWelderLib)
; Copyright(C) 2020 - Brad Hochgesang
; resolution=0.05mm
; path_tolerance=1%
; max_radius=1000000.00mm
; firmware_compensation=True
; mm_per_arc_segment=1.00mm
; min_arc_segments=12
; default_xyz_precision=3
; default_e_precision=5

;Generated with Cura_SteamEngine 4.10.0
M82 ;absolute extrusion mode
G21
G90
M82
M107 T0
M190 S100.0
M109 S252 T0
G28
G92 E0
G0 E3 F200
G92 E0

G92 E0
G92 E0
G1 F4200 E-5
;LAYER_COUNT:45
;LAYER:0
M107
G1 F8400 Z2.18
G0 F7500 X23.648 Y9.793 Z2.18
;TYPE:SKIRT
G1 F8400 Z0.18
G1 F4200 E0.01663
G3 X23.208 Y11.357 I-4.076 J-0.303 E0.10036 F1200
G3 X22.171 Y13.045 I-6.608 J-2.897 E0.20221
G1 X21.826 Y13.37 E0.22649
G3 X21.147 Y14.849 I-3.968 J-0.926 E0.31036
G3 X19.454 Y16.659 I-5.652 J-3.590 E0.43815
G3 X17.976 Y18.562 I-5.680 J-2.886 E0.56249
G3 X16.629 Y19.459 I-2.819 J-2.774 E0.64588
G3 X15.520 Y20.660 I-3.525 J-2.142 E0.73012
G3 X13.828 Y21.691 I-4.550 J-5.564 E0.83197
G1 X13.378 Y21.822 E0.85598
G3 X12.102 Y22.829 I-3.122 J-2.644 E0.93974
G3 X9.770 Y23.675 I-3.412 J-5.769 E1.06766
G3 X7.592 Y24.699 I-3.756 J-5.162 E1.19187
G3 X5.948 Y24.911 I-1.473 J-4.943 E1.27714
G3 X3.632 Y25.583 I-2.902 J-5.673 E1.40160
G3 X2.012 Y25.517 I-0.653 J-3.893 E1.48515
G3 X0.414 Y25.836 I-1.581 J-3.757 E1.56913
G3 X-2.036 Y25.529 I-0.415 J-6.622 E1.69647
G3 X-4.452 Y25.453 I-1.012 J-6.284 E1.82123
G3 X-6.002 Y24.896 I0.867 J-4.846 E1.90598
G3 X-8.380 Y24.442 I-0.018 J-6.358 E2.03093
G3 X-9.791 Y23.649 I1.180 J-3.751 E2.11434
G3 X-11.360 Y23.207 I0.304 J-4.086 E2.19835
G3 X-13.047 Y22.169 I2.896 J-6.597 E2.30018
G1 X-13.369 Y21.827 E2.32424
G3 X-14.851 Y21.145 I0.931 J-3.974 E2.40831
G3 X-16.660 Y19.453 I3.616 J-5.679 E2.53602
G3 X-18.562 Y17.976 I2.881 J-5.673 E2.66030
G3 X-19.498 Y16.608 I3.941 J-3.701 E2.74555
G3 X-21.147 Y14.849 I3.737 J-5.156 E2.86998
G3 X-21.822 Y13.377 I3.170 J-2.344 E2.95342
G3 X-22.830 Y12.100 I2.651 J-3.129 E3.03727
G3 X-23.585 Y10.270 I6.212 J-3.634 E3.13904
G1 X-23.645 Y9.801 E3.16326
G3 X-24.442 Y8.381 I3.128 J-2.689 E3.24717
G3 X-24.913 Y5.945 I6.249 J-2.472 E3.37510
G3 X-25.583 Y3.632 I5.684 J-2.900 E3.49938
G3 X-25.517 Y2.012 I3.893 J-0.653 E3.58293
G3 X-25.836 Y0.414 I3.782 J-1.586 E3.66691
G3 X-25.529 Y-2.033 I6.606 J-0.414 E3.79410
G3 X-25.453 Y-4.452 I6.294 J-1.013 E3.91901
G3 X-24.896 Y-6.001 I4.819 J0.858 E4.00372
G3 X-24.443 Y-8.380 I6.352 J-0.023 E4.12872
G3 X-23.648 Y-9.793 I3.772 J1.192 E4.21227
G3 X-23.208 Y-11.357 I4.076 J0.303 E4.29600
G3 X-22.171 Y-13.045 I6.608 J2.897 E4.39785
G1 X-21.826 Y-13.37 E4.42213
G3 X-21.147 Y-14.849 I3.968 J0.926 E4.50599
G3 X-19.454 Y-16.659 I5.652 J3.590 E4.63378
G3 X-17.976 Y-18.562 I5.680 J2.886 E4.75813
G3 X-16.629 Y-19.459 I2.819 J2.774 E4.84152
G3 X-15.520 Y-20.660 I3.525 J2.142 E4.92575
G3 X-13.828 Y-21.691 I4.550 J5.564 E5.02761
G1 X-13.378 Y-21.822 E5.05162
G3 X-12.102 Y-22.829 I3.122 J2.644 E5.13538
G3 X-9.770 Y-23.675 I3.412 J5.769 E5.26330
G3 X-7.592 Y-24.699 I3.756 J5.162 E5.38750
G3 X-5.948 Y-24.911 I1.473 J4.943 E5.47278
G3 X-3.632 Y-25.583 I2.902 J5.673 E5.59724
G3 X-2.012 Y-25.517 I0.653 J3.893 E5.68079
G3 X-0.414 Y-25.836 I1.581 J3.757 E5.76477
G3 X2.036 Y-25.529 I0.415 J6.622 E5.89211
G3 X4.452 Y-25.453 I1.012 J6.284 E6.01686
G3 X6.002 Y-24.896 I-0.867 J4.846 E6.10161
G3 X8.380 Y-24.442 I0.018 J6.358 E6.22657
G3 X9.791 Y-23.649 I-1.180 J3.751 E6.30998
G3 X11.360 Y-23.207 I-0.304 J4.086 E6.39399
G3 X13.047 Y-22.169 I-2.896 J6.597 E6.49582
G1 X13.369 Y-21.827 E6.51988
G3 X14.851 Y-21.145 I-0.931 J3.974 E6.60395
G3 X16.660 Y-19.453 I-3.616 J5.679 E6.73166
G3 X18.562 Y-17.976 I-2.881 J5.673 E6.85594
G3 X19.498 Y-16.608 I-3.941 J3.701 E6.94118
G3 X21.147 Y-14.849 I-3.737 J5.156 E7.06561
G3 X21.822 Y-13.377 I-3.170 J2.344 E7.14906
G3 X22.830 Y-12.100 I-2.651 J3.129 E7.23290
G3 X23.585 Y-10.270 I-6.212 J3.634 E7.33468
G1 X23.645 Y-9.801 E7.3589
G3 X24.442 Y-8.381 I-3.128 J2.689 E7.44281
G3 X24.913 Y-5.945 I-6.249 J2.472 E7.57074
G3 X25.583 Y-3.632 I-5.684 J2.900 E7.69502
G3 X25.517 Y-2.013 I-3.883 J0.653 E7.77852
G3 X25.836 Y-0.414 I-3.795 J1.588 E7.86254
G3 X25.529 Y2.033 I-6.606 J0.414 E7.98973
G3 X25.453 Y4.452 I-6.294 J1.013 E8.11465
G3 X24.896 Y6.001 I-4.819 J-0.858 E8.19935
G3 X24.443 Y8.380 I-6.352 J0.023 E8.32435
G3 X23.648 Y9.793 I-3.772 J-1.192 E8.40790
G0 F7500 X23.095 Y9.578
G3 X22.708 Y11.103 I-3.519 J-0.081 E8.48911 F1200
G3 X21.708 Y12.719 I-5.929 J-2.551 E8.58686
G1 X21.313 Y13.073 E8.61403
G3 X20.693 Y14.519 I-3.483 J-0.638 E8.69524
G3 X19.452 Y15.959 I-5.459 J-3.450 E8.79301
G1 X19.006 Y16.246 E8.82017
G3 X18.166 Y17.578 I-3.317 J-1.161 E8.90146
G3 X16.714 Y18.805 I-4.830 J-4.243 E8.99924
G1 X16.23 Y19.018 E9.02632
G3 X15.190 Y20.206 I-3.092 J-1.658 E9.10783
G3 X13.564 Y21.189 I-4.092 J-4.932 E9.20556
G1 X13.055 Y21.324 E9.23253
G3 X11.847 Y22.330 I-2.788 J-2.120 E9.31368
G3 X10.089 Y23.050 I-3.296 J-5.540 E9.41139
G1 X9.558 Y23.104 E9.43873
G3 X8.208 Y23.909 I-2.440 J-2.557 E9.51986
G3 X6.357 Y24.344 I-2.376 J-5.955 E9.61766
G1 X5.827 Y24.315 E9.64485
G3 X4.364 Y24.899 I-2.002 J-2.891 E9.72616
G3 X2.468 Y25.039 I-1.418 J-6.291 E9.82395
G1 X1.951 Y24.927 E9.85104
G3 X0.414 Y25.275 I-1.524 J-3.164 E9.93239
G3 X-1.480 Y25.116 I-0.415 J-6.423 E10.03016
G1 X-1.972 Y24.925 E10.05719
G3 X-3.544 Y25.029 I-1.010 J-3.341 E10.13852
G3 X-5.391 Y24.575 I0.595 J-6.406 E10.23635
G1 X-5.848 Y24.309 E10.26343
G3 X-7.418 Y24.166 I-0.477 J-3.450 E10.34482
G3 X-9.170 Y23.428 I1.593 J-6.231 E10.44260
G1 X-9.577 Y23.095 E10.46954
G3 X-11.106 Y22.708 I0.079 J-3.525 E10.55095
G3 X-12.720 Y21.707 I2.539 J-5.895 E10.64864
G1 X-13.071 Y21.314 E10.67563
G3 X-14.521 Y20.691 I0.621 J-3.445 E10.75709
G3 X-15.959 Y19.449 I3.437 J-5.433 E10.85483
G1 X-16.244 Y19.006 E10.88181
G3 X-17.578 Y18.166 I1.157 J-3.317 E10.96319
G3 X-18.805 Y16.714 I4.243 J-4.830 E11.06097
G1 X-19.018 Y16.231 E11.088
G3 X-20.206 Y15.190 I1.668 J-3.102 E11.16954
G3 X-21.189 Y13.564 I4.932 J-4.092 E11.26728
G1 X-21.323 Y13.056 E11.29418
G3 X-22.331 Y11.845 I2.140 J-2.807 E11.37551
G3 X-23.049 Y10.088 I5.524 J-3.282 E11.47315
G1 X-23.103 Y9.559 E11.50038
G3 X-23.909 Y8.208 I2.530 J-2.425 E11.58158
G3 X-24.344 Y6.357 I5.955 J-2.376 E11.67939
G1 X-24.315 Y5.827 E11.70657
G3 X-24.899 Y4.364 I2.893 J-2.003 E11.78788
G3 X-25.039 Y2.468 I6.291 J-1.418 E11.88567
G1 X-24.927 Y1.95 E11.91281
G3 X-25.275 Y0.414 I3.164 J-1.524 E11.99411
G3 X-25.116 Y-1.479 I6.419 J-0.414 E12.09183
G1 X-24.925 Y-1.972 E12.1189
G3 X-25.029 Y-3.544 I3.337 J-1.010 E12.20024
G3 X-24.575 Y-5.391 I6.406 J0.595 E12.29807
G1 X-24.31 Y-5.847 E12.32508
G3 X-24.166 Y-7.416 I3.454 J-0.474 E12.40642
G3 X-23.429 Y-9.170 I6.272 J1.604 E12.50428
G1 X-23.095 Y-9.578 E12.53128
G3 X-22.708 Y-11.103 I3.519 J0.081 E12.61250
G3 X-21.708 Y-12.719 I5.929 J2.551 E12.71025
G1 X-21.313 Y-13.073 E12.73741
G3 X-20.693 Y-14.519 I3.483 J0.638 E12.81862
G3 X-19.452 Y-15.959 I5.459 J3.450 E12.91639
G1 X-19.006 Y-16.246 E12.94356
G3 X-18.166 Y-17.578 I3.317 J1.161 E13.02484
G3 X-16.714 Y-18.805 I4.830 J4.243 E13.12262
G1 X-16.23 Y-19.018 E13.1497
G3 X-15.190 Y-20.206 I3.092 J1.658 E13.23121
G3 X-13.564 Y-21.189 I4.092 J4.932 E13.32895
G1 X-13.055 Y-21.324 E13.35592
G3 X-11.847 Y-22.330 I2.788 J2.120 E13.43706
G3 X-10.089 Y-23.050 I3.296 J5.540 E13.53477
G1 X-9.558 Y-23.104 E13.56211
G3 X-8.208 Y-23.909 I2.440 J2.557 E13.64324
G3 X-6.357 Y-24.344 I2.376 J5.955 E13.74104
G1 X-5.827 Y-24.315 E13.76823
G3 X-4.364 Y-24.899 I2.002 J2.891 E13.84954
G3 X-2.468 Y-25.039 I1.418 J6.291 E13.94733
G1 X-1.951 Y-24.927 E13.97443
G3 X-0.414 Y-25.275 I1.524 J3.164 E14.05578
G3 X1.480 Y-25.116 I0.415 J6.423 E14.15354
G1 X1.972 Y-24.925 E14.18057
G3 X3.544 Y-25.029 I1.010 J3.341 E14.26190
G3 X5.391 Y-24.575 I-0.595 J6.406 E14.35973
G1 X5.848 Y-24.309 E14.38681
G3 X7.418 Y-24.166 I0.477 J3.450 E14.46820
G3 X9.170 Y-23.428 I-1.593 J6.231 E14.56599
G1 X9.577 Y-23.095 E14.59292
G3 X11.106 Y-22.708 I-0.079 J3.525 E14.67433
G3 X12.720 Y-21.707 I-2.539 J5.895 E14.77202
G1 X13.071 Y-21.314 E14.79901
G3 X14.521 Y-20.691 I-0.621 J3.445 E14.88047
G3 X15.959 Y-19.449 I-3.437 J5.433 E14.97821
G1 X16.244 Y-19.006 E15.00519
G3 X17.578 Y-18.166 I-1.157 J3.317 E15.08657
G3 X18.805 Y-16.714 I-4.243 J4.830 E15.18435
G1 X19.018 Y-16.231 E15.21139
G3 X20.206 Y-15.190 I-1.668 J3.102 E15.29293
G3 X21.189 Y-13.564 I-4.932 J4.092 E15.39066
G1 X21.323 Y-13.056 E15.41757
G3 X22.331 Y-11.845 I-2.140 J2.807 E15.49890
G3 X23.049 Y-10.088 I-5.524 J3.282 E15.59653
G1 X23.103 Y-9.559 E15.62376
G3 X23.909 Y-8.208 I-2.530 J2.425 E15.70497
G3 X24.344 Y-6.357 I-5.955 J2.376 E15.80277
G1 X24.315 Y-5.827 E15.82996
G3 X24.899 Y-4.364 I-2.893 J2.003 E15.91126
G3 X25.039 Y-2.468 I-6.291 J1.418 E16.00905
G1 X24.927 Y-1.95 E16.0362
G3 X25.275 Y-0.414 I-3.164 J1.524 E16.11750
G3 X25.116 Y1.479 I-6.419 J0.414 E16.21521
G1 X24.925 Y1.972 E16.24229
G3 X25.029 Y3.544 I-3.337 J1.010 E16.32362
G3 X24.575 Y5.391 I-6.406 J-0.595 E16.42145
G1 X24.31 Y5.847 E16.44846
G3 X24.166 Y7.416 I-3.454 J0.474 E16.52980
G3 X23.429 Y9.170 I-6.272 J-1.604 E16.62766
G1 X23.095 Y9.578 E16.65467
G0 F7500 X22.54 Y9.599
G1 F1200 X22.476 Y10.091 E16.68008
G3 X21.248 Y12.386 I-5.635 J-1.539 E16.81453 F1200
G1 X20.795 Y12.748 E16.84423
G3 X20.621 Y13.485 I-2.339 J-0.163 E16.88313
G3 X19.049 Y15.558 I-5.286 J-2.376 E17.01754
G1 X18.545 Y15.845 E17.04725
G3 X17.982 Y16.945 I-2.806 J-0.742 E17.11100
G3 X16.379 Y18.347 I-4.770 J-3.836 E17.22067
G1 X15.838 Y18.55 E17.25027
G3 X15.109 Y19.551 I-2.668 J-1.177 E17.31415
G3 X13.306 Y20.684 I-4.082 J-4.495 E17.42382
G1 X12.74 Y20.8 E17.45342
G3 X12.254 Y21.375 I-2.009 J-1.205 E17.49209
G3 X9.912 Y22.510 I-3.650 J-4.549 E17.62653
G1 X9.33 Y22.537 E17.65637
G3 X8.329 Y23.262 I-2.164 J-1.935 E17.72014
G3 X6.267 Y23.784 I-2.509 J-5.579 E17.82968
G1 X5.689 Y23.719 E17.85947
G3 X4.589 Y24.278 I-1.827 J-2.234 E17.92314
G3 X2.466 Y24.471 I-1.604 J-5.866 E18.03293
G1 X1.907 Y24.317 E18.06262
G3 X0.722 Y24.699 I-1.457 J-2.489 E18.12687
G3 X-1.392 Y24.555 I-0.649 J-6.067 E18.23599
G1 X-1.919 Y24.317 E18.26561
G3 X-3.134 Y24.509 I-1.048 J-2.693 E18.32906
G3 X-5.216 Y24.035 I0.292 J-6.093 E18.43903
G1 X-5.699 Y23.717 E18.46865
G3 X-6.927 Y23.717 I-0.614 J-2.842 E18.53200
G3 X-8.912 Y22.922 I1.243 J-5.980 E18.64213
G1 X-9.339 Y22.532 E18.67175
G3 X-10.090 Y22.477 I-0.203 J-2.381 E18.71042
G3 X-12.387 Y21.247 I1.523 J-5.604 E18.84503
G1 X-12.748 Y20.795 E18.87466
G3 X-13.928 Y20.409 I0.294 J-2.897 E18.93871
G3 X-15.558 Y19.047 I3.043 J-5.298 E19.04810
G1 X-15.844 Y18.545 E19.0777
G3 X-16.946 Y17.982 I0.735 J-2.798 E19.14154
G3 X-18.347 Y16.379 I3.853 J-4.781 E19.25118
G1 X-18.55 Y15.838 E19.28078
G3 X-19.550 Y15.110 I1.171 J-2.660 E19.34459
G3 X-20.684 Y13.306 I4.492 J-4.082 E19.45433
G1 X-20.8 Y12.739 E19.48398
G3 X-21.375 Y12.253 I1.205 J-2.009 E19.52265
G3 X-22.510 Y9.911 I4.549 J-3.650 E19.65709
G1 X-22.536 Y9.331 E19.68682
G3 X-23.264 Y8.326 I1.948 J-2.177 E19.75085
G3 X-23.784 Y6.267 I5.599 J-2.509 E19.86021
G1 X-23.719 Y5.689 E19.89
G3 X-24.279 Y4.587 I2.258 J-1.841 E19.95378
G3 X-24.471 Y2.466 I5.880 J-1.601 E20.06346
G1 X-24.317 Y1.907 E20.09316
G3 X-24.610 Y1.209 I1.967 J-1.236 E20.13205
G3 X-24.555 Y-1.391 I5.699 J-1.180 E20.26639
G1 X-24.317 Y-1.918 E20.296
G3 X-24.509 Y-3.132 I2.732 J-1.054 E20.35941
G3 X-24.035 Y-5.216 I6.090 J0.289 E20.46948
G1 X-23.717 Y-5.7 E20.49914
G3 X-23.717 Y-6.927 I2.793 J-0.614 E20.56245
G3 X-22.922 Y-8.913 I5.942 J1.226 E20.67263
G1 X-22.532 Y-9.34 E20.70225
G3 X-22.476 Y-10.091 I2.351 J-0.202 E20.74094
G3 X-21.248 Y-12.386 I5.635 J1.539 E20.87539
G1 X-20.795 Y-12.748 E20.90509
G3 X-20.621 Y-13.485 I2.339 J0.163 E20.94399
G3 X-19.049 Y-15.558 I5.286 J2.376 E21.07840
G1 X-18.545 Y-15.845 E21.1081
G3 X-17.982 Y-16.945 I2.806 J0.742 E21.17185
G3 X-16.379 Y-18.347 I4.770 J3.836 E21.28153
G1 X-15.838 Y-18.55 E21.31112
G3 X-15.109 Y-19.551 I2.668 J1.177 E21.37501
G3 X-13.306 Y-20.684 I4.082 J4.495 E21.48468
G1 X-12.74 Y-20.8 E21.51427
G3 X-12.254 Y-21.375 I2.009 J1.205 E21.55295
G3 X-9.912 Y-22.510 I3.650 J4.549 E21.68739
G1 X-9.33 Y-22.537 E21.71723
G3 X-8.329 Y-23.262 I2.164 J1.935 E21.78100
G3 X-6.267 Y-23.784 I2.509 J5.579 E21.89054
G1 X-5.689 Y-23.719 E21.92033
G3 X-4.589 Y-24.278 I1.827 J2.234 E21.98399
G3 X-2.466 Y-24.471 I1.604 J5.866 E22.09378
G1 X-1.907 Y-24.317 E22.12348
G3 X-0.722 Y-24.699 I1.457 J2.489 E22.18773
G3 X1.392 Y-24.555 I0.649 J6.067 E22.29685
G1 X1.919 Y-24.317 E22.32646
G3 X3.134 Y-24.509 I1.048 J2.693 E22.38992
G3 X5.216 Y-24.035 I-0.292 J6.093 E22.49989
G1 X5.699 Y-23.717 E22.52951
G3 X6.927 Y-23.717 I0.614 J2.842 E22.59286
G3 X8.912 Y-22.922 I-1.243 J5.980 E22.70298
G1 X9.339 Y-22.532 E22.7326
G3 X10.090 Y-22.477 I0.203 J2.381 E22.77128
G3 X12.387 Y-21.247 I-1.523 J5.604 E22.90589
G1 X12.748 Y-20.795 E22.93551
G3 X13.928 Y-20.409 I-0.294 J2.897 E22.99957
G3 X15.558 Y-19.047 I-3.043 J5.298 E23.10896
G1 X15.844 Y-18.545 E23.13855
G3 X16.946 Y-17.982 I-0.735 J2.798 E23.20240
G3 X18.347 Y-16.379 I-3.853 J4.781 E23.31204
G1 X18.55 Y-15.838 E23.34163
G3 X19.550 Y-15.110 I-1.171 J2.660 E23.40545
G3 X20.684 Y-13.306 I-4.492 J4.082 E23.51519
G1 X20.8 Y-12.739 E23.54483
G3 X21.375 Y-12.253 I-1.205 J2.009 E23.58351
G3 X22.510 Y-9.911 I-4.549 J3.650 E23.71794
G1 X22.536 Y-9.331 E23.74768
G3 X23.264 Y-8.326 I-1.948 J2.177 E23.81170
G3 X23.784 Y-6.267 I-5.599 J2.509 E23.92107
G1 X23.719 Y-5.689 E23.95086
G3 X24.279 Y-4.587 I-2.258 J1.841 E24.01464
G3 X24.471 Y-2.466 I-5.880 J1.601 E24.12432
G1 X24.317 Y-1.907 E24.15402
G3 X24.610 Y-1.209 I-1.967 J1.236 E24.19291
G3 X24.555 Y1.391 I-5.699 J1.180 E24.32725
G1 X24.317 Y1.918 E24.35686
G3 X24.509 Y3.132 I-2.732 J1.054 E24.42026
G3 X24.035 Y5.216 I-6.090 J-0.289 E24.53034
G1 X23.717 Y5.7 E24.56
G3 X23.717 Y6.927 I-2.793 J0.614 E24.62331
G3 X22.922 Y8.913 I-5.942 J-1.226 E24.73349
G1 X22.532 Y9.34 E24.76311
G1 X22.54 Y9.599 E24.77638
G0 F7500 X22.419 Y8.647
G1 F1200 X21.948 Y9.092 E24.80957
G3 X21.874 Y10.182 I-2.321 J0.390 E24.86590 F1200
G3 X20.792 Y12.046 I-4.955 J-1.630 E24.97711
G1 X20.256 Y12.412 E25.01036
G3 X20.012 Y13.481 I-2.352 J0.026 E25.06690
G3 X18.652 Y15.151 I-4.622 J-2.375 E25.17803
G1 X18.065 Y15.429 E25.2113
G3 X17.662 Y16.438 I-2.327 J-0.345 E25.26732
G3 X16.051 Y17.882 I-4.224 J-3.091 E25.37895
G3 X15.429 Y18.064 I-0.807 J-1.605 E25.41226
G3 X14.872 Y19.000 I-2.249 J-0.705 E25.46842
G3 X13.055 Y20.173 I-3.652 J-3.663 E25.58003
G1 X12.413 Y20.256 E25.61319
G3 X11.713 Y21.095 I-2.126 J-1.063 E25.66952
G3 X9.743 Y21.967 I-3.038 J-4.203 E25.78068
G3 X9.091 Y21.948 I-0.273 J-1.819 E25.81420
G3 X8.274 Y22.665 I-1.915 J-1.358 E25.87025
G3 X6.185 Y23.221 I-2.353 J-4.637 E25.98180
G3 X5.546 Y23.101 I0.011 J-1.819 E26.01521
G3 X4.628 Y23.680 I-1.692 J-1.665 E26.07116
G3 X2.474 Y23.902 I-1.597 J-4.936 E26.18291
G1 X1.863 Y23.684 E26.21613
G3 X0.856 Y24.114 I-1.400 J-1.885 E26.27259
G3 X-1.295 Y23.995 I-0.794 J-5.147 E26.38375
G1 X-1.863 Y23.684 E26.41692
G3 X-2.913 Y23.951 I-1.087 J-2.076 E26.47278
G3 X-5.033 Y23.497 I0.005 J-5.200 E26.58466
G1 X-5.546 Y23.101 E26.61785
G3 X-6.622 Y23.201 I-0.752 J-2.251 E26.67356
G3 X-8.647 Y22.419 I0.820 J-5.137 E26.78558
G1 X-9.091 Y21.947 E26.81877
G3 X-10.182 Y21.875 I-0.394 J-2.333 E26.87526
G3 X-12.047 Y20.791 I1.628 J-4.947 E26.98657
G1 X-12.412 Y20.256 E27.01974
G3 X-13.476 Y20.014 I-0.024 J-2.356 E27.07600
G3 X-15.151 Y18.651 I2.378 J-4.633 E27.18743
G1 X-15.428 Y18.065 E27.22063
G3 X-16.438 Y17.662 I0.342 J-2.325 E27.27669
G3 X-17.882 Y16.051 I3.091 J-4.224 E27.38833
G3 X-18.064 Y15.429 I1.605 J-0.807 E27.42164
G3 X-18.999 Y14.873 I0.710 J-2.258 E27.47772
G3 X-20.173 Y13.055 I3.662 J-3.653 E27.58940
G1 X-20.256 Y12.413 E27.62256
G3 X-21.095 Y11.712 I1.055 J-2.115 E27.67893
G3 X-21.966 Y9.742 I4.219 J-3.043 E27.79008
G3 X-21.947 Y9.092 I1.805 J-0.273 E27.82350
G3 X-22.666 Y8.271 I1.361 J-1.917 E27.87989
G3 X-23.221 Y6.185 I4.629 J-2.348 E27.99127
G3 X-23.101 Y5.546 I1.819 J0.011 E28.02469
