;FLAVOR:Repetier
;TIME:5122
;MINX:-30.806
;MINY:-30.773
;MINZ:0.18
;MAXX:30.806
;MAXY:30.773
;MAXZ:12.07
;ARCWELDERPROCESSED
; Postprocessed by [ArcWelder](https://github.com/FormerLurker/ArcWelderLib)
; Copyright(C) 2020 - Brad Hochgesang
; resolution=0.05mm
; path_tolerance=1%
; max_radius=1000000.00mm
; firmware_compensation=True
; mm_per_arc_segment=1.00mm
; min_arc_segments=12
; default_xyz_precision=3
; default_e_precision=5

;Generated with Cura_SteamEngine 4.10.0
M82 ;absolute extrusion mode
G21
G90
M82
M107 T0
M190 S100.0
M109 S252 T0
G28
G92 E0
G0 E3 F200
G92 E0

G92 E0
G92 E0
G1 F4200 E-5
;LAYER_COUNT:44
;LAYER:0
M107
G1 F8400 Z2.18
G0 F7500 X17.97 Y-24.745 Z2.18
;TYPE:SKIRT
G1 F8400 Z0.18
G1 F4200 E0.01663
G3 X19.960 Y-23.470 I-2.365 J5.882 E0.13860 F1200
G3 X20.932 Y-22.296 I-2.301 J2.895 E0.21711
G3 X22.743 Y-20.784 I-3.107 J5.562 E0.33886
G3 X23.562 Y-19.497 I-2.625 J2.574 E0.41745
G3 X25.173 Y-17.762 I-3.760 J5.107 E0.53965
G3 X25.819 Y-16.392 I-2.968 J2.237 E0.61767
G3 X27.200 Y-14.468 I-4.391 J4.610 E0.73990
G3 X27.669 Y-13.027 I-3.195 J1.837 E0.81796
G3 X28.799 Y-10.946 I-4.930 J4.024 E0.94016
G3 X29.084 Y-9.455 I-3.370 J1.417 E1.01837
G3 X29.734 Y-8.069 I-3.279 J2.383 E1.09722
G3 X30.075 Y-6.101 I-6.942 J2.216 E1.19989
G1 X30.04 Y-5.735 E1.21873
G3 X30.616 Y-3.438 I-5.762 J2.666 E1.34095
G3 X30.521 Y-1.926 I-3.617 J0.532 E1.41900
G3 X30.806 Y0.423 I-6.056 J1.926 E1.54111
G3 X30.522 Y1.917 I-3.699 J0.071 E1.61945
G3 X30.511 Y4.276 I-6.257 J1.150 E1.74119
G3 X30.042 Y5.726 I-3.682 J-0.390 E1.81970
G3 X29.734 Y8.070 I-6.354 J0.357 E1.94171
G3 X29.087 Y9.449 I-3.640 J-0.867 E2.02018
G3 X28.488 Y11.732 I-6.342 J-0.444 E2.14198
G3 X27.675 Y13.016 I-3.494 J-1.313 E2.22027
G3 X26.791 Y15.214 I-6.233 J-1.230 E2.34254
G3 X25.823 Y16.384 I-3.261 J-1.712 E2.42076
G3 X24.677 Y18.447 I-6.015 J-1.991 E2.54255
G3 X23.569 Y19.489 I-3.023 J-2.104 E2.62089
G3 X22.740 Y20.788 I-3.757 J-1.483 E2.70027
G3 X21.260 Y22.127 I-5.591 J-4.692 E2.80287
G1 X20.937 Y22.291 E2.82142
G3 X19.312 Y24.005 I-5.338 J-3.433 E2.94331
G3 X17.977 Y24.740 I-2.424 J-2.822 E3.02182
G3 X16.158 Y26.232 I-4.883 J-4.098 E3.14322
G3 X14.738 Y26.797 I-2.044 J-3.069 E3.22196
G3 X12.735 Y28.054 I-4.320 J-4.659 E3.34400
G3 X11.261 Y28.434 I-1.637 J-3.301 E3.42242
G3 X9.119 Y29.429 I-3.698 J-5.157 E3.54430
G3 X7.610 Y29.621 I-1.214 J-3.513 E3.62266
G3 X5.356 Y30.340 I-3.025 J-5.591 E3.74476
G3 X3.840 Y30.341 I-0.760 J-3.606 E3.82285
G3 X1.507 Y30.772 I-2.302 J-5.934 E3.94529
G3 X0.005 Y30.582 I-0.303 J-3.636 E4.02329
G3 X-2.350 Y30.720 I-1.543 J-6.167 E4.14502
G3 X-3.832 Y30.342 I0.167 J-3.748 E4.22381
G3 X-6.186 Y30.182 I-0.754 J-6.307 E4.34557
G3 X-7.603 Y29.622 I0.633 J-3.675 E4.42405
G3 X-9.919 Y29.169 I0.038 J-6.342 E4.54585
G3 X-11.255 Y28.436 I1.083 J-3.558 E4.62435
G3 X-13.499 Y27.694 I0.838 J-6.298 E4.74633
G3 X-14.728 Y26.803 I1.494 J-3.354 E4.82453
G3 X-16.872 Y25.777 I1.620 J-6.137 E4.94720
G3 X-17.970 Y24.745 I1.909 J-3.132 E5.02482
G3 X-19.960 Y23.470 I2.365 J-5.882 E5.14679
G3 X-20.932 Y22.296 I2.301 J-2.895 E5.22530
G3 X-22.743 Y20.784 I3.107 J-5.562 E5.34705
G3 X-23.562 Y19.497 I2.625 J-2.574 E5.42563
G3 X-25.173 Y17.762 I3.760 J-5.107 E5.54784
G3 X-25.819 Y16.392 I2.968 J-2.237 E5.62586
G3 X-27.200 Y14.468 I4.391 J-4.610 E5.74808
G3 X-27.669 Y13.027 I3.195 J-1.837 E5.82614
G3 X-28.799 Y10.946 I4.930 J-4.024 E5.94835
G3 X-29.084 Y9.455 I3.370 J-1.417 E6.02656
G3 X-29.734 Y8.069 I3.279 J-2.383 E6.10541
G3 X-30.075 Y6.101 I6.942 J-2.216 E6.20808
G1 X-30.04 Y5.735 E6.22691
G3 X-30.616 Y3.438 I5.762 J-2.666 E6.34914
G3 X-30.521 Y1.926 I3.617 J-0.532 E6.42718
G3 X-30.806 Y-0.423 I6.056 J-1.926 E6.54930
G3 X-30.522 Y-1.917 I3.699 J-0.071 E6.62764
G3 X-30.511 Y-4.276 I6.257 J-1.150 E6.74938
G3 X-30.042 Y-5.726 I3.682 J0.390 E6.82789
G3 X-29.734 Y-8.070 I6.354 J-0.357 E6.94990
G3 X-29.087 Y-9.449 I3.640 J0.867 E7.02836
G3 X-28.488 Y-11.732 I6.342 J0.444 E7.15017
G3 X-27.675 Y-13.016 I3.494 J1.313 E7.22845
G3 X-26.791 Y-15.214 I6.233 J1.230 E7.35072
G3 X-25.823 Y-16.384 I3.261 J1.712 E7.42895
G3 X-24.677 Y-18.447 I6.015 J1.991 E7.55073
G3 X-23.569 Y-19.489 I3.023 J2.104 E7.62908
G3 X-22.740 Y-20.788 I3.757 J1.483 E7.70846
G3 X-21.260 Y-22.127 I5.591 J4.692 E7.81105
G1 X-20.937 Y-22.291 E7.82961
G3 X-19.312 Y-24.005 I5.338 J3.433 E7.95150
G3 X-17.977 Y-24.740 I2.424 J2.822 E8.03001
G3 X-16.158 Y-26.232 I4.883 J4.098 E8.15141
G3 X-14.738 Y-26.797 I2.044 J3.069 E8.23014
G3 X-12.735 Y-28.054 I4.320 J4.659 E8.35219
G3 X-11.261 Y-28.434 I1.637 J3.301 E8.43060
G3 X-9.119 Y-29.429 I3.698 J5.157 E8.55249
G3 X-7.610 Y-29.621 I1.214 J3.513 E8.63085
G3 X-5.356 Y-30.340 I3.025 J5.591 E8.75294
G3 X-3.840 Y-30.341 I0.760 J3.606 E8.83104
G3 X-1.507 Y-30.772 I2.302 J5.934 E8.95348
G3 X-0.005 Y-30.582 I0.303 J3.636 E9.03147
G3 X2.351 Y-30.720 I1.544 J6.173 E9.15326
G3 X3.832 Y-30.342 I-0.162 J3.727 E9.23200
G3 X6.186 Y-30.182 I0.754 J6.307 E9.35376
G3 X7.603 Y-29.622 I-0.633 J3.675 E9.43225
G3 X9.919 Y-29.169 I-0.038 J6.342 E9.55404
G3 X11.255 Y-28.436 I-1.083 J3.558 E9.63254
G3 X13.499 Y-27.694 I-0.838 J6.298 E9.75452
G3 X14.728 Y-26.803 I-1.494 J3.354 E9.83272
G3 X16.872 Y-25.777 I-1.620 J6.137 E9.95539
G3 X17.970 Y-24.745 I-1.909 J3.132 E10.03301
G0 F7500 X17.862 Y-24.196
G3 X20.322 Y-22.236 I-2.592 J5.777 E10.19603 F1200
G1 X20.533 Y-21.858 E10.2182
G3 X21.755 Y-21.015 I-1.289 J3.176 E10.29479
G3 X22.949 Y-19.516 I-4.450 J4.770 E10.39336
G1 X23.111 Y-19.113 E10.41561
G3 X24.224 Y-18.116 I-1.685 J3.001 E10.49269
G3 X25.215 Y-16.478 I-4.993 J4.140 E10.59117
G1 X25.323 Y-16.067 E10.61294
G3 X26.302 Y-14.938 I-2.026 J2.746 E10.69004
G3 X27.081 Y-13.188 I-5.478 J3.487 E10.78857
G1 X27.137 Y-12.766 E10.81037
G3 X27.966 Y-11.526 I-2.385 J2.492 E10.88732
G3 X28.521 Y-9.691 I-5.867 J2.776 E10.98593
G1 X28.524 Y-9.263 E11.00785
G3 X29.191 Y-7.930 I-2.683 J2.176 E11.08475
G3 X29.511 Y-6.040 I-6.150 J2.013 E11.18335
G1 X29.46 Y-5.615 E11.20527
G3 X29.955 Y-4.206 I-2.901 J1.811 E11.28232
G3 X30.034 Y-2.292 I-6.344 J1.220 E11.38086
G1 X29.931 Y-1.879 E11.40266
G3 X30.245 Y-0.422 I-3.117 J1.434 E11.47955
G3 X30.086 Y1.488 I-6.476 J0.423 E11.57814
G1 X29.93 Y1.89 E11.60022
G3 X30.060 Y3.369 I-3.278 J1.033 E11.67682
G3 X29.664 Y5.243 I-6.449 J-0.384 E11.77534
G1 X29.459 Y5.624 E11.7975
G3 X29.401 Y7.112 I-3.413 J0.612 E11.87432
G3 X28.772 Y8.923 I-6.361 J-1.195 E11.97292
G1 X28.521 Y9.274 E11.99503
G3 X28.277 Y10.740 I-3.447 J0.180 E12.07169
G3 X27.427 Y12.457 I-6.182 J-1.992 E12.17024
G1 X27.135 Y12.772 E12.19224
G3 X26.708 Y14.202 I-3.417 J-0.242 E12.26923
G3 X25.647 Y15.799 I-5.873 J-2.751 E12.36785
G1 X25.319 Y16.074 E12.38977
G3 X24.718 Y17.435 I-3.376 J-0.677 E12.46653
G3 X23.468 Y18.886 I-5.479 J-3.456 E12.56503
G1 X23.106 Y19.119 E12.58708
G3 X22.332 Y20.403 I-3.265 J-1.093 E12.66444
G3 X20.907 Y21.683 I-5.011 J-4.145 E12.76296
G1 X20.525 Y21.865 E12.78463
G3 X19.604 Y23.034 I-3.095 J-1.491 E12.86141
G3 X18.033 Y24.129 I-4.471 J-4.740 E12.95991
G1 X17.622 Y24.266 E12.9821
G3 X16.569 Y25.305 I-2.866 J-1.851 E13.05841
G3 X14.874 Y26.198 I-3.850 J-5.253 E13.15695
G1 X14.445 Y26.283 E13.17935
G3 X13.261 Y27.187 I-2.628 J-2.215 E13.25620
G3 X11.465 Y27.856 I-3.132 J-5.662 E13.35478
G1 X11.035 Y27.886 E13.37686
G3 X9.748 Y28.634 I-2.332 J-2.532 E13.45366
G3 X7.884 Y29.073 I-2.404 J-6.030 E13.55216
G1 X7.454 Y29.049 E13.57422
G3 X6.081 Y29.631 I-1.993 J-2.791 E13.65116
G3 X4.175 Y29.832 I-1.626 J-6.284 E13.74974
G1 X3.754 Y29.754 E13.77167
G3 X2.316 Y30.160 I-1.629 J-3.020 E13.84876
G3 X0.400 Y30.119 I-0.821 J-6.443 E13.94733
G1 X-0.004 Y29.99 E13.96905
G3 X-1.473 Y30.212 I-1.237 J-3.216 E14.04569
G3 X-3.369 Y29.936 I-0.022 J-6.497 E14.14424
G1 X-3.765 Y29.753 E14.16659
G3 X-5.251 Y29.789 I-0.824 J-3.338 E14.24327
G3 X-7.097 Y29.275 I0.790 J-6.409 E14.34184
G1 X-7.462 Y29.047 E14.36388
G3 X-8.941 Y28.896 I-0.400 J-3.404 E14.44058
G3 X-10.710 Y28.156 I1.604 J-6.318 E14.53921
G1 X-11.045 Y27.883 E14.56134
G3 X-12.495 Y27.547 I0.037 J-3.454 E14.63812
G3 X-14.156 Y26.590 I2.381 J-6.053 E14.73672
G1 X-14.451 Y26.28 E14.75864
G3 X-15.857 Y25.759 I0.471 J-3.429 E14.83599
G3 X-17.382 Y24.598 I3.140 J-5.706 E14.93457
G1 X-17.629 Y24.261 E14.95598
G3 X-18.951 Y23.575 I0.886 J-3.324 E15.03281
G3 X-20.322 Y22.236 I3.806 J-5.269 E15.13139
G1 X-20.533 Y21.858 E15.15356
G3 X-21.755 Y21.015 I1.289 J-3.176 E15.23014
G3 X-22.949 Y19.516 I4.450 J-4.770 E15.32872
G1 X-23.111 Y19.113 E15.35096
G3 X-24.224 Y18.116 I1.685 J-3.001 E15.42805
G3 X-25.215 Y16.478 I4.993 J-4.140 E15.52653
G1 X-25.323 Y16.067 E15.54829
G3 X-26.302 Y14.938 I2.026 J-2.746 E15.62539
G3 X-27.081 Y13.188 I5.478 J-3.487 E15.72392
G1 X-27.137 Y12.766 E15.74572
G3 X-27.966 Y11.526 I2.385 J-2.492 E15.82267
G3 X-28.521 Y9.691 I5.867 J-2.776 E15.92129
G1 X-28.524 Y9.263 E15.94321
G3 X-29.191 Y7.930 I2.683 J-2.176 E16.02010
G3 X-29.511 Y6.040 I6.150 J-2.013 E16.11870
G1 X-29.46 Y5.615 E16.14063
G3 X-29.955 Y4.206 I2.901 J-1.811 E16.21768
G3 X-30.034 Y2.292 I6.344 J-1.220 E16.31621
G1 X-29.931 Y1.879 E16.33801
G3 X-30.245 Y0.422 I3.117 J-1.434 E16.41491
G3 X-30.086 Y-1.488 I6.476 J-0.423 E16.51349
G1 X-29.93 Y-1.89 E16.53558
G3 X-30.060 Y-3.369 I3.278 J-1.033 E16.61218
G3 X-29.664 Y-5.243 I6.449 J0.384 E16.71070
G1 X-29.459 Y-5.624 E16.73286
G3 X-29.401 Y-7.112 I3.413 J-0.612 E16.80967
G3 X-28.772 Y-8.923 I6.361 J1.195 E16.90828
G1 X-28.521 Y-9.274 E16.93038
G3 X-28.277 Y-10.740 I3.447 J-0.180 E17.00705
G3 X-27.427 Y-12.457 I6.182 J1.992 E17.10560
G1 X-27.135 Y-12.772 E17.1276
G3 X-26.708 Y-14.202 I3.417 J0.242 E17.20459
G3 X-25.647 Y-15.799 I5.873 J2.751 E17.30321
G1 X-25.319 Y-16.074 E17.32513
G3 X-24.718 Y-17.435 I3.376 J0.677 E17.40188
G3 X-23.468 Y-18.886 I5.479 J3.456 E17.50039
G1 X-23.106 Y-19.119 E17.52244
G3 X-22.332 Y-20.403 I3.265 J1.093 E17.59979
G3 X-20.907 Y-21.683 I5.011 J4.145 E17.69831
G1 X-20.525 Y-21.865 E17.71999
G3 X-19.604 Y-23.034 I3.095 J1.491 E17.79677
G3 X-18.033 Y-24.129 I4.471 J4.740 E17.89526
G1 X-17.622 Y-24.266 E17.91745
G3 X-16.569 Y-25.305 I2.866 J1.851 E17.99377
G3 X-14.874 Y-26.198 I3.850 J5.253 E18.09231
G1 X-14.445 Y-26.283 E18.11471
G3 X-13.261 Y-27.187 I2.628 J2.215 E18.19155
G3 X-11.465 Y-27.856 I3.132 J5.662 E18.29014
G1 X-11.035 Y-27.886 E18.31222
G3 X-9.748 Y-28.634 I2.332 J2.532 E18.38901
G3 X-7.884 Y-29.073 I2.404 J6.030 E18.48752
G1 X-7.454 Y-29.049 E18.50958
G3 X-6.081 Y-29.631 I1.993 J2.791 E18.58651
G3 X-4.175 Y-29.832 I1.626 J6.284 E18.68509
G1 X-3.754 Y-29.754 E18.70702
G3 X-2.316 Y-30.160 I1.629 J3.020 E18.78411
G3 X-0.400 Y-30.119 I0.821 J6.443 E18.88269
G1 X0.004 Y-29.99 E18.90441
G3 X1.472 Y-30.212 I1.237 J3.215 E18.98100
G3 X3.369 Y-29.936 I0.023 J6.497 E19.07960
G1 X3.766 Y-29.753 E19.10199
G3 X5.251 Y-29.789 I0.824 J3.333 E19.17863
G3 X7.097 Y-29.275 I-0.790 J6.409 E19.27720
G1 X7.462 Y-29.047 E19.29924
G3 X8.941 Y-28.896 I0.400 J3.404 E19.37593
G3 X10.710 Y-28.156 I-1.604 J6.318 E19.47456
G1 X11.045 Y-27.883 E19.4967
G3 X12.495 Y-27.547 I-0.037 J3.454 E19.57347
G3 X14.156 Y-26.590 I-2.381 J6.053 E19.67208
G1 X14.451 Y-26.28 E19.694
G3 X15.857 Y-25.759 I-0.471 J3.429 E19.77135
G3 X17.382 Y-24.598 I-3.140 J5.706 E19.86993
G1 X17.629 Y-24.261 E19.89133
G1 X17.862 Y-24.196 E19.90372
G0 F7500 X17.006 Y-24.172
G1 F1200 X17.279 Y-23.773 E19.92848
G3 X18.594 Y-23.143 I-0.604 J2.948 E20.00384 F1200
G3 X19.897 Y-21.860 I-3.293 J4.647 E20.09797
G1 X20.125 Y-21.418 E20.12345
G3 X21.347 Y-20.630 I-0.973 J2.851 E20.19859
G3 X22.480 Y-19.195 I-3.849 J4.204 E20.29271
G1 X22.651 Y-18.728 E20.31818
G3 X23.770 Y-17.787 I-1.323 J2.709 E20.39375
G3 X24.710 Y-16.220 I-4.361 J3.681 E20.48781
G1 X24.819 Y-15.742 E20.51292
G3 X25.811 Y-14.668 I-1.640 J2.510 E20.58848
G3 X26.547 Y-12.996 I-4.763 J3.095 E20.68252
G1 X26.596 Y-12.507 E20.70769
G3 X27.445 Y-11.319 I-1.962 J2.300 E20.78315
G3 X27.967 Y-9.567 I-5.108 J2.476 E20.87725
G1 X27.955 Y-9.074 E20.90251
G3 X28.647 Y-7.790 I-2.217 J2.023 E20.97789
G3 X28.946 Y-5.986 I-5.408 J1.823 E21.07203
G1 X28.872 Y-5.5 E21.09721
G3 X29.398 Y-4.137 I-2.451 J1.729 E21.17272
G3 X29.467 Y-2.310 I-5.589 J1.126 E21.26683
G1 X29.332 Y-1.837 E21.29202
G3 X29.684 Y-0.422 I-2.650 J1.410 E21.36739
G3 X29.525 Y1.400 I-5.677 J0.423 E21.46153
G1 X29.332 Y1.855 E21.48685
G3 X29.503 Y3.299 I-2.808 J1.065 E21.56199
G3 X29.119 Y5.086 I-5.699 J-0.290 E21.65608
G1 X28.868 Y5.516 E21.68158
G3 X28.857 Y6.972 I-2.916 J0.706 E21.75684
G3 X28.251 Y8.698 I-5.628 J-1.007 E21.85100
G1 X27.95 Y9.092 E21.8764
G3 X27.756 Y10.533 I-3.016 J0.328 E21.95153
G3 X26.938 Y12.169 I-5.444 J-1.700 E22.04568
G1 X26.591 Y12.521 E22.071
G3 X26.216 Y13.931 I-3.001 J-0.043 E22.14641
G3 X25.198 Y15.452 I-5.210 J-2.386 E22.24062
G1 X24.81 Y15.756 E22.26587
G3 X24.264 Y17.106 I-2.991 J-0.424 E22.34113
G3 X23.066 Y18.485 I-4.822 J-2.979 E22.43516
G1 X22.642 Y18.739 E22.46048
G3 X21.924 Y20.018 I-2.900 J-0.787 E22.53628
G3 X20.559 Y21.234 I-4.423 J-3.591 E22.63039
G1 X20.112 Y21.43 E22.65539
G3 X19.247 Y22.602 I-2.776 J-1.144 E22.73067
G3 X17.743 Y23.641 I-3.954 J-4.115 E22.82477
G1 X17.267 Y23.782 E22.8502
G3 X16.267 Y24.832 I-2.619 J-1.493 E22.92513
G3 X14.646 Y25.677 I-3.405 J-4.555 E23.01922
G1 X14.152 Y25.759 E23.04487
G3 X13.022 Y26.679 I-2.398 J-1.791 E23.12019
G3 X11.306 Y27.312 I-2.816 J-4.990 E23.21433
G1 X10.811 Y27.33 E23.2397
G3 X9.575 Y28.101 I-2.164 J-2.093 E23.31499
G3 X7.794 Y28.513 I-2.158 J-5.275 E23.40909
G1 X7.301 Y28.469 E23.43444
G3 X5.976 Y29.080 I-1.885 J-2.345 E23.50985
G3 X4.157 Y29.264 I-1.473 J-5.479 E23.60396
G1 X3.675 Y29.16 E23.62922
G3 X2.281 Y29.600 I-1.570 J-2.547 E23.70478
G3 X0.453 Y29.554 I-0.772 J-5.659 E23.79890
G1 X-0.009 Y29.39 E23.82401
G3 X-1.438 Y29.652 I-1.241 J-2.741 E23.89909
G3 X-3.246 Y29.382 I-0.070 J-5.716 E23.99319
G1 X-3.693 Y29.157 E24.01882
G3 X-5.146 Y29.238 I-0.890 J-2.884 E24.09403
G3 X-6.906 Y28.741 I0.646 J-5.652 E24.18817
G1 X-7.316 Y28.465 E24.21349
G3 X-8.768 Y28.363 I-0.521 J-2.969 E24.28871
G3 X-10.453 Y27.649 I1.344 J-5.516 E24.38291
G1 X-10.827 Y27.324 E24.40829
G3 X-12.256 Y27.039 I-0.141 J-3.019 E24.48359
G3 X-13.837 Y26.120 I2.043 J-5.334 E24.57772
G1 X-14.165 Y25.752 E24.60297
G3 X-15.555 Y25.286 I0.229 J-2.990 E24.67876
G3 X-17.006 Y24.172 I2.706 J-5.027 E24.77292
G1 X-17.279 Y23.773 E24.79769
G3 X-18.594 Y23.143 I0.604 J-2.948 E24.87305
G3 X-19.897 Y21.860 I3.293 J-4.647 E24.96718
G1 X-20.125 Y21.418 E24.99265
G3 X-21.347 Y20.630 I0.973 J-2.851 E25.06780
G3 X-22.480 Y19.195 I3.849 J-4.204 E25.16191
G1 X-22.651 Y18.728 E25.18739
G3 X-23.770 Y17.787 I1.323 J-2.709 E25.26296
G3 X-24.710 Y16.220 I4.361 J-3.681 E25.35701
G1 X-24.819 Y15.742 E25.38213
G3 X-25.811 Y14.668 I1.640 J-2.510 E25.45769
G3 X-26.547 Y12.996 I4.763 J-3.095 E25.55173
G1 X-26.596 Y12.507 E25.5769
G3 X-27.445 Y11.319 I1.962 J-2.300 E25.65236
G3 X-27.967 Y9.567 I5.108 J-2.476 E25.74646
G1 X-27.955 Y9.074 E25.77172
G3 X-28.647 Y7.790 I2.217 J-2.023 E25.84710
G3 X-28.946 Y5.986 I5.408 J-1.823 E25.94123
G1 X-28.872 Y5.5 E25.96641
G3 X-29.398 Y4.137 I2.451 J-1.729 E26.04192
G3 X-29.467 Y2.310 I5.589 J-1.126 E26.13604
G1 X-29.332 Y1.837 E26.16123
G3 X-29.684 Y0.422 I2.650 J-1.410 E26.23659
G3 X-29.525 Y-1.400 I5.677 J-0.423 E26.33074
G1 X-29.332 Y-1.855 E26.35605
G3 X-29.503 Y-3.299 I2.808 J-1.065 E26.43120
G3 X-29.119 Y-5.086 I5.699 J0.290 E26.52528
G1 X-28.868 Y-5.516 E26.55079
G3 X-28.857 Y-6.972 I2.916 J-0.706 E26.62604
G3 X-28.251 Y-8.698 I5.628 J1.007 E26.72021
G1 X-27.95 Y-9.092 E26.7456
G3 X-27.756 Y-10.533 I3.016 J-0.328 E26.82074
G3 X-26.938 Y-12.169 I5.444 J1.700 E26.91489
G1 X-26.591 Y-12.521 E26.9402
G3 X-26.216 Y-13.931 I3.001 J0.043 E27.01562
G3 X-25.198 Y-15.452 I5.210 J2.386 E27.10983
G1 X-24.81 Y-15.756 E27.13508
G3 X-24.264 Y-17.106 I2.991 J0.424 E27.21033
G3 X-23.066 Y-18.485 I4.822 J2.979 E27.30437
G1 X-22.642 Y-18.739 E27.32968
G3 X-21.924 Y-20.018 I2.900 J0.787 E27.40549
G3 X-20.559 Y-21.234 I4.423 J3.591 E27.49959
G1 X-20.112 Y-21.43 E27.52459
G3 X-19.247 Y-22.602 I2.776 J1.144 E27.59988
G3 X-17.743 Y-23.641 I3.954 J4.115 E27.69397
G1 X-17.267 Y-23.782 E27.7194
G3 X-16.267 Y-24.832 I2.619 J1.493 E27.79433
