;FLAVOR:Repetier
;TIME:1974
;MINX:-22.011
;MINY:-22.011
;MINZ:0.18
;MAXX:22.011
;MAXY:22.011
;MAXZ:10.23
;ARCWELDERPROCESSED
; Postprocessed by [ArcWelder](https://github.com/FormerLurker/ArcWelderLib)
; Copyright(C) 2020 - Brad Hochgesang
; resolution=0.05mm
; path_tolerance=1%
; max_radius=1000000.00mm
; firmware_compensation=True
; mm_per_arc_segment=1.00mm
; min_arc_segments=12
; default_xyz_precision=3
; default_e_precision=5

;Generated with Cura_SteamEngine 4.10.0
M82 ;absolute extrusion mode
G21
G90
M82
M107 T0
M190 S120
M109 S212.0 T0
G28
G92 E0
G0 E3 F200
G92 E0

G92 E0
G92 E0
G1 F4200 E-5
;LAYER_COUNT:36
;LAYER:0
M107
G1 F8400 Z2.18
G0 F7500 X20.806 Y-6.299 Z2.18
;TYPE:SKIRT
G1 F8400 Z0.18
G1 F4200 E0.01663
G3 X21.506 Y-4.701 I-3.175 J2.343 E0.10669 F1200
G3 X21.736 Y-2.743 I-6.924 J1.806 E0.20804
G3 X21.636 Y-2.120 I-2.195 J-0.033 E0.24039
G3 X22.011 Y-0.409 I-3.600 J1.686 E0.33081
G3 X21.852 Y1.556 I-7.161 J0.409 E0.43216
G3 X21.635 Y2.142 I-2.206 J-0.484 E0.46418
G3 X21.666 Y3.901 I-3.855 J0.948 E0.55501
G3 X21.124 Y5.794 I-7.119 J-1.014 E0.65624
G1 X20.824 Y6.291 E0.68597
G3 X20.177 Y8.804 I-5.599 J-0.102 E0.82002
G3 X19.200 Y10.230 I-3.906 J-1.628 E0.90911
G3 X18.073 Y12.569 I-5.512 J-1.215 E1.04320
G3 X16.838 Y13.778 I-3.507 J-2.347 E1.13228
G3 X15.275 Y15.854 I-5.203 J-2.291 E1.26647
G3 X13.782 Y16.813 I-2.932 J-2.924 E1.35800
G3 X12.570 Y18.072 I-3.413 J-2.073 E1.44821
G3 X10.849 Y19.032 I-4.316 J-5.714 E1.54952
G3 X10.238 Y19.178 I-0.808 J-2.032 E1.58172
G3 X8.803 Y20.177 I-2.940 J-2.693 E1.67199
G3 X6.930 Y20.783 I-3.128 J-6.471 E1.77319
G3 X6.299 Y20.806 I-0.395 J-2.162 E1.80555
G3 X4.701 Y21.506 I-2.351 J-3.193 E1.89561
G3 X2.744 Y21.736 I-1.804 J-6.908 E1.99691
G3 X2.120 Y21.637 I0.038 J-2.256 E2.02930
G3 X0.409 Y22.011 I-1.686 J-3.612 E2.11971
G3 X-1.556 Y21.852 I-0.409 J-7.161 E2.22105
G3 X-2.142 Y21.635 I0.484 J-2.206 E2.25308
G3 X-3.901 Y21.666 I-0.948 J-3.858 E2.34391
G3 X-5.794 Y21.124 I1.014 J-7.119 E2.44513
G1 X-6.291 Y20.824 E2.47486
G3 X-8.804 Y20.177 I0.096 J-5.576 E2.60892
G3 X-10.230 Y19.200 I1.628 J-3.906 E2.69801
G3 X-12.569 Y18.073 I1.215 J-5.512 E2.83210
G3 X-13.778 Y16.838 I2.347 J-3.507 E2.92118
G3 X-15.856 Y15.272 I2.256 J-5.156 E3.05556
G3 X-16.813 Y13.782 I2.903 J-2.917 E3.14691
G3 X-18.072 Y12.570 I2.051 J-3.390 E3.23713
G3 X-19.032 Y10.849 I5.714 J-4.316 E3.33844
G3 X-19.178 Y10.238 I2.032 J-0.808 E3.37064
G3 X-20.177 Y8.803 I2.670 J-2.924 E3.46091
G3 X-20.783 Y6.930 I6.471 J-3.128 E3.56211
G3 X-20.806 Y6.299 I2.162 J-0.395 E3.59447
G3 X-21.506 Y4.701 I3.175 J-2.343 E3.68454
G3 X-21.736 Y2.743 I6.924 J-1.806 E3.78589
G3 X-21.636 Y2.120 I2.195 J0.033 E3.81823
G3 X-22.011 Y0.409 I3.600 J-1.686 E3.90865
G3 X-21.852 Y-1.556 I7.161 J-0.409 E4.01000
G3 X-21.635 Y-2.142 I2.206 J0.484 E4.04203
G3 X-21.666 Y-3.901 I3.855 J-0.948 E4.13285
G3 X-21.124 Y-5.794 I7.119 J1.014 E4.23408
G1 X-20.824 Y-6.291 E4.26381
G3 X-20.177 Y-8.804 I5.580 J0.097 E4.39786
G3 X-19.200 Y-10.230 I3.906 J1.628 E4.48696
G3 X-18.073 Y-12.569 I5.512 J1.215 E4.62105
G3 X-16.838 Y-13.778 I3.507 J2.347 E4.71013
G3 X-15.272 Y-15.856 I5.169 J2.266 E4.84451
G3 X-13.782 Y-16.813 I2.917 J2.903 E4.93585
G3 X-12.570 Y-18.072 I3.413 J2.073 E5.02606
G3 X-10.849 Y-19.032 I4.316 J5.714 E5.12737
G3 X-10.238 Y-19.178 I0.808 J2.032 E5.15957
G3 X-8.803 Y-20.177 I2.940 J2.693 E5.24984
G3 X-6.930 Y-20.783 I3.128 J6.471 E5.35104
G3 X-6.299 Y-20.806 I0.395 J2.162 E5.38341
G3 X-4.701 Y-21.506 I2.351 J3.193 E5.47347
G3 X-2.744 Y-21.736 I1.804 J6.908 E5.57477
G3 X-2.120 Y-21.637 I-0.038 J2.256 E5.60715
G3 X-0.409 Y-22.011 I1.686 J3.612 E5.69756
G3 X1.556 Y-21.852 I0.409 J7.161 E5.79891
G3 X2.142 Y-21.635 I-0.484 J2.206 E5.83094
G3 X3.901 Y-21.666 I0.948 J3.858 E5.92176
G3 X5.794 Y-21.124 I-1.014 J7.119 E6.02299
G1 X6.291 Y-20.824 E6.05272
G3 X8.804 Y-20.177 I-0.096 J5.576 E6.18677
G3 X10.230 Y-19.200 I-1.628 J3.906 E6.27587
G3 X12.569 Y-18.073 I-1.215 J5.512 E6.40995
G3 X13.778 Y-16.838 I-2.347 J3.507 E6.49903
G3 X15.856 Y-15.272 I-2.256 J5.156 E6.63342
G3 X16.813 Y-13.782 I-2.903 J2.917 E6.72476
G3 X18.072 Y-12.570 I-2.051 J3.390 E6.81498
G3 X19.032 Y-10.849 I-5.714 J4.316 E6.91629
G3 X19.178 Y-10.238 I-2.032 J0.808 E6.94849
G3 X20.177 Y-8.803 I-2.670 J2.924 E7.03876
G3 X20.783 Y-6.930 I-6.471 J3.128 E7.13996
G3 X20.806 Y-6.299 I-2.162 J0.395 E7.17233
G0 F7500 X20.246 Y-6.25
G1 F1200 X20.232 Y-6.141 E7.17796
G3 X20.956 Y-4.591 I-2.761 J2.234 E7.26637 F1200
G3 X21.170 Y-2.713 I-6.165 J1.654 E7.36359
G3 X21.043 Y-2.075 I-2.208 J-0.108 E7.39696
G3 X21.450 Y-0.409 I-3.150 J1.652 E7.48559
G3 X21.291 Y1.475 I-6.389 J0.409 E7.58285
G3 X21.044 Y2.069 I-2.098 J-0.524 E7.61584
G3 X21.116 Y3.791 I-3.403 J1.005 E7.70493
G3 X20.590 Y5.604 I-6.352 J-0.860 E7.80203
G3 X20.235 Y6.133 I-2.001 J-0.959 E7.83470
G3 X19.972 Y7.836 I-3.558 J0.322 E7.92376
G3 X19.103 Y9.511 I-6.025 J-2.063 E8.02083
G3 X18.650 Y9.963 I-1.739 J-1.289 E8.05365
G3 X18.061 Y11.578 I-3.563 J-0.385 E8.14249
G3 X16.883 Y13.054 I-5.536 J-3.210 E8.23962
G3 X16.348 Y13.410 I-1.427 J-1.565 E8.27259
G3 X15.457 Y14.878 I-3.410 J-1.065 E8.36133
G3 X14.013 Y16.097 I-4.799 J-4.220 E8.45854
G3 X13.415 Y16.343 I-1.099 J-1.821 E8.49171
G3 X12.258 Y17.606 I-3.103 J-1.681 E8.58024
G3 X10.605 Y18.521 I-3.894 J-5.083 E8.67743
G3 X9.969 Y18.647 I-0.743 J-2.084 E8.71069
G3 X8.588 Y19.659 I-2.722 J-2.267 E8.79917
G3 X6.790 Y20.234 I-2.833 J-5.759 E8.89627
G3 X6.139 Y20.232 I-0.319 J-2.189 E8.92967
G3 X4.591 Y20.956 I-2.228 J-2.747 E9.01799
G3 X2.714 Y21.170 I-1.652 J-6.151 E9.11517
G3 X2.076 Y21.043 I0.108 J-2.208 E9.14854
G3 X0.409 Y21.450 I-1.652 J-3.150 E9.23722
G3 X-1.475 Y21.291 I-0.409 J-6.389 E9.33447
G3 X-2.069 Y21.044 I0.524 J-2.098 E9.36747
G3 X-3.791 Y21.116 I-1.005 J-3.412 E9.45655
G3 X-5.604 Y20.590 I0.860 J-6.352 E9.55365
G3 X-6.133 Y20.234 I0.900 J-1.908 E9.58635
G3 X-7.836 Y19.972 I-0.330 J-3.519 E9.67542
G3 X-9.511 Y19.103 I2.063 J-6.025 E9.77249
G3 X-9.963 Y18.650 I1.289 J-1.739 E9.80531
G3 X-11.578 Y18.061 I0.385 J-3.563 E9.89415
G3 X-13.054 Y16.883 I3.210 J-5.536 E9.99128
G3 X-13.409 Y16.350 I1.558 J-1.422 E10.02413
G3 X-14.880 Y15.456 I1.075 J-3.426 E10.11309
G3 X-16.099 Y14.010 I4.237 J-4.809 E10.21036
G3 X-16.343 Y13.416 I1.841 J-1.103 E10.24331
G3 X-17.606 Y12.258 I1.693 J-3.114 E10.33187
G3 X-18.521 Y10.605 I5.083 J-3.894 E10.42905
G3 X-18.647 Y9.969 I2.084 J-0.743 E10.46231
G3 X-19.659 Y8.588 I2.280 J-2.732 E10.55079
G3 X-20.234 Y6.790 I5.759 J-2.833 E10.64789
G3 X-20.232 Y6.141 I2.149 J-0.318 E10.68119
G3 X-20.956 Y4.591 I2.761 J-2.234 E10.76960
G3 X-21.170 Y2.713 I6.165 J-1.654 E10.86682
G3 X-21.043 Y2.075 I2.208 J0.108 E10.90019
G3 X-21.450 Y0.409 I3.150 J-1.652 E10.98882
G3 X-21.291 Y-1.475 I6.389 J-0.409 E11.08607
G3 X-21.044 Y-2.069 I2.098 J0.524 E11.11907
G3 X-21.116 Y-3.791 I3.403 J-1.005 E11.20815
G3 X-20.590 Y-5.604 I6.352 J0.860 E11.30526
G3 X-20.235 Y-6.133 I2.001 J0.959 E11.33793
G3 X-19.972 Y-7.836 I3.552 J-0.323 E11.42699
G3 X-19.103 Y-9.511 I6.025 J2.063 E11.52406
G3 X-18.650 Y-9.963 I1.739 J1.289 E11.55688
G3 X-18.061 Y-11.578 I3.563 J0.385 E11.64572
G3 X-16.883 Y-13.054 I5.536 J3.210 E11.74285
G2 X-16.339 Y-13.451 I-1.821 J-3.066 E11.77737
G3 X-15.456 Y-14.880 I3.469 J1.156 E11.86409
G3 X-14.010 Y-16.099 I4.809 J4.237 E11.96137
G3 X-13.415 Y-16.343 I1.090 J1.811 E11.99436
G3 X-12.258 Y-17.606 I3.103 J1.681 E12.08290
G3 X-10.605 Y-18.521 I3.894 J5.083 E12.18008
G3 X-9.969 Y-18.647 I0.743 J2.084 E12.21334
G3 X-8.588 Y-19.659 I2.722 J2.267 E12.30183
G3 X-6.790 Y-20.234 I2.833 J5.759 E12.39893
G3 X-6.139 Y-20.232 I0.319 J2.189 E12.43232
G3 X-4.591 Y-20.956 I2.228 J2.747 E12.52065
G3 X-2.714 Y-21.170 I1.652 J6.151 E12.61782
G3 X-2.076 Y-21.043 I-0.108 J2.208 E12.65119
G3 X-0.409 Y-21.450 I1.652 J3.150 E12.73987
G3 X1.475 Y-21.291 I0.409 J6.389 E12.83712
G3 X2.069 Y-21.044 I-0.524 J2.098 E12.87012
G3 X3.791 Y-21.116 I1.005 J3.412 E12.95920
G3 X5.604 Y-20.590 I-0.860 J6.352 E13.05630
G3 X6.133 Y-20.234 I-0.900 J1.908 E13.08901
G3 X7.836 Y-19.972 I0.330 J3.519 E13.17808
G3 X9.511 Y-19.103 I-2.063 J6.025 E13.27514
G3 X9.963 Y-18.650 I-1.289 J1.739 E13.30796
G3 X11.578 Y-18.061 I-0.385 J3.563 E13.39680
G3 X13.054 Y-16.883 I-3.210 J5.536 E13.49393
G3 X13.409 Y-16.350 I-1.558 J1.422 E13.52678
G3 X14.880 Y-15.456 I-1.075 J3.426 E13.61574
G3 X16.099 Y-14.010 I-4.237 J4.809 E13.71302
G3 X16.343 Y-13.416 I-1.841 J1.103 E13.74596
G3 X17.606 Y-12.258 I-1.693 J3.114 E13.83452
G3 X18.521 Y-10.605 I-5.083 J3.894 E13.93170
G3 X18.647 Y-9.969 I-2.084 J0.743 E13.96496
G3 X19.659 Y-8.588 I-2.280 J2.732 E14.05345
G3 X20.234 Y-6.790 I-5.759 J2.833 E14.15054
G1 X20.246 Y-6.25 E14.17821
G0 F7500 X19.919 Y-5.629
G3 X20.567 Y-3.678 I-4.407 J2.547 E14.28434 F1200
G3 X20.603 Y-2.689 I-3.019 J0.605 E14.33519
G1 X20.431 Y-2.017 E14.37072
G3 X20.794 Y-1.169 I-2.433 J1.543 E14.41812
G3 X20.730 Y1.387 I-5.709 J1.136 E14.55016
G1 X20.432 Y2.007 E14.5854
G3 X20.623 Y2.907 I-2.698 J1.043 E14.63267
G3 X20.057 Y5.408 I-5.836 J-0.006 E14.76510
G1 X19.648 Y5.952 E14.79996
G3 X19.657 Y6.883 I-2.832 J0.493 E14.84780
G3 X18.619 Y9.215 I-5.677 J-1.130 E14.97963
G1 X18.108 Y9.671 E15.01471
G3 X17.939 Y10.578 I-2.884 J-0.068 E15.06212
G3 X16.465 Y12.669 I-5.381 J-2.228 E15.19424
G1 X15.874 Y13.019 E15.22942
G3 X15.529 Y13.878 I-2.802 J-0.627 E15.27699
G3 X13.678 Y15.639 I-4.850 J-3.245 E15.40893
G1 X13.028 Y15.867 E15.44421
G3 X12.519 Y16.644 I-2.650 J-1.181 E15.49194
G3 X10.366 Y18.006 I-4.110 J-4.114 E15.62350
G1 X9.683 Y18.104 E15.65884
G3 X9.033 Y18.766 I-2.375 J-1.681 E15.70651
G3 X6.656 Y19.682 I-3.233 J-4.848 E15.83806
G1 X5.964 Y19.644 E15.87356
G3 X5.191 Y20.170 I-1.977 J-2.074 E15.92161
G3 X2.689 Y20.603 I-2.218 J-5.372 E16.05273
G1 X2.018 Y20.431 E16.08821
G3 X1.170 Y20.794 I-1.543 J-2.433 E16.13561
G3 X-1.387 Y20.730 I-1.136 J-5.712 E16.26770
G1 X-2.007 Y20.433 E16.30291
G3 X-2.909 Y20.623 I-1.038 J-2.694 E16.35028
G3 X-5.408 Y20.057 I0.008 J-5.836 E16.48260
G1 X-5.952 Y19.648 E16.51746
G3 X-6.887 Y19.657 I-0.495 J-2.861 E16.56551
G3 X-9.215 Y18.619 I1.141 J-5.688 E16.69714
G1 X-9.671 Y18.108 E16.73222
G3 X-10.578 Y17.939 I0.068 J-2.884 E16.77963
G3 X-12.669 Y16.465 I2.228 J-5.381 E16.91175
G1 X-13.018 Y15.875 E16.94686
G3 X-13.871 Y15.534 I0.622 J-2.794 E16.99406
G3 X-15.640 Y13.676 I3.232 J-4.848 E17.12656
G1 X-15.867 Y13.027 E17.16177
G3 X-16.643 Y12.520 I1.169 J-2.636 E17.20940
G3 X-18.006 Y10.366 I4.113 J-4.111 E17.34104
G1 X-18.104 Y9.682 E17.37643
G3 X-18.768 Y9.030 I1.655 J-2.350 E17.42425
G3 X-19.682 Y6.656 I4.850 J-3.230 E17.55562
G1 X-19.644 Y5.964 E17.59112
G3 X-20.167 Y5.199 I2.047 J-1.961 E17.63874
G3 X-20.603 Y2.689 I5.374 J-2.226 E17.77030
G1 X-20.431 Y2.017 E17.80583
G3 X-20.794 Y1.169 I2.433 J-1.543 E17.85323
G3 X-20.730 Y-1.387 I5.709 J-1.136 E17.98527
G1 X-20.432 Y-2.007 E18.0205
G3 X-20.623 Y-2.907 I2.698 J-1.043 E18.06777
G3 X-20.057 Y-5.408 I5.836 J0.006 E18.20020
G1 X-19.648 Y-5.952 E18.23506
G3 X-19.657 Y-6.884 I2.840 J-0.493 E18.28296
G3 X-18.619 Y-9.215 I5.680 J1.133 E18.41474
G1 X-18.108 Y-9.671 E18.44982
G3 X-17.939 Y-10.578 I2.884 J0.068 E18.49723
G3 X-16.465 Y-12.669 I5.381 J2.228 E18.62935
G1 X-15.875 Y-13.018 E18.66446
G3 X-15.535 Y-13.870 I2.765 J0.609 E18.71160
G3 X-13.676 Y-15.640 I4.852 J3.234 E18.84416
G1 X-13.028 Y-15.867 E18.87933
G3 X-12.519 Y-16.644 I2.650 J1.181 E18.92706
G3 X-10.366 Y-18.006 I4.110 J4.114 E19.05863
G1 X-9.683 Y-18.104 E19.09397
G3 X-9.033 Y-18.766 I2.375 J1.681 E19.14164
G3 X-6.656 Y-19.682 I3.233 J4.848 E19.27318
G1 X-5.964 Y-19.644 E19.30868
G3 X-5.191 Y-20.170 I1.977 J2.074 E19.35673
G3 X-2.689 Y-20.603 I2.218 J5.372 E19.48785
G1 X-2.018 Y-20.431 E19.52333
G3 X-1.170 Y-20.794 I1.543 J2.433 E19.57073
G3 X1.387 Y-20.730 I1.136 J5.712 E19.70282
G1 X2.007 Y-20.433 E19.73803
G3 X2.909 Y-20.623 I1.038 J2.694 E19.78540
G3 X5.408 Y-20.057 I-0.008 J5.836 E19.91773
G1 X5.952 Y-19.648 E19.95258
G3 X6.887 Y-19.657 I0.495 J2.861 E20.00063
G3 X9.215 Y-18.619 I-1.141 J5.688 E20.13227
G1 X9.671 Y-18.108 E20.16735
G3 X10.578 Y-17.939 I-0.068 J2.884 E20.21475
G3 X12.669 Y-16.465 I-2.228 J5.381 E20.34687
G1 X13.018 Y-15.875 E20.38198
G3 X13.871 Y-15.534 I-0.622 J2.794 E20.42919
G3 X15.640 Y-13.676 I-3.232 J4.848 E20.56168
G1 X15.867 Y-13.027 E20.5969
G3 X16.643 Y-12.520 I-1.169 J2.636 E20.64453
G3 X18.006 Y-10.366 I-4.113 J4.111 E20.77617
G1 X18.104 Y-9.682 E20.81156
G3 X18.768 Y-9.030 I-1.655 J2.350 E20.85938
G3 X19.682 Y-6.656 I-4.850 J3.230 E20.99074
G1 X19.644 Y-5.964 E21.02624
G1 X19.919 Y-5.629 E21.04844
G0 F7500 X19.55 Y-5.165
G3 X20.066 Y-3.121 I-4.762 J2.289 E21.15715 F1200
G3 X19.925 Y-2.238 I-2.579 J0.041 E21.20313
G1 X19.794 Y-1.95 E21.21933
G3 X20.294 Y-0.821 I-1.891 J1.513 E21.28322
G3 X20.170 Y1.290 I-5.132 J0.758 E21.39232
G3 X19.794 Y1.948 I-1.999 J-0.706 E21.43128
G3 X20.065 Y3.152 I-2.170 J1.121 E21.49513
G3 X19.527 Y5.202 I-5.190 J-0.267 E21.60447
G3 X19.033 Y5.771 I-1.842 J-1.100 E21.64321
G3 X19.062 Y7.012 I-2.324 J0.675 E21.70745
G3 X18.138 Y8.910 I-4.981 J-1.251 E21.81637
G3 X17.541 Y9.372 I-1.570 J-1.412 E21.85518
G3 X17.330 Y10.591 I-2.427 J0.208 E21.91919
G3 X16.053 Y12.277 I-4.686 J-2.223 E22.02831
G3 X15.376 Y12.616 I-1.275 J-1.702 E22.06724
G3 X14.930 Y13.771 I-2.431 J-0.275 E22.13129
G3 X13.350 Y15.174 I-4.186 J-3.123 E22.24029
G3 X12.619 Y15.374 I-0.916 J-1.910 E22.27926
G3 X11.953 Y16.421 I-2.343 J-0.755 E22.34345
G3 X10.134 Y17.486 I-3.459 J-3.821 E22.45220
G3 X9.377 Y17.541 I-0.532 J-2.085 E22.49123
G3 X8.520 Y18.437 I-2.137 J-1.186 E22.55537
G3 X6.530 Y19.127 I-2.652 J-4.433 E22.66404
G3 X5.774 Y19.032 I-0.114 J-2.144 E22.70322
G3 X4.754 Y19.746 I-1.862 J-1.575 E22.76765
G3 X2.674 Y20.035 I-1.737 J-4.870 E22.87598
G3 X1.950 Y19.795 I0.309 J-2.145 E22.91519
G3 X0.822 Y20.294 I-1.517 J-1.904 E22.97900
G3 X-1.290 Y20.170 I-0.758 J-5.135 E23.08815
G3 X-1.948 Y19.794 I0.706 J-1.999 E23.12712
G3 X-3.153 Y20.065 I-1.122 J-2.175 E23.19102
G3 X-5.202 Y19.527 I0.268 J-5.191 E23.30031
G3 X-5.771 Y19.033 I1.100 J-1.842 E23.33905
G3 X-7.016 Y19.062 I-0.678 J-2.372 E23.40348
G3 X-8.910 Y18.138 I1.266 J-4.998 E23.51220
G3 X-9.372 Y17.541 I1.412 J-1.570 E23.55102
G3 X-10.591 Y17.330 I-0.208 J-2.427 E23.61502
G3 X-12.277 Y16.053 I2.223 J-4.686 E23.72414
G3 X-12.615 Y15.377 I1.679 J-1.262 E23.76300
G3 X-13.765 Y14.935 I0.270 J-2.419 E23.82675
G3 X-15.175 Y13.348 I3.089 J-4.164 E23.93628
G3 X-15.374 Y12.619 I1.942 J-0.922 E23.97513
G3 X-16.420 Y11.954 I0.751 J-2.336 E24.03925
G3 X-17.486 Y10.134 I3.819 J-3.459 E24.14807
G3 X-17.541 Y9.377 I2.085 J-0.532 E24.18710
G3 X-18.438 Y8.518 I1.181 J-2.132 E24.25136
G3 X-19.127 Y6.530 I4.431 J-2.649 E24.35991
G3 X-19.032 Y5.775 I2.133 J-0.115 E24.39904
G3 X-19.744 Y4.761 I1.578 J-1.865 E24.46314
G3 X-20.034 Y2.673 I4.857 J-1.739 E24.57191
G3 X-19.794 Y1.950 I2.091 J0.293 E24.61108
G3 X-20.294 Y0.821 I1.891 J-1.513 E24.67497
G3 X-20.170 Y-1.290 I5.132 J-0.758 E24.78407
G3 X-19.794 Y-1.948 I1.999 J0.706 E24.82304
G3 X-20.065 Y-3.152 I2.170 J-1.121 E24.88688
G3 X-19.527 Y-5.202 I5.190 J0.267 E24.99623
G3 X-19.033 Y-5.770 I1.817 J1.082 E25.03493
G3 X-19.062 Y-7.014 I2.369 J-0.678 E25.09931
G3 X-18.138 Y-8.910 I4.990 J1.258 E25.20813
G3 X-17.541 Y-9.372 I1.570 J1.412 E25.24695
G3 X-17.330 Y-10.591 I2.427 J-0.208 E25.31095
G3 X-16.053 Y-12.277 I4.686 J2.223 E25.42007
G3 X-15.377 Y-12.615 I1.262 J1.679 E25.45893
G3 X-14.935 Y-13.764 I2.421 J0.272 E25.52262
G3 X-13.348 Y-15.175 I4.157 J3.078 E25.63219
G3 X-12.619 Y-15.374 I0.922 J1.942 E25.67104
G3 X-11.953 Y-16.421 I2.343 J0.755 E25.73524
G3 X-10.134 Y-17.486 I3.459 J3.821 E25.84398
G3 X-9.377 Y-17.541 I0.532 J2.085 E25.88301
G3 X-8.520 Y-18.437 I2.137 J1.186 E25.94715
G3 X-6.530 Y-19.127 I2.652 J4.433 E26.05582
G3 X-5.774 Y-19.032 I0.114 J2.144 E26.09500
G3 X-4.754 Y-19.746 I1.862 J1.575 E26.15943
G3 X-2.674 Y-20.035 I1.737 J4.870 E26.26776
G3 X-1.950 Y-19.795 I-0.309 J2.145 E26.30697
G3 X-0.822 Y-20.294 I1.517 J1.904 E26.37078
G3 X1.290 Y-20.170 I0.758 J5.135 E26.47993
G3 X1.948 Y-19.794 I-0.706 J1.999 E26.51890
G3 X3.153 Y-20.065 I1.122 J2.175 E26.58280
G3 X5.202 Y-19.527 I-0.268 J5.191 E26.69209
